luts/cinematic_orange_teal.cube
TITLE "Cinematic Orange Teal"
LUT_3D_SIZE 5
DOMAIN_MIN 0.0 0.0 0.0
DOMAIN_MAX 1.0 1.0 1.0
0.000000 0.040000 0.160000
0.235465 0.037010 0.145050
0.530930 0.034020 0.130100
0.826395 0.031030 0.115150
1.000000 0.028040 0.100200
0.000000 0.281630 0.130650
0.256010 0.278640 0.115700
0.551475 0.275650 0.100750
0.846940 0.272660 0.085800
1.000000 0.269670 0.070850
0.000000 0.523260 0.101300
0.276555 0.520270 0.086350
0.572020 0.517280 0.071400
0.867485 0.514290 0.056450
1.000000 0.511300 0.041500
0.001635 0.764890 0.071950
0.297100 0.761900 0.057000
0.592565 0.758910 0.042050
0.888030 0.755920 0.027100
1.000000 0.752930 0.012150
0.022180 1.000000 0.042600
0.317645 1.000000 0.027650
0.613110 1.000000 0.012700
0.908575 0.997550 0.000000
1.000000 0.994560 0.000000
0.000000 0.038860 0.364300
0.239455 0.035870 0.349350
0.534920 0.032880 0.334400
0.830385 0.029890 0.319450
1.000000 0.026900 0.304500
0.000000 0.280490 0.334950
0.260000 0.277500 0.320000
0.555465 0.274510 0.305050
0.850930 0.271520 0.290100
1.000000 0.268530 0.275150
0.000000 0.522120 0.305600
0.280545 0.519130 0.290650
0.576010 0.516140 0.275700
0.871475 0.513150 0.260750
1.000000 0.510160 0.245800
0.005625 0.763750 0.276250
0.301090 0.760760 0.261300
0.596555 0.757770 0.246350
0.892020 0.754780 0.231400
1.000000 0.751790 0.216450
0.026170 1.000000 0.246900
0.321635 1.000000 0.231950
0.617100 0.999400 0.217000
0.912565 0.996410 0.202050
1.000000 0.993420 0.187100
0.000000 0.037720 0.568600
0.243445 0.034730 0.553650
0.538910 0.031740 0.538700
0.834375 0.028750 0.523750
1.000000 0.025760 0.508800
0.000000 0.279350 0.539250
0.263990 0.276360 0.524300
0.559455 0.273370 0.509350
0.854920 0.270380 0.494400
1.000000 0.267390 0.479450
0.000000 0.520980 0.509900
0.284535 0.517990 0.494950
0.580000 0.515000 0.480000
0.875465 0.512010 0.465050
1.000000 0.509020 0.450100
0.009615 0.762610 0.480550
0.305080 0.759620 0.465600
0.600545 0.756630 0.450650
0.896010 0.753640 0.435700
1.000000 0.750650 0.420750
0.030160 1.000000 0.451200
0.325625 1.000000 0.436250
0.621090 0.998260 0.421300
0.916555 0.995270 0.406350
1.000000 0.992280 0.391400
0.000000 0.036580 0.772900
0.247435 0.033590 0.757950
0.542900 0.030600 0.743000
0.838365 0.027610 0.728050
1.000000 0.024620 0.713100
0.000000 0.278210 0.743550
0.267980 0.275220 0.728600
0.563445 0.272230 0.713650
0.858910 0.269240 0.698700
1.000000 0.266250 0.683750
0.000000 0.519840 0.714200
0.288525 0.516850 0.699250
0.583990 0.513860 0.684300
0.879455 0.510870 0.669350
1.000000 0.507880 0.654400
0.013605 0.761470 0.684850
0.309070 0.758480 0.669900
0.604535 0.755490 0.654950
0.900000 0.752500 0.640000
1.000000 0.749510 0.625050
0.034150 1.000000 0.655500
0.329615 1.000000 0.640550
0.625080 0.997120 0.625600
0.920545 0.994130 0.610650
1.000000 0.991140 0.595700
0.000000 0.035440 0.977200
0.251425 0.032450 0.962250
0.546890 0.029460 0.947300
0.842355 0.026470 0.932350
1.000000 0.023480 0.917400
0.000000 0.277070 0.947850
0.271970 0.274080 0.932900
0.567435 0.271090 0.917950
0.862900 0.268100 0.903000
1.000000 0.265110 0.888050
0.000000 0.518700 0.918500
0.292515 0.515710 0.903550
0.587980 0.512720 0.888600
0.883445 0.509730 0.873650
1.000000 0.506740 0.858700
0.017595 0.760330 0.889150
0.313060 0.757340 0.874200
0.608525 0.754350 0.859250
0.903990 0.751360 0.844300
1.000000 0.748370 0.829350
0.038140 1.000000 0.859800
0.333605 0.998970 0.844850
0.629070 0.995980 0.829900
0.924535 0.992990 0.814950
1.000000 0.990000 0.800000
