luts/cinematic_orange_teal.cube
TITLE "Cinematic Orange Teal"
LUT_3D_SIZE 17
DOMAIN_MIN 0.0 0.0 0.0
DOMAIN_MAX 1.0 1.0 1.0
0.000000 0.040000 0.160000
0.013866 0.039253 0.156262
0.087733 0.038505 0.152525
0.161599 0.037757 0.148787
0.235465 0.037010 0.145050
0.309331 0.036263 0.141313
0.383197 0.035515 0.137575
0.457064 0.034767 0.133837
0.530930 0.034020 0.130100
0.604796 0.033273 0.126363
0.678662 0.032525 0.122625
0.752529 0.031778 0.118888
0.826395 0.031030 0.115150
0.900261 0.030283 0.111412
0.974127 0.029535 0.107675
1.000000 0.028788 0.103938
1.000000 0.028040 0.100200
0.000000 0.100408 0.152663
0.019002 0.099660 0.148925
0.092869 0.098913 0.145187
0.166735 0.098165 0.141450
0.240601 0.097418 0.137713
0.314467 0.096670 0.133975
0.388334 0.095922 0.130238
0.462200 0.095175 0.126500
0.536066 0.094427 0.122763
0.609932 0.093680 0.119025
0.683799 0.092933 0.115288
0.757665 0.092185 0.111550
0.831531 0.091438 0.107812
0.905397 0.090690 0.104075
0.979264 0.089943 0.100338
1.000000 0.089195 0.096600
1.000000 0.088447 0.092863
0.000000 0.160815 0.145325
0.024139 0.160068 0.141588
0.098005 0.159320 0.137850
0.171871 0.158573 0.134112
0.245737 0.157825 0.130375
0.319604 0.157077 0.126637
0.393470 0.156330 0.122900
0.467336 0.155583 0.119163
0.541202 0.154835 0.115425
0.615069 0.154087 0.111687
0.688935 0.153340 0.107950
0.762801 0.152592 0.104213
0.836668 0.151845 0.100475
0.910534 0.151097 0.096738
0.984400 0.150350 0.093000
1.000000 0.149602 0.089263
1.000000 0.148855 0.085525
0.000000 0.221222 0.137988
0.029275 0.220475 0.134250
0.103141 0.219727 0.130513
0.177007 0.218980 0.126775
0.250874 0.218232 0.123037
0.324740 0.217485 0.119300
0.398606 0.216737 0.115563
0.472472 0.215990 0.111825
0.546339 0.215243 0.108088
0.620205 0.214495 0.104350
0.694071 0.213747 0.100613
0.767937 0.213000 0.096875
0.841804 0.212252 0.093137
0.915670 0.211505 0.089400
0.989536 0.210757 0.085663
1.000000 0.210010 0.081925
1.000000 0.209262 0.078188
0.000000 0.281630 0.130650
0.034411 0.280882 0.126913
0.108277 0.280135 0.123175
0.182144 0.279388 0.119438
0.256010 0.278640 0.115700
0.329876 0.277892 0.111962
0.403743 0.277145 0.108225
0.477609 0.276398 0.104488
0.551475 0.275650 0.100750
0.625341 0.274902 0.097013
0.699207 0.274155 0.093275
0.773074 0.273408 0.089538
0.846940 0.272660 0.085800
0.920806 0.271913 0.082063
0.994672 0.271165 0.078325
1.000000 0.270417 0.074588
1.000000 0.269670 0.070850
0.000000 0.342037 0.123313
0.039547 0.341290 0.119575
0.113414 0.340543 0.115838
0.187280 0.339795 0.112100
0.261146 0.339048 0.108363
0.335012 0.338300 0.104625
0.408879 0.337553 0.100888
0.482745 0.336805 0.097150
0.556611 0.336058 0.093413
0.630478 0.335310 0.089675
0.704344 0.334562 0.085938
0.778210 0.333815 0.082200
0.852076 0.333068 0.078463
0.925942 0.332320 0.074725
0.999809 0.331572 0.070988
1.000000 0.330825 0.067250
1.000000 0.330078 0.063513
0.000000 0.402445 0.115975
0.044684 0.401697 0.112238
0.118550 0.400950 0.108500
0.192416 0.400202 0.104762
0.266282 0.399455 0.101025
0.340149 0.398707 0.097288
0.414015 0.397960 0.093550
0.487881 0.397212 0.089812
0.561747 0.396465 0.086075
0.635614 0.395717 0.082338
0.709480 0.394970 0.078600
0.783346 0.394222 0.074862
0.857212 0.393475 0.071125
0.931079 0.392727 0.067388
1.000000 0.391980 0.063650
1.000000 0.391232 0.059913
1.000000 0.390485 0.056175
0.000000 0.462853 0.108637
0.049820 0.462105 0.104900
0.123686 0.461357 0.101162
0.197552 0.460610 0.097425
0.271419 0.459863 0.093688
0.345285 0.459115 0.089950
0.419151 0.458367 0.086212
0.493017 0.457620 0.082475
0.566884 0.456872 0.078738
0.640750 0.456125 0.075000
0.714616 0.455377 0.071263
0.788482 0.454630 0.067525
0.862349 0.453882 0.063788
0.936215 0.453135 0.060050
1.000000 0.452387 0.056313
1.000000 0.451640 0.052575
1.000000 0.450892 0.048837
0.000000 0.523260 0.101300
0.054956 0.522513 0.097562
0.128822 0.521765 0.093825
0.202689 0.521018 0.090088
0.276555 0.520270 0.086350
0.350421 0.519522 0.082613
0.424287 0.518775 0.078875
0.498154 0.518027 0.075138
0.572020 0.517280 0.071400
0.645886 0.516532 0.067663
0.719752 0.515785 0.063925
0.793619 0.515038 0.060188
0.867485 0.514290 0.056450
0.941351 0.513543 0.052712
1.000000 0.512795 0.048975
1.000000 0.512047 0.045238
1.000000 0.511300 0.041500
0.000000 0.583668 0.093963
0.060092 0.582920 0.090225
0.133959 0.582172 0.086488
0.207825 0.581425 0.082750
0.281691 0.580677 0.079013
0.355557 0.579930 0.075275
0.429424 0.579183 0.071538
0.503290 0.578435 0.067800
0.577156 0.577688 0.064063
0.651022 0.576940 0.060325
0.724889 0.576192 0.056588
0.798755 0.575445 0.052850
0.872621 0.574697 0.049113
0.946487 0.573950 0.045375
1.000000 0.573203 0.041638
1.000000 0.572455 0.037900
1.000000 0.571708 0.034162
0.000000 0.644075 0.086625
0.065229 0.643328 0.082888
0.139095 0.642580 0.079150
0.212961 0.641833 0.075413
0.286827 0.641085 0.071675
0.360694 0.640338 0.067938
0.434560 0.639590 0.064200
0.508426 0.638842 0.060463
0.582292 0.638095 0.056725
0.656159 0.637348 0.052987
0.730025 0.636600 0.049250
0.803891 0.635853 0.045513
0.877757 0.635105 0.041775
0.951624 0.634358 0.038038
1.000000 0.633610 0.034300
1.000000 0.632862 0.030563
1.000000 0.632115 0.026825
0.000000 0.704483 0.079287
0.070365 0.703735 0.075550
0.144231 0.702987 0.071813
0.218097 0.702240 0.068075
0.291964 0.701493 0.064338
0.365830 0.700745 0.060600
0.439696 0.699998 0.056863
0.513562 0.699250 0.053125
0.587429 0.698503 0.049388
0.661295 0.697755 0.045650
0.735161 0.697008 0.041913
0.809028 0.696260 0.038175
0.882894 0.695513 0.034437
0.956760 0.694765 0.030700
1.000000 0.694018 0.026962
1.000000 0.693270 0.023225
1.000000 0.692523 0.019488
0.001635 0.764890 0.071950
0.075501 0.764142 0.068213
0.149367 0.763395 0.064475
0.223234 0.762647 0.060738
0.297100 0.761900 0.057000
0.370966 0.761152 0.053263
0.444833 0.760405 0.049525
0.518699 0.759657 0.045787
0.592565 0.758910 0.042050
0.666431 0.758162 0.038313
0.740297 0.757415 0.034575
0.814164 0.756667 0.030838
0.888030 0.755920 0.027100
0.961896 0.755172 0.023363
1.000000 0.754425 0.019625
1.000000 0.753677 0.015887
1.000000 0.752930 0.012150
0.006771 0.825297 0.064613
0.080638 0.824550 0.060875
0.154504 0.823802 0.057138
0.228370 0.823055 0.053400
0.302236 0.822307 0.049662
0.376102 0.821560 0.045925
0.449969 0.820812 0.042188
0.523835 0.820065 0.038450
0.597701 0.819317 0.034713
0.671567 0.818570 0.030975
0.745434 0.817823 0.027238
0.819300 0.817075 0.023500
0.893166 0.816327 0.019763
0.967032 0.815580 0.016025
1.000000 0.814832 0.012287
1.000000 0.814085 0.008550
1.000000 0.813337 0.004813
0.011908 0.885705 0.057275
0.085774 0.884957 0.053538
0.159640 0.884210 0.049800
0.233506 0.883462 0.046062
0.307372 0.882715 0.042325
0.381239 0.881968 0.038588
0.455105 0.881220 0.034850
0.528971 0.880472 0.031113
0.602838 0.879725 0.027375
0.676704 0.878977 0.023638
0.750570 0.878230 0.019900
0.824436 0.877482 0.016163
0.898303 0.876735 0.012425
0.972169 0.875987 0.008687
1.000000 0.875240 0.004950
1.000000 0.874493 0.001213
1.000000 0.873745 0.000000
0.017044 0.946113 0.049937
0.090910 0.945365 0.046200
0.164776 0.944617 0.042463
0.238642 0.943870 0.038725
0.312509 0.943122 0.034988
0.386375 0.942375 0.031250
0.460241 0.941627 0.027513
0.534107 0.940880 0.023775
0.607974 0.940132 0.020038
0.681840 0.939385 0.016300
0.755706 0.938638 0.012563
0.829572 0.937890 0.008825
0.903439 0.937142 0.005087
0.977305 0.936395 0.001350
1.000000 0.935647 0.000000
1.000000 0.934900 0.000000
1.000000 0.934152 0.000000
0.022180 1.000000 0.042600
0.096046 1.000000 0.038863
0.169912 1.000000 0.035125
0.243779 1.000000 0.031387
0.317645 1.000000 0.027650
0.391511 1.000000 0.023913
0.465377 1.000000 0.020175
0.539244 1.000000 0.016438
0.613110 1.000000 0.012700
0.686976 0.999792 0.008963
0.760842 0.999045 0.005225
0.834709 0.998297 0.001488
0.908575 0.997550 0.000000
0.982441 0.996803 0.000000
1.000000 0.996055 0.000000
1.000000 0.995308 0.000000
1.000000 0.994560 0.000000
0.000000 0.039715 0.211075
0.014864 0.038968 0.207338
0.088730 0.038220 0.203600
0.162596 0.037473 0.199863
0.236462 0.036725 0.196125
0.310329 0.035978 0.192387
0.384195 0.035230 0.188650
0.458061 0.034482 0.184912
0.531927 0.033735 0.181175
0.605794 0.032988 0.177437
0.679660 0.032240 0.173700
0.753526 0.031493 0.169963
0.827392 0.030745 0.166225
0.901259 0.029997 0.162487
0.975125 0.029250 0.158750
1.000000 0.028503 0.155012
1.000000 0.027755 0.151275
0.000000 0.100123 0.203737
0.020000 0.099375 0.200000
0.093866 0.098628 0.196263
0.167733 0.097880 0.192525
0.241599 0.097132 0.188787
0.315465 0.096385 0.185050
0.389331 0.095638 0.181312
0.463197 0.094890 0.177575
0.537064 0.094142 0.173837
0.610930 0.093395 0.170100
0.684796 0.092648 0.166363
0.758663 0.091900 0.162625
0.832529 0.091152 0.158888
0.906395 0.090405 0.155150
0.980261 0.089658 0.151413
1.000000 0.088910 0.147675
1.000000 0.088163 0.143938
0.000000 0.160530 0.196400
0.025136 0.159782 0.192662
0.099002 0.159035 0.188925
0.172869 0.158287 0.185188
0.246735 0.157540 0.181450
0.320601 0.156793 0.177712
0.394467 0.156045 0.173975
0.468334 0.155298 0.170237
0.542200 0.154550 0.166500
0.616066 0.153803 0.162763
0.689932 0.153055 0.159025
0.763799 0.152308 0.155288
0.837665 0.151560 0.151550
0.911531 0.150812 0.147813
0.985397 0.150065 0.144075
1.000000 0.149317 0.140338
1.000000 0.148570 0.136600
0.000000 0.220937 0.189062
0.030272 0.220190 0.185325
0.104139 0.219442 0.181587
0.178005 0.218695 0.177850
0.251871 0.217947 0.174113
0.325737 0.217200 0.170375
0.399604 0.216452 0.166637
0.473470 0.215705 0.162900
0.547336 0.214957 0.159163
0.621202 0.214210 0.155425
0.695069 0.213462 0.151688
0.768935 0.212715 0.147950
0.842801 0.211967 0.144212
0.916667 0.211220 0.140475
0.990534 0.210472 0.136737
1.000000 0.209725 0.133000
1.000000 0.208977 0.129263
0.000000 0.281345 0.181725
0.035409 0.280597 0.177987
0.109275 0.279850 0.174250
0.183141 0.279102 0.170512
0.257007 0.278355 0.166775
0.330874 0.277608 0.163038
0.404740 0.276860 0.159300
0.478606 0.276112 0.155563
0.552472 0.275365 0.151825
0.626339 0.274618 0.148088
0.700205 0.273870 0.144350
0.774071 0.273122 0.140613
0.847938 0.272375 0.136875
0.921804 0.271628 0.133138
0.995670 0.270880 0.129400
1.000000 0.270132 0.125663
1.000000 0.269385 0.121925
0.000000 0.341753 0.174388
0.040545 0.341005 0.170650
0.114411 0.340257 0.166913
0.188277 0.339510 0.163175
0.262144 0.338763 0.159438
0.336010 0.338015 0.155700
0.409876 0.337267 0.151963
0.483742 0.336520 0.148225
0.557609 0.335773 0.144488
0.631475 0.335025 0.140750
0.705341 0.334278 0.137013
0.779207 0.333530 0.133275
0.853074 0.332782 0.129537
0.926940 0.332035 0.125800
1.000000 0.331288 0.122062
1.000000 0.330540 0.118325
1.000000 0.329793 0.114588
0.000000 0.402160 0.167050
0.045681 0.401412 0.163313
0.119548 0.400665 0.159575
0.193414 0.399917 0.155838
0.267280 0.399170 0.152100
0.341146 0.398422 0.148363
0.415013 0.397675 0.144625
0.488879 0.396927 0.140888
0.562745 0.396180 0.137150
0.636611 0.395432 0.133413
0.710477 0.394685 0.129675
0.784344 0.393937 0.125937
0.858210 0.393190 0.122200
0.932076 0.392442 0.118462
1.000000 0.391695 0.114725
1.000000 0.390947 0.110987
1.000000 0.390200 0.107250
0.000000 0.462567 0.159713
0.050818 0.461820 0.155975
0.124684 0.461072 0.152237
0.198550 0.460325 0.148500
0.272416 0.459577 0.144763
0.346282 0.458830 0.141025
0.420149 0.458083 0.137287
0.494015 0.457335 0.133550
0.567881 0.456587 0.129812
0.641748 0.455840 0.126075
0.715614 0.455092 0.122337
0.789480 0.454345 0.118600
0.863346 0.453597 0.114863
0.937212 0.452850 0.111125
1.000000 0.452102 0.107387
1.000000 0.451355 0.103650
1.000000 0.450607 0.099912
0.000000 0.522975 0.152375
0.055954 0.522227 0.148638
0.129820 0.521480 0.144900
0.203686 0.520733 0.141162
0.277552 0.519985 0.137425
0.351419 0.519238 0.133688
0.425285 0.518490 0.129950
0.499151 0.517742 0.126213
0.573017 0.516995 0.122475
0.646884 0.516247 0.118737
0.720750 0.515500 0.115000
0.794616 0.514752 0.111262
0.868482 0.514005 0.107525
0.942349 0.513258 0.103788
1.000000 0.512510 0.100050
1.000000 0.511763 0.096312
1.000000 0.511015 0.092575
0.000000 0.583383 0.145038
0.061090 0.582635 0.141300
0.134956 0.581888 0.137563
0.208822 0.581140 0.133825
0.282689 0.580392 0.130088
0.356555 0.579645 0.126350
0.430421 0.578898 0.122613
0.504287 0.578150 0.118875
0.578154 0.577403 0.115138
0.652020 0.576655 0.111400
0.725886 0.575908 0.107662
0.799752 0.575160 0.103925
0.873619 0.574412 0.100188
0.947485 0.573665 0.096450
1.000000 0.572917 0.092713
1.000000 0.572170 0.088975
1.000000 0.571423 0.085237
0.000000 0.643790 0.137700
0.066226 0.643043 0.133962
0.140092 0.642295 0.130225
0.213959 0.641548 0.126487
0.287825 0.640800 0.122750
0.361691 0.640053 0.119012
0.435557 0.639305 0.115275
0.509424 0.638558 0.111538
0.583290 0.637810 0.107800
0.657156 0.637062 0.104063
0.731022 0.636315 0.100325
0.804889 0.635568 0.096588
0.878755 0.634820 0.092850
0.952621 0.634073 0.089112
1.000000 0.633325 0.085375
1.000000 0.632578 0.081638
1.000000 0.631830 0.077900
0.000000 0.704198 0.130362
0.071362 0.703450 0.126625
0.145229 0.702703 0.122887
0.219095 0.701955 0.119150
0.292961 0.701207 0.115413
0.366827 0.700460 0.111675
0.440694 0.699713 0.107937
0.514560 0.698965 0.104200
0.588426 0.698218 0.100462
0.662292 0.697470 0.096725
0.736159 0.696723 0.092988
0.810025 0.695975 0.089250
0.883891 0.695227 0.085512
0.957757 0.694480 0.081775
1.000000 0.693733 0.078037
1.000000 0.692985 0.074300
1.000000 0.692238 0.070563
0.002632 0.764605 0.123025
0.076499 0.763857 0.119287
0.150365 0.763110 0.115550
0.224231 0.762362 0.111813
0.298098 0.761615 0.108075
0.371964 0.760867 0.104337
0.445830 0.760120 0.100600
0.519696 0.759372 0.096862
0.593562 0.758625 0.093125
0.667429 0.757877 0.089387
0.741295 0.757130 0.085650
0.815161 0.756382 0.081913
0.889028 0.755635 0.078175
0.962894 0.754887 0.074438
1.000000 0.754140 0.070700
1.000000 0.753392 0.066962
1.000000 0.752645 0.063225
0.007769 0.825012 0.115687
0.081635 0.824265 0.111950
0.155501 0.823517 0.108212
0.229368 0.822770 0.104475
0.303234 0.822022 0.100738
0.377100 0.821275 0.097000
0.450966 0.820527 0.093262
0.524832 0.819780 0.089525
0.598699 0.819032 0.085787
0.672565 0.818285 0.082050
0.746431 0.817537 0.078313
0.820297 0.816790 0.074575
0.894164 0.816043 0.070837
0.968030 0.815295 0.067100
1.000000 0.814547 0.063362
1.000000 0.813800 0.059625
1.000000 0.813052 0.055888
0.012905 0.885420 0.108350
0.086771 0.884672 0.104612
0.160637 0.883925 0.100875
0.234504 0.883177 0.097137
0.308370 0.882430 0.093400
0.382236 0.881682 0.089663
0.456103 0.880935 0.085925
0.529969 0.880188 0.082187
0.603835 0.879440 0.078450
0.677701 0.878692 0.074713
0.751567 0.877945 0.070975
0.825434 0.877197 0.067237
0.899300 0.876450 0.063500
0.973166 0.875702 0.059762
1.000000 0.874955 0.056025
1.000000 0.874207 0.052287
1.000000 0.873460 0.048550
0.018041 0.945827 0.101013
0.091908 0.945080 0.097275
0.165774 0.944333 0.093537
0.239640 0.943585 0.089800
0.313506 0.942837 0.086063
0.387372 0.942090 0.082325
0.461239 0.941342 0.078587
0.535105 0.940595 0.074850
0.608971 0.939847 0.071113
0.682837 0.939100 0.067375
0.756704 0.938352 0.063637
0.830570 0.937605 0.059900
0.904436 0.936858 0.056162
0.978302 0.936110 0.052425
1.000000 0.935362 0.048687
1.000000 0.934615 0.044950
1.000000 0.933867 0.041213
0.023178 1.000000 0.093675
0.097044 1.000000 0.089938
0.170910 1.000000 0.086200
0.244776 1.000000 0.082462
0.318642 1.000000 0.078725
0.392509 1.000000 0.074987
0.466375 1.000000 0.071250
0.540241 1.000000 0.067513
0.614108 1.000000 0.063775
0.687974 0.999507 0.060038
0.761840 0.998760 0.056300
0.835706 0.998012 0.052562
0.909573 0.997265 0.048825
0.983439 0.996517 0.045087
1.000000 0.995770 0.041350
1.000000 0.995023 0.037613
1.000000 0.994275 0.033875
0.000000 0.039430 0.262150
0.015861 0.038683 0.258412
0.089727 0.037935 0.254675
0.163594 0.037187 0.250937
0.237460 0.036440 0.247200
0.311326 0.035693 0.243462
0.385192 0.034945 0.239725
0.459059 0.034197 0.235988
0.532925 0.033450 0.232250
0.606791 0.032703 0.228513
0.680657 0.031955 0.224775
0.754524 0.031208 0.221037
0.828390 0.030460 0.217300
0.902256 0.029712 0.213562
0.976123 0.028965 0.209825
1.000000 0.028218 0.206088
1.000000 0.027470 0.202350
0.000000 0.099837 0.254812
0.020997 0.099090 0.251075
0.094864 0.098342 0.247337
0.168730 0.097595 0.243600
0.242596 0.096848 0.239863
0.316462 0.096100 0.236125
0.390329 0.095353 0.232387
0.464195 0.094605 0.228650
0.538061 0.093857 0.224912
0.611928 0.093110 0.221175
0.685794 0.092363 0.217437
0.759660 0.091615 0.213700
0.833526 0.090868 0.209962
0.907392 0.090120 0.206225
0.981259 0.089372 0.202488
1.000000 0.088625 0.198750
1.000000 0.087877 0.195013
0.000000 0.160245 0.247475
0.026134 0.159498 0.243737
0.100000 0.158750 0.240000
0.173866 0.158002 0.236263
0.247732 0.157255 0.232525
0.321599 0.156507 0.228788
0.395465 0.155760 0.225050
0.469331 0.155012 0.221312
0.543197 0.154265 0.217575
0.617064 0.153518 0.213837
0.690930 0.152770 0.210100
0.764796 0.152023 0.206363
0.838662 0.151275 0.202625
0.912529 0.150528 0.198888
0.986395 0.149780 0.195150
1.000000 0.149033 0.191413
1.000000 0.148285 0.187675
0.000000 0.220652 0.240138
0.031270 0.219905 0.236400
0.105136 0.219157 0.232662
0.179003 0.218410 0.228925
0.252869 0.217662 0.225187
0.326735 0.216915 0.221450
0.400601 0.216167 0.217713
0.474467 0.215420 0.213975
0.548334 0.214672 0.210237
0.622200 0.213925 0.206500
0.696066 0.213177 0.202763
0.769933 0.212430 0.199025
0.843799 0.211682 0.195288
0.917665 0.210935 0.191550
0.991531 0.210187 0.187812
1.000000 0.209440 0.184075
1.000000 0.208692 0.180338
0.000000 0.281060 0.232800
0.036406 0.280313 0.229063
0.110272 0.279565 0.225325
0.184139 0.278817 0.221587
0.258005 0.278070 0.217850
0.331871 0.277323 0.214112
0.405737 0.276575 0.210375
0.479604 0.275828 0.206638
0.553470 0.275080 0.202900
0.627336 0.274332 0.199163
0.701202 0.273585 0.195425
0.775069 0.272838 0.191688
0.848935 0.272090 0.187950
0.922801 0.271342 0.184213
0.996667 0.270595 0.180475
1.000000 0.269848 0.176738
1.000000 0.269100 0.173000
0.000000 0.341468 0.225463
0.041542 0.340720 0.221725
0.115409 0.339973 0.217988
0.189275 0.339225 0.214250
0.263141 0.338477 0.210512
0.337007 0.337730 0.206775
0.410874 0.336983 0.203038
0.484740 0.336235 0.199300
0.558606 0.335487 0.195563
0.632472 0.334740 0.191825
0.706339 0.333993 0.188088
0.780205 0.333245 0.184350
0.854071 0.332498 0.180613
0.927937 0.331750 0.176875
1.000000 0.331003 0.173137
1.000000 0.330255 0.169400
1.000000 0.329508 0.165662
0.000000 0.401875 0.218125
0.046679 0.401127 0.214387
0.120545 0.400380 0.210650
0.194411 0.399632 0.206912
0.268277 0.398885 0.203175
0.342144 0.398137 0.199438
0.416010 0.397390 0.195700
0.489876 0.396642 0.191963
0.563742 0.395895 0.188225
0.637609 0.395147 0.184487
0.711475 0.394400 0.180750
0.785341 0.393652 0.177013
0.859208 0.392905 0.173275
0.933074 0.392157 0.169538
1.000000 0.391410 0.165800
1.000000 0.390662 0.162062
1.000000 0.389915 0.158325
0.000000 0.462282 0.210787
0.051815 0.461535 0.207050
0.125681 0.460787 0.203313
0.199547 0.460040 0.199575
0.273414 0.459292 0.195838
0.347280 0.458545 0.192100
0.421146 0.457797 0.188362
0.495012 0.457050 0.184625
0.568879 0.456302 0.180888
0.642745 0.455555 0.177150
0.716611 0.454807 0.173413
0.790477 0.454060 0.169675
0.864344 0.453313 0.165937
0.938210 0.452565 0.162200
1.000000 0.451817 0.158462
1.000000 0.451070 0.154725
1.000000 0.450322 0.150987
0.000000 0.522690 0.203450
0.056951 0.521942 0.199713
0.130817 0.521195 0.195975
0.204684 0.520447 0.192238
0.278550 0.519700 0.188500
0.352416 0.518953 0.184762
0.426283 0.518205 0.181025
0.500149 0.517458 0.177288
0.574015 0.516710 0.173550
0.647881 0.515962 0.169813
0.721747 0.515215 0.166075
0.795614 0.514467 0.162337
0.869480 0.513720 0.158600
0.943346 0.512972 0.154862
1.000000 0.512225 0.151125
1.000000 0.511478 0.147388
1.000000 0.510730 0.143650
0.000000 0.583098 0.196113
0.062087 0.582350 0.192375
0.135954 0.581603 0.188638
0.209820 0.580855 0.184900
0.283686 0.580107 0.181163
0.357552 0.579360 0.177425
0.431419 0.578612 0.173687
0.505285 0.577865 0.169950
0.579151 0.577118 0.166213
0.653018 0.576370 0.162475
0.726884 0.575623 0.158737
0.800750 0.574875 0.155000
0.874616 0.574128 0.151262
0.948482 0.573380 0.147525
1.000000 0.572632 0.143788
1.000000 0.571885 0.140050
1.000000 0.571137 0.136313
0.000000 0.643505 0.188775
0.067224 0.642757 0.185038
0.141090 0.642010 0.181300
0.214956 0.641263 0.177563
0.288822 0.640515 0.173825
0.362689 0.639768 0.170088
0.436555 0.639020 0.166350
0.510421 0.638273 0.162612
0.584287 0.637525 0.158875
0.658154 0.636777 0.155137
0.732020 0.636030 0.151400
0.805886 0.635282 0.147663
0.879752 0.634535 0.143925
0.953619 0.633788 0.140188
1.000000 0.633040 0.136450
1.000000 0.632293 0.132713
1.000000 0.631545 0.128975
0.000000 0.703913 0.181438
0.072360 0.703165 0.177700
0.146226 0.702418 0.173963
0.220092 0.701670 0.170225
0.293959 0.700923 0.166488
0.367825 0.700175 0.162750
0.441691 0.699428 0.159013
0.515558 0.698680 0.155275
0.589424 0.697933 0.151537
0.663290 0.697185 0.147800
0.737156 0.696438 0.144063
0.811022 0.695690 0.140325
0.884889 0.694943 0.136588
0.958755 0.694195 0.132850
1.000000 0.693447 0.129112
1.000000 0.692700 0.125375
1.000000 0.691953 0.121637
0.003630 0.764320 0.174100
0.077496 0.763572 0.170363
0.151362 0.762825 0.166625
0.225229 0.762077 0.162887
0.299095 0.761330 0.159150
0.372961 0.760582 0.155412
0.446827 0.759835 0.151675
0.520694 0.759087 0.147937
0.594560 0.758340 0.144200
0.668426 0.757592 0.140463
0.742292 0.756845 0.136725
0.816159 0.756097 0.132988
0.890025 0.755350 0.129250
0.963891 0.754602 0.125512
1.000000 0.753855 0.121775
1.000000 0.753107 0.118038
1.000000 0.752360 0.114300
0.008766 0.824727 0.166763
0.082632 0.823980 0.163025
0.156499 0.823232 0.159287
0.230365 0.822485 0.155550
0.304231 0.821737 0.151812
0.378097 0.820990 0.148075
0.451964 0.820242 0.144338
0.525830 0.819495 0.140600
0.599696 0.818747 0.136862
0.673562 0.818000 0.133125
0.747429 0.817252 0.129388
0.821295 0.816505 0.125650
0.895161 0.815757 0.121913
0.969027 0.815010 0.118175
1.000000 0.814263 0.114438
1.000000 0.813515 0.110700
1.000000 0.812767 0.106963
0.013902 0.885135 0.159425
0.087769 0.884387 0.155687
0.161635 0.883640 0.151950
0.235501 0.882892 0.148212
0.309367 0.882145 0.144475
0.383234 0.881397 0.140738
0.457100 0.880650 0.137000
0.530966 0.879902 0.133263
0.604832 0.879155 0.129525
0.678699 0.878408 0.125788
0.752565 0.877660 0.122050
0.826431 0.876912 0.118313
0.900298 0.876165 0.114575
0.974164 0.875417 0.110837
1.000000 0.874670 0.107100
1.000000 0.873922 0.103363
1.000000 0.873175 0.099625
0.019039 0.945542 0.152087
0.092905 0.944795 0.148350
0.166771 0.944047 0.144613
0.240638 0.943300 0.140875
0.314504 0.942553 0.137138
0.388370 0.941805 0.133400
0.462236 0.941057 0.129662
0.536102 0.940310 0.125925
0.609969 0.939562 0.122188
0.683835 0.938815 0.118450
0.757701 0.938067 0.114713
0.831568 0.937320 0.110975
0.905434 0.936573 0.107237
0.979300 0.935825 0.103500
1.000000 0.935078 0.099763
1.000000 0.934330 0.096025
1.000000 0.933582 0.092287
0.024175 1.000000 0.144750
0.098041 1.000000 0.141013
0.171907 1.000000 0.137275
0.245774 1.000000 0.133538
0.319640 1.000000 0.129800
0.393506 1.000000 0.126063
0.467373 1.000000 0.122325
0.541239 1.000000 0.118587
0.615105 0.999970 0.114850
0.688971 0.999223 0.111113
0.762837 0.998475 0.107375
0.836704 0.997727 0.103638
0.910570 0.996980 0.099900
0.984436 0.996232 0.096162
1.000000 0.995485 0.092425
1.000000 0.994737 0.088688
1.000000 0.993990 0.084950
0.000000 0.039145 0.313225
0.016859 0.038398 0.309487
0.090725 0.037650 0.305750
0.164591 0.036902 0.302013
0.238457 0.036155 0.298275
0.312324 0.035408 0.294538
0.386190 0.034660 0.290800
0.460056 0.033912 0.287062
0.533922 0.033165 0.283325
0.607789 0.032418 0.279588
0.681655 0.031670 0.275850
0.755521 0.030922 0.272112
0.829387 0.030175 0.268375
0.903254 0.029428 0.264638
0.977120 0.028680 0.260900
1.000000 0.027933 0.257163
1.000000 0.027185 0.253425
0.000000 0.099553 0.305887
