luts/cinematic_orange_teal.cube
TITLE "Cinematic Orange Teal"
LUT_3D_SIZE 9
DOMAIN_MIN 0.0 0.0 0.0
DOMAIN_MAX 1.0 1.0 1.0
0.000000 0.040000 0.160000
0.087733 0.038505 0.152525
0.235465 0.037010 0.145050
0.383197 0.035515 0.137575
0.530930 0.034020 0.130100
0.678662 0.032525 0.122625
0.826395 0.031030 0.115150
0.974127 0.029535 0.107675
1.000000 0.028040 0.100200
0.000000 0.160815 0.145325
0.098005 0.159320 0.137850
0.245737 0.157825 0.130375
0.393470 0.156330 0.122900
0.541202 0.154835 0.115425
0.688935 0.153340 0.107950
0.836668 0.151845 0.100475
0.984400 0.150350 0.093000
1.000000 0.148855 0.085525
0.000000 0.281630 0.130650
0.108277 0.280135 0.123175
0.256010 0.278640 0.115700
0.403743 0.277145 0.108225
0.551475 0.275650 0.100750
0.699207 0.274155 0.093275
0.846940 0.272660 0.085800
0.994672 0.271165 0.078325
1.000000 0.269670 0.070850
0.000000 0.402445 0.115975
0.118550 0.400950 0.108500
0.266282 0.399455 0.101025
0.414015 0.397960 0.093550
0.561747 0.396465 0.086075
0.709480 0.394970 0.078600
0.857212 0.393475 0.071125
1.000000 0.391980 0.063650
1.000000 0.390485 0.056175
0.000000 0.523260 0.101300
0.128822 0.521765 0.093825
0.276555 0.520270 0.086350
0.424287 0.518775 0.078875
0.572020 0.517280 0.071400
0.719752 0.515785 0.063925
0.867485 0.514290 0.056450
1.000000 0.512795 0.048975
1.000000 0.511300 0.041500
0.000000 0.644075 0.086625
0.139095 0.642580 0.079150
0.286827 0.641085 0.071675
0.434560 0.639590 0.064200
0.582292 0.638095 0.056725
0.730025 0.636600 0.049250
0.877757 0.635105 0.041775
1.000000 0.633610 0.034300
1.000000 0.632115 0.026825
0.001635 0.764890 0.071950
0.149367 0.763395 0.064475
0.297100 0.761900 0.057000
0.444833 0.760405 0.049525
0.592565 0.758910 0.042050
0.740297 0.757415 0.034575
0.888030 0.755920 0.027100
1.000000 0.754425 0.019625
1.000000 0.752930 0.012150
0.011908 0.885705 0.057275
0.159640 0.884210 0.049800
0.307372 0.882715 0.042325
0.455105 0.881220 0.034850
0.602838 0.879725 0.027375
0.750570 0.878230 0.019900
0.898303 0.876735 0.012425
1.000000 0.875240 0.004950
1.000000 0.873745 0.000000
0.022180 1.000000 0.042600
0.169912 1.000000 0.035125
0.317645 1.000000 0.027650
0.465377 1.000000 0.020175
0.613110 1.000000 0.012700
0.760842 0.999045 0.005225
0.908575 0.997550 0.000000
1.000000 0.996055 0.000000
1.000000 0.994560 0.000000
0.000000 0.039430 0.262150
0.089727 0.037935 0.254675
0.237460 0.036440 0.247200
0.385192 0.034945 0.239725
0.532925 0.033450 0.232250
0.680657 0.031955 0.224775
0.828390 0.030460 0.217300
0.976123 0.028965 0.209825
1.000000 0.027470 0.202350
0.000000 0.160245 0.247475
0.100000 0.158750 0.240000
0.247732 0.157255 0.232525
0.395465 0.155760 0.225050
0.543197 0.154265 0.217575
0.690930 0.152770 0.210100
0.838662 0.151275 0.202625
0.986395 0.149780 0.195150
1.000000 0.148285 0.187675
0.000000 0.281060 0.232800
0.110272 0.279565 0.225325
0.258005 0.278070 0.217850
0.405737 0.276575 0.210375
0.553470 0.275080 0.202900
0.701202 0.273585 0.195425
0.848935 0.272090 0.187950
0.996667 0.270595 0.180475
1.000000 0.269100 0.173000
0.000000 0.401875 0.218125
0.120545 0.400380 0.210650
0.268277 0.398885 0.203175
0.416010 0.397390 0.195700
0.563742 0.395895 0.188225
0.711475 0.394400 0.180750
0.859208 0.392905 0.173275
1.000000 0.391410 0.165800
1.000000 0.389915 0.158325
0.000000 0.522690 0.203450
0.130817 0.521195 0.195975
0.278550 0.519700 0.188500
0.426283 0.518205 0.181025
0.574015 0.516710 0.173550
0.721747 0.515215 0.166075
0.869480 0.513720 0.158600
1.000000 0.512225 0.151125
1.000000 0.510730 0.143650
0.000000 0.643505 0.188775
0.141090 0.642010 0.181300
0.288822 0.640515 0.173825
0.436555 0.639020 0.166350
0.584287 0.637525 0.158875
0.732020 0.636030 0.151400
0.879752 0.634535 0.143925
1.000000 0.633040 0.136450
1.000000 0.631545 0.128975
0.003630 0.764320 0.174100
0.151362 0.762825 0.166625
0.299095 0.761330 0.159150
0.446827 0.759835 0.151675
0.594560 0.758340 0.144200
0.742292 0.756845 0.136725
0.890025 0.755350 0.129250
1.000000 0.753855 0.121775
1.000000 0.752360 0.114300
0.013902 0.885135 0.159425
0.161635 0.883640 0.151950
0.309367 0.882145 0.144475
0.457100 0.880650 0.137000
0.604832 0.879155 0.129525
0.752565 0.877660 0.122050
0.900298 0.876165 0.114575
1.000000 0.874670 0.107100
1.000000 0.873175 0.099625
0.024175 1.000000 0.144750
0.171907 1.000000 0.137275
0.319640 1.000000 0.129800
0.467373 1.000000 0.122325
0.615105 0.999970 0.114850
0.762837 0.998475 0.107375
0.910570 0.996980 0.099900
1.000000 0.995485 0.092425
1.000000 0.993990 0.084950
0.000000 0.038860 0.364300
0.091722 0.037365 0.356825
0.239455 0.035870 0.349350
0.387187 0.034375 0.341875
0.534920 0.032880 0.334400
0.682652 0.031385 0.326925
0.830385 0.029890 0.319450
0.978117 0.028395 0.311975
1.000000 0.026900 0.304500
0.000000 0.159675 0.349625
0.101995 0.158180 0.342150
0.249727 0.156685 0.334675
0.397460 0.155190 0.327200
0.545192 0.153695 0.319725
0.692925 0.152200 0.312250
0.840658 0.150705 0.304775
0.988390 0.149210 0.297300
1.000000 0.147715 0.289825
0.000000 0.280490 0.334950
0.112267 0.278995 0.327475
0.260000 0.277500 0.320000
0.407732 0.276005 0.312525
0.555465 0.274510 0.305050
0.703197 0.273015 0.297575
0.850930 0.271520 0.290100
0.998663 0.270025 0.282625
1.000000 0.268530 0.275150
0.000000 0.401305 0.320275
0.122540 0.399810 0.312800
0.270272 0.398315 0.305325
0.418005 0.396820 0.297850
0.565738 0.395325 0.290375
0.713470 0.393830 0.282900
0.861202 0.392335 0.275425
1.000000 0.390840 0.267950
1.000000 0.389345 0.260475
0.000000 0.522120 0.305600
0.132812 0.520625 0.298125
0.280545 0.519130 0.290650
0.428277 0.517635 0.283175
0.576010 0.516140 0.275700
0.723742 0.514645 0.268225
0.871475 0.513150 0.260750
1.000000 0.511655 0.253275
1.000000 0.510160 0.245800
0.000000 0.642935 0.290925
0.143085 0.641440 0.283450
0.290817 0.639945 0.275975
0.438550 0.638450 0.268500
0.586282 0.636955 0.261025
0.734015 0.635460 0.253550
0.881748 0.633965 0.246075
1.000000 0.632470 0.238600
1.000000 0.630975 0.231125
0.005625 0.763750 0.276250
0.153357 0.762255 0.268775
0.301090 0.760760 0.261300
0.448823 0.759265 0.253825
0.596555 0.757770 0.246350
0.744287 0.756275 0.238875
0.892020 0.754780 0.231400
1.000000 0.753285 0.223925
1.000000 0.751790 0.216450
0.015897 0.884565 0.261575
0.163630 0.883070 0.254100
0.311362 0.881575 0.246625
0.459095 0.880080 0.239150
0.606827 0.878585 0.231675
0.754560 0.877090 0.224200
0.902292 0.875595 0.216725
1.000000 0.874100 0.209250
1.000000 0.872605 0.201775
0.026170 1.000000 0.246900
0.173902 1.000000 0.239425
0.321635 1.000000 0.231950
0.469367 1.000000 0.224475
0.617100 0.999400 0.217000
0.764832 0.997905 0.209525
0.912565 0.996410 0.202050
1.000000 0.994915 0.194575
1.000000 0.993420 0.187100
0.000000 0.038290 0.466450
0.093717 0.036795 0.458975
0.241450 0.035300 0.451500
0.389182 0.033805 0.444025
0.536915 0.032310 0.436550
0.684647 0.030815 0.429075
0.832380 0.029320 0.421600
0.980112 0.027825 0.414125
1.000000 0.026330 0.406650
0.000000 0.159105 0.451775
0.103990 0.157610 0.444300
0.251722 0.156115 0.436825
0.399455 0.154620 0.429350
0.547187 0.153125 0.421875
0.694920 0.151630 0.414400
0.842652 0.150135 0.406925
0.990385 0.148640 0.399450
1.000000 0.147145 0.391975
0.000000 0.279920 0.437100
0.114262 0.278425 0.429625
0.261995 0.276930 0.422150
0.409727 0.275435 0.414675
0.557460 0.273940 0.407200
0.705192 0.272445 0.399725
0.852925 0.270950 0.392250
1.000000 0.269455 0.384775
1.000000 0.267960 0.377300
0.000000 0.400735 0.422425
0.124535 0.399240 0.414950
0.272267 0.397745 0.407475
0.420000 0.396250 0.400000
0.567732 0.394755 0.392525
0.715465 0.393260 0.385050
0.863197 0.391765 0.377575
1.000000 0.390270 0.370100
1.000000 0.388775 0.362625
0.000000 0.521550 0.407750
0.134807 0.520055 0.400275
0.282540 0.518560 0.392800
0.430273 0.517065 0.385325
0.578005 0.515570 0.377850
0.725737 0.514075 0.370375
0.873470 0.512580 0.362900
1.000000 0.511085 0.355425
1.000000 0.509590 0.347950
0.000000 0.642365 0.393075
0.145080 0.640870 0.385600
0.292812 0.639375 0.378125
0.440545 0.637880 0.370650
0.588278 0.636385 0.363175
0.736010 0.634890 0.355700
0.883742 0.633395 0.348225
1.000000 0.631900 0.340750
1.000000 0.630405 0.333275
0.007620 0.763180 0.378400
0.155352 0.761685 0.370925
0.303085 0.760190 0.363450
0.450817 0.758695 0.355975
0.598550 0.757200 0.348500
0.746282 0.755705 0.341025
0.894015 0.754210 0.333550
1.000000 0.752715 0.326075
1.000000 0.751220 0.318600
0.017892 0.883995 0.363725
0.165625 0.882500 0.356250
0.313357 0.881005 0.348775
0.461090 0.879510 0.341300
0.608822 0.878015 0.333825
0.756555 0.876520 0.326350
0.904288 0.875025 0.318875
1.000000 0.873530 0.311400
1.000000 0.872035 0.303925
0.028165 1.000000 0.349050
0.175897 1.000000 0.341575
0.323630 1.000000 0.334100
0.471363 1.000000 0.326625
0.619095 0.998830 0.319150
0.766827 0.997335 0.311675
0.914560 0.995840 0.304200
1.000000 0.994345 0.296725
1.000000 0.992850 0.289250
0.000000 0.037720 0.568600
0.095712 0.036225 0.561125
0.243445 0.034730 0.553650
0.391177 0.033235 0.546175
0.538910 0.031740 0.538700
0.686642 0.030245 0.531225
0.834375 0.028750 0.523750
0.982107 0.027255 0.516275
1.000000 0.025760 0.508800
0.000000 0.158535 0.553925
0.105985 0.157040 0.546450
0.253717 0.155545 0.538975
0.401450 0.154050 0.531500
0.549183 0.152555 0.524025
0.696915 0.151060 0.516550
0.844647 0.149565 0.509075
0.992380 0.148070 0.501600
1.000000 0.146575 0.494125
0.000000 0.279350 0.539250
0.116257 0.277855 0.531775
0.263990 0.276360 0.524300
0.411722 0.274865 0.516825
0.559455 0.273370 0.509350
0.707187 0.271875 0.501875
0.854920 0.270380 0.494400
1.000000 0.268885 0.486925
1.000000 0.267390 0.479450
0.000000 0.400165 0.524575
0.126530 0.398670 0.517100
0.274262 0.397175 0.509625
0.421995 0.395680 0.502150
0.569727 0.394185 0.494675
0.717460 0.392690 0.487200
0.865192 0.391195 0.479725
1.000000 0.389700 0.472250
1.000000 0.388205 0.464775
0.000000 0.520980 0.509900
0.136802 0.519485 0.502425
0.284535 0.517990 0.494950
0.432267 0.516495 0.487475
0.580000 0.515000 0.480000
0.727732 0.513505 0.472525
0.875465 0.512010 0.465050
1.000000 0.510515 0.457575
1.000000 0.509020 0.450100
0.000000 0.641795 0.495225
0.147075 0.640300 0.487750
0.294807 0.638805 0.480275
0.442540 0.637310 0.472800
0.590272 0.635815 0.465325
0.738005 0.634320 0.457850
0.885737 0.632825 0.450375
1.000000 0.631330 0.442900
1.000000 0.629835 0.435425
0.009615 0.762610 0.480550
0.157347 0.761115 0.473075
0.305080 0.759620 0.465600
0.452813 0.758125 0.458125
0.600545 0.756630 0.450650
0.748277 0.755135 0.443175
0.896010 0.753640 0.435700
1.000000 0.752145 0.428225
1.000000 0.750650 0.420750
0.019888 0.883425 0.465875
0.167620 0.881930 0.458400
0.315352 0.880435 0.450925
0.463085 0.878940 0.443450
0.610818 0.877445 0.435975
0.758550 0.875950 0.428500
0.906282 0.874455 0.421025
1.000000 0.872960 0.413550
1.000000 0.871465 0.406075
0.030160 1.000000 0.451200
0.177893 1.000000 0.443725
0.325625 1.000000 0.436250
0.473357 0.999755 0.428775
0.621090 0.998260 0.421300
0.768822 0.996765 0.413825
0.916555 0.995270 0.406350
1.000000 0.993775 0.398875
1.000000 0.992280 0.391400
0.000000 0.037150 0.670750
0.097707 0.035655 0.663275
0.245440 0.034160 0.655800
0.393173 0.032665 0.648325
0.540905 0.031170 0.640850
0.688637 0.029675 0.633375
0.836370 0.028180 0.625900
0.984102 0.026685 0.618425
1.000000 0.025190 0.610950
0.000000 0.157965 0.656075
0.107980 0.156470 0.648600
0.255712 0.154975 0.641125
0.403445 0.153480 0.633650
0.551177 0.151985 0.626175
0.698910 0.150490 0.618700
0.846643 0.148995 0.611225
0.994375 0.147500 0.603750
1.000000 0.146005 0.596275
0.000000 0.278780 0.641400
0.118252 0.277285 0.633925
0.265985 0.275790 0.626450
0.413717 0.274295 0.618975
0.561450 0.272800 0.611500
0.709182 0.271305 0.604025
0.856915 0.269810 0.596550
1.000000 0.268315 0.589075
1.000000 0.266820 0.581600
0.000000 0.399595 0.626725
0.128525 0.398100 0.619250
0.276257 0.396605 0.611775
0.423990 0.395110 0.604300
0.571723 0.393615 0.596825
0.719455 0.392120 0.589350
0.867188 0.390625 0.581875
1.000000 0.389130 0.574400
1.000000 0.387635 0.566925
0.000000 0.520410 0.612050
0.138797 0.518915 0.604575
0.286530 0.517420 0.597100
0.434262 0.515925 0.589625
0.581995 0.514430 0.582150
0.729727 0.512935 0.574675
0.877460 0.511440 0.567200
1.000000 0.509945 0.559725
1.000000 0.508450 0.552250
0.001337 0.641225 0.597375
0.149070 0.639730 0.589900
0.296802 0.638235 0.582425
0.444535 0.636740 0.574950
0.592267 0.635245 0.567475
0.740000 0.633750 0.560000
0.887732 0.632255 0.552525
1.000000 0.630760 0.545050
1.000000 0.629265 0.537575
0.011610 0.762040 0.582700
0.159342 0.760545 0.575225
0.307075 0.759050 0.567750
0.454807 0.757555 0.560275
0.602540 0.756060 0.552800
0.750272 0.754565 0.545325
0.898005 0.753070 0.537850
1.000000 0.751575 0.530375
1.000000 0.750080 0.522900
0.021883 0.882855 0.568025
0.169615 0.881360 0.560550
0.317347 0.879865 0.553075
0.465080 0.878370 0.545600
0.612812 0.876875 0.538125
0.760545 0.875380 0.530650
0.908278 0.873885 0.523175
1.000000 0.872390 0.515700
1.000000 0.870895 0.508225
0.032155 1.000000 0.553350
0.179887 1.000000 0.545875
0.327620 1.000000 0.538400
0.475353 0.999185 0.530925
0.623085 0.997690 0.523450
0.770817 0.996195 0.515975
0.918550 0.994700 0.508500
1.000000 0.993205 0.501025
1.000000 0.991710 0.493550
0.000000 0.036580 0.772900
0.099702 0.035085 0.765425
0.247435 0.033590 0.757950
0.395168 0.032095 0.750475
0.542900 0.030600 0.743000
0.690632 0.029105 0.735525
0.838365 0.027610 0.728050
0.986097 0.026115 0.720575
1.000000 0.024620 0.713100
0.000000 0.157395 0.758225
0.109975 0.155900 0.750750
0.257707 0.154405 0.743275
0.405440 0.152910 0.735800
0.553172 0.151415 0.728325
0.700905 0.149920 0.720850
0.848637 0.148425 0.713375
0.996370 0.146930 0.705900
1.000000 0.145435 0.698425
0.000000 0.278210 0.743550
0.120247 0.276715 0.736075
0.267980 0.275220 0.728600
0.415712 0.273725 0.721125
0.563445 0.272230 0.713650
0.711177 0.270735 0.706175
0.858910 0.269240 0.698700
1.000000 0.267745 0.691225
1.000000 0.266250 0.683750
0.000000 0.399025 0.728875
0.130520 0.397530 0.721400
0.278252 0.396035 0.713925
0.425985 0.394540 0.706450
0.573717 0.393045 0.698975
0.721450 0.391550 0.691500
0.869182 0.390055 0.684025
1.000000 0.388560 0.676550
1.000000 0.387065 0.669075
0.000000 0.519840 0.714200
0.140792 0.518345 0.706725
0.288525 0.516850 0.699250
0.436257 0.515355 0.691775
0.583990 0.513860 0.684300
0.731722 0.512365 0.676825
0.879455 0.510870 0.669350
1.000000 0.509375 0.661875
1.000000 0.507880 0.654400
0.003333 0.640655 0.699525
0.151065 0.639160 0.692050
0.298797 0.637665 0.684575
0.446530 0.636170 0.677100
0.594263 0.634675 0.669625
0.741995 0.633180 0.662150
0.889728 0.631685 0.654675
1.000000 0.630190 0.647200
1.000000 0.628695 0.639725
0.013605 0.761470 0.684850
0.161337 0.759975 0.677375
0.309070 0.758480 0.669900
0.456803 0.756985 0.662425
0.604535 0.755490 0.654950
0.752267 0.753995 0.647475
0.900000 0.752500 0.640000
1.000000 0.751005 0.632525
1.000000 0.749510 0.625050
0.023878 0.882285 0.670175
0.171610 0.880790 0.662700
0.319342 0.879295 0.655225
0.467075 0.877800 0.647750
0.614807 0.876305 0.640275
0.762540 0.874810 0.632800
0.910272 0.873315 0.625325
1.000000 0.871820 0.617850
1.000000 0.870325 0.610375
0.034150 1.000000 0.655500
0.181883 1.000000 0.648025
0.329615 1.000000 0.640550
0.477347 0.998615 0.633075
0.625080 0.997120 0.625600
0.772812 0.995625 0.618125
0.920545 0.994130 0.610650
1.000000 0.992635 0.603175
1.000000 0.991140 0.595700
0.000000 0.036010 0.875050
0.101697 0.034515 0.867575
0.249430 0.033020 0.860100
0.397163 0.031525 0.852625
0.544895 0.030030 0.845150
0.692627 0.028535 0.837675
0.840360 0.027040 0.830200
0.988092 0.025545 0.822725
1.000000 0.024050 0.815250
0.000000 0.156825 0.860375
0.111970 0.155330 0.852900
0.259703 0.153835 0.845425
0.407435 0.152340 0.837950
0.555167 0.150845 0.830475
0.702900 0.149350 0.823000
0.850633 0.147855 0.815525
0.998365 0.146360 0.808050
1.000000 0.144865 0.800575
0.000000 0.277640 0.845700
0.122243 0.276145 0.838225
0.269975 0.274650 0.830750
0.417708 0.273155 0.823275
0.565440 0.271660 0.815800
0.713172 0.270165 0.808325
0.860905 0.268670 0.800850
1.000000 0.267175 0.793375
1.000000 0.265680 0.785900
0.000000 0.398455 0.831025
0.132515 0.396960 0.823550
0.280247 0.395465 0.816075
0.427980 0.393970 0.808600
0.575712 0.392475 0.801125
0.723445 0.390980 0.793650
0.871177 0.389485 0.786175
1.000000 0.387990 0.778700
1.000000 0.386495 0.771225
0.000000 0.519270 0.816350
0.142787 0.517775 0.808875
0.290520 0.516280 0.801400
0.438252 0.514785 0.793925
0.585985 0.513290 0.786450
0.733717 0.511795 0.778975
0.881450 0.510300 0.771500
1.000000 0.508805 0.764025
1.000000 0.507310 0.756550
0.005327 0.640085 0.801675
0.153060 0.638590 0.794200
0.300792 0.637095 0.786725
0.448525 0.635600 0.779250
0.596257 0.634105 0.771775
0.743990 0.632610 0.764300
0.891722 0.631115 0.756825
1.000000 0.629620 0.749350
1.000000 0.628125 0.741875
0.015600 0.760900 0.787000
0.163332 0.759405 0.779525
0.311065 0.757910 0.772050
0.458797 0.756415 0.764575
0.606530 0.754920 0.757100
0.754262 0.753425 0.749625
0.901995 0.751930 0.742150
1.000000 0.750435 0.734675
1.000000 0.748940 0.727200
0.025873 0.881715 0.772325
0.173605 0.880220 0.764850
0.321337 0.878725 0.757375
0.469070 0.877230 0.749900
0.616803 0.875735 0.742425
0.764535 0.874240 0.734950
0.912268 0.872745 0.727475
1.000000 0.871250 0.720000
1.000000 0.869755 0.712525
0.036145 1.000000 0.757650
0.183877 1.000000 0.750175
0.331610 0.999540 0.742700
0.479343 0.998045 0.735225
0.627075 0.996550 0.727750
0.774807 0.995055 0.720275
0.922540 0.993560 0.712800
1.000000 0.992065 0.705325
1.000000 0.990570 0.697850
0.000000 0.035440 0.977200
0.103692 0.033945 0.969725
0.251425 0.032450 0.962250
0.399157 0.030955 0.954775
0.546890 0.029460 0.947300
0.694622 0.027965 0.939825
0.842355 0.026470 0.932350
0.990088 0.024975 0.924875
1.000000 0.023480 0.917400
0.000000 0.156255 0.962525
0.113965 0.154760 0.955050
0.261697 0.153265 0.947575
0.409430 0.151770 0.940100
0.557163 0.150275 0.932625
0.704895 0.148780 0.925150
0.852627 0.147285 0.917675
1.000000 0.145790 0.910200
1.000000 0.144295 0.902725
0.000000 0.277070 0.947850
0.124237 0.275575 0.940375
0.271970 0.274080 0.932900
0.419702 0.272585 0.925425
0.567435 0.271090 0.917950
0.715167 0.269595 0.910475
0.862900 0.268100 0.903000
1.000000 0.266605 0.895525
1.000000 0.265110 0.888050
0.000000 0.397885 0.933175
0.134510 0.396390 0.925700
0.282243 0.394895 0.918225
0.429975 0.393400 0.910750
0.577707 0.391905 0.903275
0.725440 0.390410 0.895800
0.873173 0.388915 0.888325
1.000000 0.387420 0.880850
1.000000 0.385925 0.873375
0.000000 0.518700 0.918500
0.144782 0.517205 0.911025
0.292515 0.515710 0.903550
0.440248 0.514215 0.896075
0.587980 0.512720 0.888600
0.735712 0.511225 0.881125
0.883445 0.509730 0.873650
1.000000 0.508235 0.866175
1.000000 0.506740 0.858700
0.007322 0.639515 0.903825
0.155055 0.638020 0.896350
0.302787 0.636525 0.888875
0.450520 0.635030 0.881400
0.598252 0.633535 0.873925
0.745985 0.632040 0.866450
0.893717 0.630545 0.858975
1.000000 0.629050 0.851500
1.000000 0.627555 0.844025
0.017595 0.760330 0.889150
0.165327 0.758835 0.881675
0.313060 0.757340 0.874200
0.460792 0.755845 0.866725
0.608525 0.754350 0.859250
0.756257 0.752855 0.851775
0.903990 0.751360 0.844300
1.000000 0.749865 0.836825
1.000000 0.748370 0.829350
0.027867 0.881145 0.874475
0.175600 0.879650 0.867000
0.323332 0.878155 0.859525
0.471065 0.876660 0.852050
0.618797 0.875165 0.844575
0.766530 0.873670 0.837100
0.914262 0.872175 0.829625
1.000000 0.870680 0.822150
1.000000 0.869185 0.814675
0.038140 1.000000 0.859800
0.185872 1.000000 0.852325
0.333605 0.998970 0.844850
0.481337 0.997475 0.837375
0.629070 0.995980 0.829900
0.776802 0.994485 0.822425
0.924535 0.992990 0.814950
1.000000 0.991495 0.807475
1.000000 0.990000 0.800000
