luts/clean_studio.cube
TITLE "Clean Studio HD"
LUT_3D_SIZE 33
DOMAIN_MIN 0.0 0.0 0.0
DOMAIN_MAX 1.0 1.0 1.0
0.000000 0.000000 0.000000
0.033390 0.000000 0.000000
0.066780 0.000000 0.000000
0.100169 0.000000 0.000000
0.133558 0.000000 0.000000
0.166946 0.000000 0.000000
0.200333 0.000000 0.000000
0.233719 0.000000 0.000000
0.267104 0.000000 0.000000
0.300487 0.000000 0.000000
0.333869 0.000000 0.000000
0.367248 0.000000 0.000000
0.400626 0.000000 0.000000
0.434002 0.000000 0.000000
0.467375 0.000000 0.000000
0.500746 0.000000 0.000000
0.534115 0.000000 0.000000
0.567480 0.000000 0.000000
0.600842 0.000000 0.000000
0.634201 0.000000 0.000000
0.667557 0.000000 0.000000
0.700909 0.000000 0.000000
0.734258 0.000000 0.000000
0.767603 0.000000 0.000000
0.800943 0.000000 0.000000
0.834280 0.000000 0.000000
0.867612 0.000000 0.000000
0.900940 0.000000 0.000000
0.934262 0.000000 0.000000
0.967581 0.000000 0.000000
1.000000 0.000000 0.000000
1.000000 0.000000 0.000000
1.000000 0.000000 0.000000
0.000000 0.033276 0.000000
0.033227 0.033227 0.000000
0.066615 0.033177 0.000000
0.100002 0.033127 0.000000
0.133387 0.033075 0.000000
0.166771 0.033021 0.000000
0.200154 0.032967 0.000000
0.233535 0.032910 0.000000
0.266914 0.032852 0.000000
0.300292 0.032792 0.000000
0.333666 0.032729 0.000000
0.367039 0.032664 0.000000
0.400409 0.032596 0.000000
0.433776 0.032526 0.000000
0.467140 0.032453 0.000000
0.500502 0.032377 0.000000
0.533860 0.032297 0.000000
0.567214 0.032214 0.000000
0.600565 0.032127 0.000000
0.633912 0.032037 0.000000
0.667255 0.031943 0.000000
0.700594 0.031844 0.000000
0.733929 0.031742 0.000000
0.767260 0.031635 0.000000
0.800586 0.031523 0.000000
0.833907 0.031407 0.000000
0.867223 0.031286 0.000000
0.900535 0.031160 0.000000
0.933841 0.031029 0.000000
0.967142 0.030892 0.000000
1.000000 0.030750 0.000000
1.000000 0.030602 0.000000
1.000000 0.030449 0.000000
0.000000 0.066545 0.000000
0.033055 0.066493 0.000000
0.066439 0.066439 0.000000
0.099821 0.066384 0.000000
0.133202 0.066327 0.000000
0.166580 0.066268 0.000000
0.199957 0.066207 0.000000
0.233331 0.066143 0.000000
0.266702 0.066077 0.000000
0.300071 0.066009 0.000000
0.333437 0.065937 0.000000
0.366801 0.065863 0.000000
0.400161 0.065786 0.000000
0.433517 0.065705 0.000000
0.466870 0.065620 0.000000
0.500220 0.065533 0.000000
0.533566 0.065441 0.000000
0.566908 0.065345 0.000000
0.600245 0.065245 0.000000
0.633578 0.065141 0.000000
0.666907 0.065032 0.000000
0.700232 0.064919 0.000000
0.733551 0.064801 0.000000
0.766866 0.064678 0.000000
0.800175 0.064550 0.000000
0.833479 0.064417 0.000000
0.866778 0.064278 0.000000
0.900072 0.064134 0.000000
0.933360 0.063985 0.000000
0.966642 0.063829 0.000000
0.999918 0.063668 0.000000
1.000000 0.063500 0.000000
1.000000 0.063327 0.000000
0.000000 0.099801 0.000000
0.032868 0.099743 0.000000
0.066246 0.099683 0.000000
0.099621 0.099621 0.000000
0.132994 0.099557 0.000000
0.166365 0.099490 0.000000
0.199733 0.099421 0.000000
0.233098 0.099348 0.000000
0.266460 0.099273 0.000000
0.299819 0.099194 0.000000
0.333174 0.099112 0.000000
0.366526 0.099026 0.000000
0.399875 0.098937 0.000000
0.433219 0.098844 0.000000
0.466559 0.098747 0.000000
0.499895 0.098645 0.000000
0.533227 0.098539 0.000000
0.566554 0.098429 0.000000
0.599877 0.098314 0.000000
0.633194 0.098194 0.000000
0.666507 0.098070 0.000000
0.699815 0.097940 0.000000
0.733117 0.097805 0.000000
0.766414 0.097664 0.000000
0.799705 0.097518 0.000000
0.832991 0.097366 0.000000
0.866271 0.097209 0.000000
0.899545 0.097045 0.000000
0.932813 0.096875 0.000000
0.966074 0.096699 0.000000
0.999330 0.096517 0.000000
1.000000 0.096329 0.000000
1.000000 0.096133 0.000000
0.000000 0.133036 0.000000
0.032658 0.132970 0.000000
0.066028 0.132903 0.000000
0.099395 0.132832 0.000000
0.132759 0.132759 0.000000
0.166119 0.132682 0.000000
0.199477 0.132602 0.000000
0.232831 0.132519 0.000000
0.266182 0.132432 0.000000
0.299529 0.132341 0.000000
0.332871 0.132246 0.000000
0.366210 0.132148 0.000000
0.399545 0.132045 0.000000
0.432875 0.131937 0.000000
0.466200 0.131825 0.000000
0.499521 0.131709 0.000000
0.532837 0.131587 0.000000
0.566148 0.131460 0.000000
0.599454 0.131329 0.000000
0.632754 0.131192 0.000000
0.666049 0.131049 0.000000
0.699338 0.130901 0.000000
0.732622 0.130747 0.000000
0.765900 0.130587 0.000000
0.799171 0.130421 0.000000
0.832437 0.130250 0.000000
0.865696 0.130071 0.000000
0.898949 0.129887 0.000000
0.932196 0.129696 0.000000
0.965435 0.129498 0.000000
0.998669 0.129294 0.000000
1.000000 0.129082 0.000000
1.000000 0.128864 0.000000
0.000000 0.166243 0.000000
0.032418 0.166168 0.000000
0.065778 0.166091 0.000000
0.099135 0.166010 0.000000
0.132487 0.165925 0.000000
0.165837 0.165837 0.000000
0.199182 0.165745 0.000000
0.232523 0.165648 0.000000
0.265861 0.165548 0.000000
0.299194 0.165444 0.000000
0.332522 0.165335 0.000000
0.365846 0.165221 0.000000
0.399165 0.165102 0.000000
0.432479 0.164979 0.000000
0.465788 0.164851 0.000000
0.499092 0.164717 0.000000
0.532390 0.164578 0.000000
0.565683 0.164433 0.000000
0.598971 0.164283 0.000000
0.632252 0.164127 0.000000
0.665528 0.163965 0.000000
0.698797 0.163797 0.000000
0.732060 0.163623 0.000000
0.765317 0.163442 0.000000
0.798568 0.163255 0.000000
0.831812 0.163062 0.000000
0.865049 0.162862 0.000000
0.898280 0.162655 0.000000
0.931504 0.162441 0.000000
0.964720 0.162220 0.000000
0.997930 0.161992 0.000000
1.000000 0.161757 0.000000
1.000000 0.161514 0.000000
0.000000 0.199417 0.000000
0.032143 0.199331 0.000000
0.065491 0.199241 0.000000
0.098835 0.199148 0.000000
0.132175 0.199050 0.000000
0.165511 0.198948 0.000000
0.198842 0.198842 0.000000
0.232169 0.198731 0.000000
0.265491 0.198616 0.000000
0.298808 0.198496 0.000000
0.332120 0.198370 0.000000
0.365428 0.198240 0.000000
0.398729 0.198104 0.000000
0.432026 0.197963 0.000000
0.465317 0.197817 0.000000
0.498602 0.197664 0.000000
0.531881 0.197506 0.000000
0.565155 0.197342 0.000000
0.598422 0.197172 0.000000
0.631683 0.196995 0.000000
0.664938 0.196813 0.000000
0.698186 0.196623 0.000000
0.731427 0.196427 0.000000
0.764662 0.196225 0.000000
0.797890 0.196015 0.000000
0.831111 0.195799 0.000000
0.864325 0.195575 0.000000
0.897532 0.195345 0.000000
0.930732 0.195107 0.000000
0.963924 0.194862 0.000000
0.997109 0.194609 0.000000
1.000000 0.194349 0.000000
1.000000 0.194081 0.000000
0.000000 0.232550 0.000000
0.031826 0.232451 0.000000
0.065160 0.232348 0.000000
0.098490 0.232240 0.000000
0.131815 0.232127 0.000000
0.165135 0.232010 0.000000
0.198451 0.231888 0.000000
0.231761 0.231761 0.000000
0.265066 0.231629 0.000000
0.298366 0.231491 0.000000
0.331661 0.231348 0.000000
0.364949 0.231199 0.000000
0.398233 0.231045 0.000000
0.431510 0.230885 0.000000
0.464781 0.230718 0.000000
0.498046 0.230546 0.000000
0.531305 0.230367 0.000000
0.564557 0.230182 0.000000
0.597803 0.229990 0.000000
0.631042 0.229792 0.000000
0.664274 0.229587 0.000000
0.697500 0.229375 0.000000
0.730718 0.229156 0.000000
0.763930 0.228930 0.000000
0.797134 0.228697 0.000000
0.830331 0.228456 0.000000
0.863521 0.228208 0.000000
0.896703 0.227953 0.000000
0.929877 0.227690 0.000000
0.963044 0.227419 0.000000
0.996203 0.227141 0.000000
1.000000 0.226854 0.000000
1.000000 0.226560 0.000000
0.000000 0.265637 0.000000
0.031460 0.265523 0.000000
0.064779 0.265404 0.000000
0.098092 0.265280 0.000000
0.131401 0.265151 0.000000
0.164704 0.265017 0.000000
0.198002 0.264877 0.000000
0.231295 0.264732 0.000000
0.264581 0.264581 0.000000
0.297862 0.264425 0.000000
0.331137 0.264262 0.000000
0.364406 0.264094 0.000000
0.397669 0.263919 0.000000
0.430925 0.263738 0.000000
0.464175 0.263550 0.000000
0.497419 0.263356 0.000000
0.530656 0.263156 0.000000
0.563885 0.262948 0.000000
0.597108 0.262733 0.000000
0.630324 0.262512 0.000000
0.663533 0.262283 0.000000
0.696735 0.262047 0.000000
0.729929 0.261804 0.000000
0.763116 0.261554 0.000000
0.796295 0.261295 0.000000
0.829467 0.261030 0.000000
0.862631 0.260756 0.000000
0.895787 0.260475 0.000000
0.928936 0.260186 0.000000
0.962076 0.259889 0.000000
0.995209 0.259584 0.000000
1.000000 0.259271 0.000000
1.000000 0.258949 0.000000
0.000000 0.298671 0.000000
0.031040 0.298540 0.000000
0.064342 0.298404 0.000000
0.097638 0.298263 0.000000
0.130928 0.298115 0.000000
0.164213 0.297963 0.000000
0.197491 0.297804 0.000000
0.230764 0.297639 0.000000
0.264031 0.297468 0.000000
0.297291 0.297291 0.000000
0.330545 0.297108 0.000000
0.363793 0.296918 0.000000
0.397034 0.296722 0.000000
0.430268 0.296518 0.000000
0.463496 0.296308 0.000000
0.496716 0.296091 0.000000
0.529930 0.295867 0.000000
0.563136 0.295636 0.000000
0.596335 0.295397 0.000000
0.629526 0.295151 0.000000
0.662710 0.294898 0.000000
0.695887 0.294637 0.000000
0.729056 0.294368 0.000000
0.762217 0.294092 0.000000
0.795371 0.293808 0.000000
0.828516 0.293516 0.000000
0.861654 0.293216 0.000000
0.894783 0.292908 0.000000
0.927904 0.292592 0.000000
0.961018 0.292268 0.000000
0.994123 0.291935 0.000000
1.000000 0.291594 0.000000
1.000000 0.291245 0.000000
0.000000 0.331647 0.000000
0.030560 0.331498 0.000000
0.063843 0.331343 0.000000
0.097120 0.331182 0.000000
0.130390 0.331015 0.000000
0.163655 0.330842 0.000000
0.196913 0.330663 0.000000
0.230165 0.330477 0.000000
0.263410 0.330285 0.000000
0.296648 0.330086 0.000000
0.329880 0.329880 0.000000
0.363105 0.329667 0.000000
0.396323 0.329448 0.000000
0.429534 0.329221 0.000000
0.462737 0.328987 0.000000
0.495934 0.328746 0.000000
0.529122 0.328497 0.000000
0.562304 0.328241 0.000000
0.595478 0.327978 0.000000
0.628644 0.327706 0.000000
0.661802 0.327427 0.000000
0.694953 0.327140 0.000000
0.728095 0.326845 0.000000
0.761230 0.326542 0.000000
0.794356 0.326231 0.000000
0.827475 0.325912 0.000000
0.860585 0.325585 0.000000
0.893687 0.325250 0.000000
0.926781 0.324906 0.000000
0.959866 0.324554 0.000000
0.992943 0.324193 0.000000
1.000000 0.323824 0.000000
1.000000 0.323446 0.000000
0.000000 0.364560 0.000000
0.030015 0.364390 0.000000
0.063278 0.364215 0.000000
0.096533 0.364033 0.000000
0.129783 0.363845 0.000000
0.163026 0.363651 0.000000
0.196262 0.363449 0.000000
0.229491 0.363241 0.000000
0.262713 0.363026 0.000000
0.295929 0.362804 0.000000
0.329137 0.362574 0.000000
0.362338 0.362338 0.000000
0.395531 0.362094 0.000000
0.428718 0.361843 0.000000
0.461896 0.361584 0.000000
0.495067 0.361317 0.000000
0.528231 0.361043 0.000000
0.561386 0.360761 0.000000
0.594534 0.360471 0.000000
0.627673 0.360173 0.000000
0.660805 0.359868 0.000000
0.693929 0.359554 0.000000
0.727044 0.359232 0.000000
0.760151 0.358901 0.000000
0.793250 0.358563 0.000000
0.826341 0.358216 0.000000
0.859423 0.357861 0.000000
0.892497 0.357497 0.000000
0.925562 0.357125 0.000000
0.958619 0.356744 0.000000
0.991668 0.356355 0.000000
1.000000 0.355957 0.000000
1.000000 0.355551 0.000000
0.000000 0.397403 0.000000
0.029400 0.397213 0.000000
0.062641 0.397016 0.000000
0.095874 0.396812 0.000000
0.129101 0.396601 0.000000
0.162321 0.396383 0.000000
0.195534 0.396159 0.000000
0.228739 0.395927 0.000000
0.261937 0.395687 0.000000
0.295128 0.395441 0.000000
0.328312 0.395187 0.000000
0.361488 0.394925 0.000000
0.394656 0.394656 0.000000
0.427816 0.394379 0.000000
0.460969 0.394094 0.000000
0.494114 0.393801 0.000000
0.527251 0.393501 0.000000
0.560379 0.393192 0.000000
0.593500 0.392875 0.000000
0.626612 0.392550 0.000000
0.659717 0.392217 0.000000
0.692813 0.391875 0.000000
0.725900 0.391525 0.000000
0.758979 0.391167 0.000000
0.792050 0.390800 0.000000
0.825112 0.390425 0.000000
0.858166 0.390041 0.000000
0.891211 0.389649 0.000000
0.924248 0.389248 0.000000
0.957276 0.388838 0.000000
0.990295 0.388420 0.000000
1.000000 0.387993 0.000000
1.000000 0.387558 0.000000
0.000000 0.430173 0.000000
0.028710 0.429960 0.000000
0.061927 0.429740 0.000000
0.095137 0.429512 0.000000
0.128340 0.429278 0.000000
0.161536 0.429036 0.000000
0.194724 0.428787 0.000000
0.227905 0.428530 0.000000
0.261078 0.428265 0.000000
0.294243 0.427993 0.000000
0.327401 0.427714 0.000000
0.360551 0.427426 0.000000
0.393693 0.427130 0.000000
0.426827 0.426827 0.000000
0.459952 0.426515 0.000000
0.493070 0.426195 0.000000
0.526180 0.425867 0.000000
0.559281 0.425531 0.000000
0.592374 0.425186 0.000000
0.625458 0.424833 0.000000
0.658534 0.424472 0.000000
0.691602 0.424102 0.000000
0.724661 0.423724 0.000000
0.757712 0.423337 0.000000
0.790754 0.422941 0.000000
0.823787 0.422537 0.000000
0.856812 0.422124 0.000000
0.889828 0.421703 0.000000
0.922836 0.421273 0.000000
0.955834 0.420834 0.000000
0.988824 0.420387 0.000000
1.000000 0.419931 0.000000
1.000000 0.419466 0.000000
0.000000 0.462865 0.000000
0.027941 0.462628 0.000000
0.061134 0.462384 0.000000
0.094319 0.462132 0.000000
0.127497 0.461872 0.000000
0.160667 0.461605 0.000000
0.193830 0.461330 0.000000
0.226985 0.461047 0.000000
0.260132 0.460757 0.000000
0.293271 0.460458 0.000000
0.326402 0.460152 0.000000
0.359524 0.459837 0.000000
0.392639 0.459514 0.000000
0.425746 0.459183 0.000000
0.458844 0.458844 0.000000
0.491934 0.458496 0.000000
0.525015 0.458140 0.000000
0.558088 0.457776 0.000000
0.591153 0.457403 0.000000
0.624209 0.457021 0.000000
0.657256 0.456631 0.000000
0.690295 0.456233 0.000000
0.723325 0.455825 0.000000
0.756347 0.455410 0.000000
0.789360 0.454985 0.000000
0.822364 0.454552 0.000000
0.855360 0.454110 0.000000
0.888347 0.453659 0.000000
0.921325 0.453200 0.000000
0.954295 0.452732 0.000000
0.987255 0.452255 0.000000
1.000000 0.451770 0.000000
1.000000 0.451276 0.000000
0.000000 0.495475 0.000000
0.027088 0.495213 0.000000
0.060256 0.494943 0.000000
0.093415 0.494665 0.000000
0.126567 0.494380 0.000000
0.159711 0.494086 0.000000
0.192847 0.493785 0.000000
0.225975 0.493475 0.000000
0.259095 0.493158 0.000000
0.292207 0.492832 0.000000
0.325311 0.492498 0.000000
0.358406 0.492156 0.000000
0.391492 0.491805 0.000000
0.424571 0.491446 0.000000
0.457641 0.491078 0.000000
0.490702 0.490702 0.000000
0.523755 0.490318 0.000000
0.556800 0.489925 0.000000
0.589835 0.489523 0.000000
0.622863 0.489113 0.000000
0.655881 0.488694 0.000000
0.688891 0.488266 0.000000
0.721892 0.487830 0.000000
0.754884 0.487384 0.000000
0.787868 0.486931 0.000000
0.820843 0.486468 0.000000
0.853810 0.485997 0.000000
0.886767 0.485517 0.000000
0.919716 0.485029 0.000000
0.952656 0.484531 0.000000
0.985588 0.484025 0.000000
1.000000 0.483511 0.000000
1.000000 0.482987 0.000000
0.000000 0.528000 0.000000
0.026149 0.527711 0.000000
0.059290 0.527415 0.000000
0.092423 0.527111 0.000000
0.125548 0.526798 0.000000
0.158665 0.526478 0.000000
0.191774 0.526149 0.000000
0.224874 0.525812 0.000000
0.257966 0.525466 0.000000
0.291050 0.525113 0.000000
0.324126 0.524751 0.000000
0.357192 0.524380 0.000000
0.390251 0.524001 0.000000
0.423301 0.523613 0.000000
0.456342 0.523217 0.000000
0.489375 0.522812 0.000000
0.522399 0.522399 0.000000
0.555414 0.521976 0.000000
0.588421 0.521546 0.000000
0.621419 0.521106 0.000000
0.654408 0.520658 0.000000
0.687388 0.520201 0.000000
0.720360 0.519735 0.000000
0.753323 0.519261 0.000000
0.786278 0.518778 0.000000
0.819224 0.518286 0.000000
0.852161 0.517786 0.000000
0.885089 0.517276 0.000000
0.918009 0.516759 0.000000
0.950920 0.516232 0.000000
0.983822 0.515697 0.000000
1.000000 0.515154 0.000000
1.000000 0.514602 0.000000
0.000000 0.560435 0.000000
0.025120 0.560120 0.000000
0.058234 0.559796 0.000000
0.091340 0.559465 0.000000
0.124437 0.559125 0.000000
0.157526 0.558776 0.000000
0.190607 0.558419 0.000000
0.223679 0.558054 0.000000
0.256743 0.557680 0.000000
0.289798 0.557298 0.000000
0.322845 0.556907 0.000000
0.355883 0.556508 0.000000
0.388912 0.556100 0.000000
0.421933 0.555683 0.000000
0.454946 0.555258 0.000000
0.487949 0.554824 0.000000
0.520944 0.554381 0.000000
0.553930 0.553930 0.000000
0.586907 0.553470 0.000000
0.619876 0.553001 0.000000
0.652836 0.552524 0.000000
0.685787 0.552037 0.000000
0.718730 0.551542 0.000000
0.751664 0.551039 0.000000
0.784589 0.550526 0.000000
0.817506 0.550006 0.000000
0.850414 0.549476 0.000000
0.883313 0.548938 0.000000
0.916204 0.548391 0.000000
0.949086 0.547836 0.000000
0.981960 0.547272 0.000000
1.000000 0.546700 0.000000
1.000000 0.546120 0.000000
0.000000 0.592779 0.000000
0.023999 0.592436 0.000000
0.057085 0.592085 0.000000
0.090162 0.591725 0.000000
0.123232 0.591357 0.000000
0.156292 0.590980 0.000000
0.189344 0.590594 0.000000
0.222388 0.590200 0.000000
0.255423 0.589798 0.000000
0.288449 0.589387 0.000000
0.321467 0.588967 0.000000
0.354476 0.588539 0.000000
0.387476 0.588101 0.000000
0.420468 0.587656 0.000000
0.453451 0.587201 0.000000
0.486425 0.586738 0.000000
0.519391 0.586266 0.000000
0.552348 0.585785 0.000000
0.585296 0.585296 0.000000
0.618235 0.584798 0.000000
0.651166 0.584291 0.000000
0.684088 0.583775 0.000000
0.717001 0.583251 0.000000
0.749906 0.582719 0.000000
0.782802 0.582177 0.000000
0.815690 0.581628 0.000000
0.848569 0.581069 0.000000
0.881440 0.580502 0.000000
0.914302 0.579927 0.000000
0.947156 0.579344 0.000000
0.980002 0.578752 0.000000
1.000000 0.578152 0.000000
1.000000 0.577543 0.000000
0.000000 0.625029 0.000000
0.022783 0.624658 0.000000
0.055840 0.624278 0.000000
0.088889 0.623889 0.000000
0.121930 0.623492 0.000000
0.154962 0.623087 0.000000
0.187985 0.622672 0.000000
0.221000 0.622250 0.000000
0.254005 0.621818 0.000000
0.287003 0.621378 0.000000
0.319991 0.620929 0.000000
0.352971 0.620471 0.000000
0.385942 0.620004 0.000000
0.418904 0.619529 0.000000
0.451858 0.619045 0.000000
0.484803 0.618553 0.000000
0.517739 0.618052 0.000000
0.550667 0.617542 0.000000
0.583586 0.617023 0.000000
0.616496 0.616496 0.000000
0.649398 0.615960 0.000000
0.682291 0.615416 0.000000
0.715175 0.614863 0.000000
0.748051 0.614301 0.000000
0.780919 0.613731 0.000000
0.813778 0.613153 0.000000
0.846629 0.612567 0.000000
0.879472 0.611972 0.000000
0.912306 0.611368 0.000000
0.945132 0.610757 0.000000
0.977950 0.610138 0.000000
1.000000 0.609510 0.000000
1.000000 0.608874 0.000000
0.000000 0.657183 0.000000
0.021471 0.656783 0.000000
0.054499 0.656374 0.000000
0.087519 0.655957 0.000000
0.120531 0.655531 0.000000
0.153534 0.655096 0.000000
0.186528 0.654653 0.000000
0.219513 0.654200 0.000000
0.252489 0.653739 0.000000
0.285457 0.653270 0.000000
0.318417 0.652792 0.000000
0.351367 0.652305 0.000000
0.384309 0.651809 0.000000
0.417242 0.651304 0.000000
0.450166 0.650791 0.000000
0.483082 0.650270 0.000000
0.515989 0.649739 0.000000
0.548888 0.649200 0.000000
0.581778 0.648653 0.000000
0.614659 0.648097 0.000000
0.647532 0.647532 0.000000
0.680397 0.646959 0.000000
0.713253 0.646378 0.000000
0.746101 0.645788 0.000000
0.778941 0.645191 0.000000
0.811772 0.644584 0.000000
0.844595 0.643970 0.000000
0.877410 0.643348 0.000000
0.910217 0.642717 0.000000
0.943016 0.642079 0.000000
0.975807 0.641432 0.000000
1.000000 0.640778 0.000000
1.000000 0.640116 0.000000
0.000000 0.689240 0.000000
0.020061 0.688811 0.000000
0.053061 0.688373 0.000000
0.086051 0.687926 0.000000
0.119034 0.687471 0.000000
0.152007 0.687007 0.000000
0.184972 0.686534 0.000000
0.217928 0.686053 0.000000
0.250875 0.685563 0.000000
0.283814 0.685064 0.000000
0.316744 0.684556 0.000000
0.349665 0.684040 0.000000
0.382578 0.683515 0.000000
0.415482 0.682982 0.000000
0.448377 0.682440 0.000000
0.481264 0.681889 0.000000
0.514142 0.681330 0.000000
0.547012 0.680762 0.000000
0.579874 0.680186 0.000000
0.612727 0.679602 0.000000
0.645572 0.679009 0.000000
0.678408 0.678408 0.000000
0.711237 0.677799 0.000000
0.744057 0.677182 0.000000
0.776869 0.676556 0.000000
0.809673 0.675923 0.000000
0.842469 0.675282 0.000000
0.875257 0.674632 0.000000
0.908038 0.673976 0.000000
0.940811 0.673311 0.000000
0.973576 0.672639 0.000000
1.000000 0.671959 0.000000
1.000000 0.671272 0.000000
0.000000 0.721199 0.000000
0.018553 0.720741 0.000000
0.051523 0.720273 0.000000
0.084485 0.719797 0.000000
0.117438 0.719313 0.000000
0.150382 0.718819 0.000000
0.183317 0.718317 0.000000
0.216244 0.717807 0.000000
0.249162 0.717287 0.000000
0.282072 0.716759 0.000000
0.314973 0.716223 0.000000
0.347865 0.715678 0.000000
0.380749 0.715124 0.000000
0.413624 0.714562 0.000000
0.446491 0.713991 0.000000
0.479349 0.713412 0.000000
0.512200 0.712825 0.000000
0.545041 0.712229 0.000000
0.577875 0.711625 0.000000
0.610700 0.711013 0.000000
0.643518 0.710393 0.000000
0.676327 0.709764 0.000000
0.709128 0.709128 0.000000
0.741921 0.708484 0.000000
0.774707 0.707832 0.000000
0.807484 0.707172 0.000000
0.840254 0.706504 0.000000
0.873017 0.705829 0.000000
0.905772 0.705147 0.000000
0.938520 0.704457 0.000000
0.971260 0.703760 0.000000
1.000000 0.703056 0.000000
1.000000 0.702344 0.000000
0.000000 0.753060 0.000000
0.016947 0.752572 0.000000
0.049888 0.752075 0.000000
0.082820 0.751570 0.000000
0.115744 0.751056 0.000000
0.148659 0.750534 0.000000
0.181565 0.750002 0.000000
0.214463 0.749463 0.000000
0.247352 0.748914 0.000000
0.280233 0.748358 0.000000
0.313105 0.747792 0.000000
0.345969 0.747219 0.000000
0.378824 0.746637 0.000000
0.411671 0.746046 0.000000
0.444510 0.745447 0.000000
0.477341 0.744841 0.000000
0.510163 0.744225 0.000000
0.542977 0.743602 0.000000
0.575784 0.742971 0.000000
0.608582 0.742332 0.000000
0.641372 0.741685 0.000000
0.674155 0.741030 0.000000
0.706930 0.740367 0.000000
0.739697 0.739697 0.000000
0.772457 0.739019 0.000000
0.805209 0.738334 0.000000
0.837954 0.737642 0.000000
0.870692 0.736942 0.000000
0.903422 0.736235 0.000000
0.936146 0.735521 0.000000
0.968862 0.734800 0.000000
1.000000 0.734072 0.000000
1.000000 0.733338 0.000000
0.000000 0.784821 0.000000
0.015242 0.784304 0.000000
0.048154 0.783779 0.000000
0.081057 0.783244 0.000000
0.113952 0.782702 0.000000
0.146838 0.782150 0.000000
0.179715 0.781590 0.000000
0.212585 0.781022 0.000000
0.245445 0.780445 0.000000
0.278298 0.779860 0.000000
0.311142 0.779267 0.000000
0.343977 0.778665 0.000000
0.376805 0.778055 0.000000
0.409624 0.777437 0.000000
0.442436 0.776811 0.000000
0.475239 0.776177 0.000000
0.508035 0.775535 0.000000
0.540822 0.774885 0.000000
0.573602 0.774227 0.000000
0.606374 0.773562 0.000000
0.639139 0.772889 0.000000
0.671896 0.772208 0.000000
0.704645 0.771520 0.000000
0.737388 0.770825 0.000000
0.770123 0.770123 0.000000
0.802851 0.769413 0.000000
0.835572 0.768697 0.000000
0.868286 0.767973 0.000000
0.900993 0.767243 0.000000
0.933694 0.766506 0.000000
0.966388 0.765763 0.000000
0.999075 0.765013 0.000000
1.000000 0.764256 0.000000
0.000000 0.816485 0.000000
0.013439 0.815939 0.000000
0.046322 0.815385 0.000000
0.079197 0.814822 0.000000
0.112063 0.814250 0.000000
0.144921 0.813671 0.000000
0.177770 0.813083 0.000000
0.210611 0.812486 0.000000
0.243444 0.811881 0.000000
0.276268 0.811268 0.000000
0.309085 0.810647 0.000000
0.341893 0.810018 0.000000
0.374694 0.809381 0.000000
0.407486 0.808736 0.000000
0.440271 0.808084 0.000000
0.473048 0.807423 0.000000
0.505818 0.806755 0.000000
0.538579 0.806079 0.000000
0.571334 0.805396 0.000000
0.604081 0.804706 0.000000
0.636820 0.804008 0.000000
0.669553 0.803303 0.000000
0.702278 0.802591 0.000000
0.734997 0.801872 0.000000
0.767708 0.801146 0.000000
0.800413 0.800413 0.000000
0.833111 0.799674 0.000000
0.865803 0.798928 0.000000
0.898488 0.798176 0.000000
0.931167 0.797417 0.000000
0.963840 0.796653 0.000000
0.996507 0.795882 0.000000
1.000000 0.795105 0.000000
0.000000 0.848052 0.000000
0.011540 0.847478 0.000000
0.044395 0.846895 0.000000
0.077241 0.846304 0.000000
0.110079 0.845704 0.000000
0.142909 0.845097 0.000000
0.175731 0.844481 0.000000
0.208544 0.843857 0.000000
0.241350 0.843225 0.000000
0.274147 0.842585 0.000000
0.306937 0.841937 0.000000
0.339719 0.841282 0.000000
0.372493 0.840618 0.000000
0.405260 0.839947 0.000000
0.438019 0.839269 0.000000
0.470771 0.838583 0.000000
0.503515 0.837890 0.000000
0.536252 0.837189 0.000000
0.568982 0.836482 0.000000
0.601705 0.835767 0.000000
0.634421 0.835046 0.000000
0.667130 0.834317 0.000000
0.699832 0.833582 0.000000
0.732528 0.832840 0.000000
0.765217 0.832092 0.000000
0.797900 0.831338 0.000000
0.830577 0.830577 0.000000
