luts/clean_studio.cube
TITLE "Clean Studio HD"
LUT_3D_SIZE 9
DOMAIN_MIN 0.0 0.0 0.0
DOMAIN_MAX 1.0 1.0 1.0
0.000000 0.000000 0.000000
0.133558 0.000000 0.000000
0.267104 0.000000 0.000000
0.400626 0.000000 0.000000
0.534115 0.000000 0.000000
0.667557 0.000000 0.000000
0.800943 0.000000 0.000000
0.934262 0.000000 0.000000
1.000000 0.000000 0.000000
0.000000 0.133036 0.000000
0.132759 0.132759 0.000000
0.266182 0.132432 0.000000
0.399545 0.132045 0.000000
0.532837 0.131587 0.000000
0.666049 0.131049 0.000000
0.799171 0.130421 0.000000
0.932196 0.129696 0.000000
1.000000 0.128864 0.000000
0.000000 0.265637 0.000000
0.131401 0.265151 0.000000
0.264581 0.264581 0.000000
0.397669 0.263919 0.000000
0.530656 0.263156 0.000000
0.663533 0.262283 0.000000
0.796295 0.261295 0.000000
0.928936 0.260186 0.000000
1.000000 0.258949 0.000000
0.000000 0.397403 0.000000
0.129101 0.396601 0.000000
0.261937 0.395687 0.000000
0.394656 0.394656 0.000000
0.527251 0.393501 0.000000
0.659717 0.392217 0.000000
0.792050 0.390800 0.000000
0.924248 0.389248 0.000000
1.000000 0.387558 0.000000
0.000000 0.528000 0.000000
0.125548 0.526798 0.000000
0.257966 0.525466 0.000000
0.390251 0.524001 0.000000
0.522399 0.522399 0.000000
0.654408 0.520658 0.000000
0.786278 0.518778 0.000000
0.918009 0.516759 0.000000
1.000000 0.514602 0.000000
0.000000 0.657183 0.000000
0.120531 0.655531 0.000000
0.252489 0.653739 0.000000
0.384309 0.651809 0.000000
0.515989 0.649739 0.000000
0.647532 0.647532 0.000000
0.778941 0.645191 0.000000
0.910217 0.642717 0.000000
1.000000 0.640116 0.000000
0.000000 0.784821 0.000000
0.113952 0.782702 0.000000
0.245445 0.780445 0.000000
0.376805 0.778055 0.000000
0.508035 0.775535 0.000000
0.639139 0.772889 0.000000
0.770123 0.770123 0.000000
0.900993 0.767243 0.000000
1.000000 0.764256 0.000000
0.000000 0.910902 0.000000
0.105836 0.908336 0.000000
0.236895 0.905645 0.000000
0.367837 0.902837 0.000000
0.498668 0.899918 0.000000
0.629394 0.896894 0.000000
0.760025 0.893775 0.000000
0.890569 0.890569 0.000000
1.000000 0.887285 0.000000
0.000000 1.000000 0.000000
0.096329 1.000000 0.000000
0.227019 1.000000 0.000000
0.357617 1.000000 0.000000
0.488132 1.000000 0.000000
0.618572 1.000000 0.000000
0.748948 1.000000 0.000000
0.879271 1.000000 0.000000
1.000000 1.000000 0.000000
0.000000 0.000000 0.133685
0.133490 0.000000 0.133490
0.267030 0.000000 0.133280
0.400542 0.000000 0.133042
0.534016 0.000000 0.132766
0.667440 0.000000 0.132440
0.800805 0.000000 0.132055
0.934099 0.000000 0.131599
1.000000 0.000000 0.131063
0.000000 0.132946 0.132946
0.132654 0.132654 0.132654
0.266058 0.132308 0.132308
0.399398 0.131898 0.131898
0.532664 0.131414 0.131414
0.665846 0.130846 0.130846
0.798936 0.130186 0.130186
0.931925 0.129425 0.129425
1.000000 0.128556 0.128556
0.000000 0.265481 0.131731
0.131217 0.264967 0.131217
0.264367 0.264367 0.130617
0.397421 0.263671 0.129921
0.530372 0.262872 0.129122
0.663211 0.261961 0.128211
0.795932 0.260932 0.127182
0.928530 0.259780 0.126030
1.000000 0.258500 0.124750
0.000000 0.397143 0.129643
0.128804 0.396304 0.128804
0.261601 0.395351 0.127851
0.394278 0.394278 0.126778
0.526829 0.393079 0.125579
0.659251 0.391751 0.124251
0.791538 0.390288 0.122788
0.923689 0.388689 0.121189
1.000000 0.386952 0.119452
0.000000 0.527606 0.126356
0.125111 0.526361 0.125111
0.257484 0.524984 0.123734
0.389722 0.523472 0.122222
0.521823 0.521823 0.120573
0.653785 0.520035 0.118785
0.785608 0.518108 0.116858
0.917292 0.516042 0.114792
1.000000 0.513838 0.112588
0.000000 0.656638 0.121638
0.119938 0.654938 0.119938
0.251849 0.653099 0.118099
0.383621 0.651121 0.116121
0.515255 0.649005 0.114005
0.646752 0.646752 0.111752
0.778115 0.644365 0.109365
0.909348 0.641848 0.106848
1.000000 0.639205 0.104205
0.000000 0.784117 0.115367
0.113201 0.781951 0.113201
0.244648 0.779648 0.110898
0.375963 0.777213 0.108463
0.507150 0.774650 0.105900
0.638213 0.771963 0.103213
0.769157 0.769157 0.100407
0.899990 0.766240 0.097490
1.000000 0.763219 0.094469
0.000000 0.910045 0.107545
0.104936 0.907436 0.104936
0.235955 0.904705 0.102205
0.366858 0.901858 0.099358
0.497652 0.898902 0.096402
0.628345 0.895845 0.093345
0.758946 0.892696 0.090196
0.889462 0.889462 0.086962
1.000000 0.886154 0.083654
0.000000 1.000000 0.098294
0.095301 1.000000 0.095301
0.225959 1.000000 0.092209
0.356528 1.000000 0.089028
0.487016 1.000000 0.085766
0.617433 1.000000 0.082433
0.747790 1.000000 0.079040
0.878097 1.000000 0.075597
1.000000 1.000000 0.072116
0.000000 0.000000 0.267370
0.133421 0.000000 0.267171
0.266952 0.000000 0.266952
0.400453 0.000000 0.266703
0.533911 0.000000 0.266411
0.667317 0.000000 0.266067
0.800659 0.000000 0.265659
0.933927 0.000000 0.265177
1.000000 0.000000 0.264611
0.000000 0.132852 0.266602
0.132543 0.132543 0.266293
0.265926 0.132176 0.265926
0.399242 0.131742 0.265492
0.532481 0.131231 0.264981
0.665633 0.130633 0.264383
0.798690 0.129940 0.263690
0.931643 0.129143 0.262893
1.000000 0.128235 0.261985
0.000000 0.265316 0.265316
0.131024 0.264774 0.264774
0.264142 0.264142 0.264142
0.397162 0.263412 0.263412
0.530075 0.262575 0.262575
0.662875 0.261625 0.261625
0.795555 0.260555 0.260555
0.928110 0.259360 0.259360
1.000000 0.258035 0.258035
0.000000 0.396870 0.263120
0.128493 0.395993 0.262243
0.261250 0.395000 0.261250
0.393885 0.393885 0.260135
0.526393 0.392643 0.258893
0.658769 0.391269 0.257519
0.791011 0.389761 0.256011
0.923115 0.388115 0.254365
1.000000 0.386330 0.252580
0.000000 0.527198 0.259698
0.124658 0.525908 0.258408
0.256986 0.524486 0.256986
0.389178 0.522928 0.255428
0.521231 0.521231 0.253731
0.653146 0.519396 0.251896
0.784922 0.517422 0.249922
0.916559 0.515309 0.247809
1.000000 0.513059 0.245559
0.000000 0.656076 0.254826
0.119329 0.654329 0.253079
0.251193 0.652443 0.251193
0.382918 0.650418 0.249168
0.514505 0.648255 0.247005
0.645956 0.645956 0.244706
0.777275 0.643525 0.242275
0.908464 0.640964 0.239714
1.000000 0.638280 0.237030
0.000000 0.783397 0.248397
0.112434 0.781184 0.246184
0.243836 0.778836 0.243836
0.375107 0.776357 0.241357
0.506251 0.773751 0.238751
0.637273 0.771023 0.236023
0.768179 0.768179 0.233179
0.898976 0.765226 0.230226
1.000000 0.762171 0.227171
0.000000 0.909173 0.240423
0.104021 0.906521 0.237771
0.235000 0.903750 0.235000
0.365866 0.900866 0.232116
0.496625 0.897875 0.229125
0.627286 0.894786 0.226036
0.757856 0.891606 0.222856
0.888346 0.888346 0.219596
1.000000 0.885015 0.216265
0.000000 1.000000 0.231039
0.094261 1.000000 0.228011
0.224888 1.000000 0.224888
0.355428 1.000000 0.221678
0.485891 1.000000 0.218391
0.616287 1.000000 0.215037
0.746626 1.000000 0.211626
0.876919 1.000000 0.208169
1.000000 1.000000 0.204676
0.000000 0.000000 0.401054
0.133349 0.000000 0.400849
0.266872 0.000000 0.400622
0.400359 0.000000 0.400359
0.533801 0.000000 0.400051
0.667186 0.000000 0.399686
0.800504 0.000000 0.399254
0.933744 0.000000 0.398744
1.000000 0.000000 0.398149
0.000000 0.132753 0.400253
0.132425 0.132425 0.399925
0.265787 0.132037 0.399537
0.399078 0.131578 0.399078
0.532288 0.131038 0.398538
0.665409 0.130409 0.397909
0.798431 0.129681 0.397181
0.931347 0.128847 0.396347
1.000000 0.127900 0.395400
0.000000 0.265141 0.398891
0.130820 0.264570 0.398320
0.263906 0.263906 0.397656
0.396890 0.263140 0.396890
0.529766 0.262266 0.396016
0.662526 0.261276 0.395026
0.795164 0.260164 0.393914
0.927675 0.258925 0.392675
1.000000 0.257554 0.391304
0.000000 0.396585 0.396585
0.128169 0.395669 0.395669
0.260885 0.394635 0.394635
0.393478 0.393478 0.393478
0.525941 0.392191 0.392191
0.658272 0.390772 0.390772
0.790467 0.389217 0.389217
0.922524 0.387524 0.387524
1.000000 0.385693 0.385693
0.000000 0.526774 0.393024
0.124190 0.525440 0.391690
0.256472 0.523972 0.390222
0.388617 0.522367 0.388617
0.520624 0.520624 0.386874
0.652491 0.518741 0.384991
0.784219 0.516719 0.382969
0.915810 0.514560 0.380810
1.000000 0.512264 0.378514
0.000000 0.655498 0.387998
0.118704 0.653704 0.386204
0.250521 0.651771 0.384271
0.382199 0.649699 0.382199
0.513740 0.647490 0.379990
0.645145 0.645145 0.377645
0.776419 0.642669 0.375169
0.907566 0.640066 0.372566
1.000000 0.637341 0.369841
0.000000 0.782660 0.381410
0.111651 0.780401 0.379151
0.243009 0.778009 0.376759
0.374236 0.775486 0.374236
0.505338 0.772838 0.371588
0.636320 0.770070 0.368820
0.767188 0.767188 0.365938
0.897949 0.764199 0.362949
1.000000 0.761112 0.359862
0.000000 0.908286 0.373286
0.103094 0.905594 0.370594
0.234033 0.902783 0.367783
0.364862 0.899862 0.364862
0.495586 0.896836 0.361836
0.626216 0.893716 0.358716
0.756758 0.890508 0.355508
0.887223 0.887223 0.352223
1.000000 0.883870 0.348870
0.000000 1.000000 0.363772
0.093211 1.000000 0.360711
0.223807 1.000000 0.357557
0.354320 1.000000 0.354320
0.484759 1.000000 0.351009
0.615134 1.000000 0.347634
0.745456 1.000000 0.344206
0.875736 1.000000 0.340736
1.000000 1.000000 0.337235
0.000000 0.000000 0.534736
0.133275 0.000000 0.534525
0.266787 0.000000 0.534287
0.400260 0.000000 0.534010
0.533684 0.000000 0.533684
0.667047 0.000000 0.533297
0.800340 0.000000 0.532840
0.933552 0.000000 0.532302
1.000000 0.000000 0.531675
0.000000 0.132648 0.533898
0.132301 0.132301 0.533551
0.265639 0.131889 0.533139
0.398904 0.131404 0.532654
0.532085 0.130835 0.532085
0.665173 0.130173 0.531423
0.798160 0.129410 0.530660
0.931039 0.128539 0.529789
1.000000 0.127551 0.528801
0.000000 0.264957 0.532457
0.130605 0.264355 0.531855
0.263657 0.263657 0.531157
0.396606 0.262856 0.530356
0.529443 0.261943 0.529443
0.662162 0.260912 0.528412
0.794757 0.259757 0.527257
0.927224 0.258474 0.525974
1.000000 0.257058 0.524558
0.000000 0.396287 0.530037
0.127832 0.395332 0.529082
0.260506 0.394256 0.528006
0.393055 0.393055 0.526805
0.525474 0.391724 0.525474
0.657759 0.390259 0.524009
0.789908 0.388658 0.522408
0.921918 0.386918 0.520668
1.000000 0.385039 0.518789
0.000000 0.526336 0.526336
0.123707 0.524957 0.524957
0.255942 0.523442 0.523442
0.388041 0.521791 0.521791
0.520000 0.520000 0.520000
0.651820 0.518070 0.518070
0.783501 0.516001 0.516001
0.915045 0.513795 0.513795
1.000000 0.511454 0.511454
0.000000 0.654905 0.521155
0.118064 0.653064 0.519314
0.249833 0.651083 0.517333
0.381464 0.648964 0.515214
0.512958 0.646708 0.512958
0.644319 0.644319 0.510569
0.775549 0.641799 0.508049
0.906654 0.639154 0.505404
1.000000 0.636389 0.502639
0.000000 0.781908 0.514408
0.110854 0.779604 0.512104
0.242166 0.777166 0.509666
0.373350 0.774600 0.507100
0.504411 0.771911 0.504411
0.635353 0.769103 0.501603
0.766184 0.766184 0.498684
0.896912 0.763162 0.495662
1.000000 0.760043 0.492543
0.000000 0.907385 0.506135
0.102152 0.904652 0.503402
0.233053 0.901803 0.500553
0.363846 0.898846 0.497596
0.494537 0.895787 0.494537
0.625135 0.892635 0.491385
0.755650 0.889400 0.488150
0.886091 0.886091 0.484841
1.000000 0.882718 0.481468
0.000000 1.000000 0.496493
0.092150 1.000000 0.493400
0.222717 1.000000 0.490217
0.353204 1.000000 0.486954
0.483620 1.000000 0.483620
0.613976 1.000000 0.480226
0.744282 1.000000 0.476782
0.874550 1.000000 0.473300
1.000000 1.000000 0.469790
0.000000 0.000000 0.668417
0.133198 0.000000 0.668198
0.266698 0.000000 0.667948
0.400155 0.000000 0.667655
0.533560 0.000000 0.667310
0.666900 0.000000 0.666900
0.800167 0.000000 0.666417
0.933350 0.000000 0.665850
1.000000 0.000000 0.665190
0.000000 0.132536 0.667536
0.132169 0.132169 0.667169
0.265483 0.131733 0.666733
0.398721 0.131221 0.666221
0.531871 0.130621 0.665621
0.664926 0.129926 0.664926
0.797877 0.129127 0.664127
0.930717 0.128217 0.663217
1.000000 0.127189 0.662189
0.000000 0.264763 0.666013
0.130379 0.264129 0.665379
0.263397 0.263397 0.664647
0.396309 0.262559 0.663809
0.529106 0.261606 0.662856
0.661784 0.260534 0.661784
0.794336 0.259336 0.660586
0.926758 0.258008 0.659258
1.000000 0.256547 0.657797
0.000000 0.395975 0.663475
0.127480 0.394980 0.662480
0.260113 0.393863 0.661363
0.392618 0.392618 0.660118
0.524992 0.391242 0.658742
0.657231 0.389731 0.657231
0.789333 0.388083 0.655583
0.921295 0.386295 0.653795
1.000000 0.384369 0.651869
0.000000 0.525883 0.659633
0.123208 0.524458 0.658208
0.255397 0.522897 0.656647
0.387448 0.521198 0.654948
0.519360 0.519360 0.653110
0.651133 0.517383 0.651133
0.782767 0.515267 0.649017
0.914265 0.513015 0.646765
1.000000 0.510629 0.644379
0.000000 0.654295 0.654295
0.117406 0.652406 0.652406
0.249129 0.650379 0.650379
0.380713 0.648213 0.648213
0.512162 0.645912 0.645912
0.643478 0.643478 0.643478
0.774665 0.640915 0.640915
0.905728 0.638228 0.638228
1.000000 0.635423 0.635423
0.000000 0.781141 0.647391
0.110041 0.778791 0.645041
0.241309 0.776309 0.642559
0.372451 0.773701 0.639951
0.503470 0.770970 0.637220
0.634374 0.768124 0.634374
0.765169 0.765169 0.631419
0.895863 0.762113 0.628363
1.000000 0.758964 0.625214
0.000000 0.906470 0.638970
0.101197 0.903697 0.636197
0.232061 0.900811 0.633311
0.362818 0.897818 0.630318
0.493477 0.894727 0.627227
0.624046 0.891546 0.624046
0.754534 0.888284 0.620784
0.884952 0.884952 0.617452
1.000000 0.881559 0.614059
0.000000 1.000000 0.629203
0.091078 1.000000 0.626078
0.221617 1.000000 0.622867
0.352079 1.000000 0.619579
0.482473 1.000000 0.616223
0.612811 1.000000 0.612811
0.743103 1.000000 0.609353
0.873360 1.000000 0.605860
1.000000 1.000000 0.602344
0.000000 0.000000 0.802095
0.133117 0.000000 0.801867
0.266604 0.000000 0.801604
0.400045 0.000000 0.801295
0.533428 0.000000 0.800928
0.666745 0.000000 0.800495
0.799984 0.000000 0.799984
0.933137 0.000000 0.799387
1.000000 0.000000 0.798694
0.000000 0.132418 0.801168
0.132029 0.132029 0.800779
0.265318 0.131568 0.800318
0.398527 0.131027 0.799777
0.531646 0.130396 0.799146
0.664666 0.129666 0.798416
0.797580 0.128830 0.797580
0.930381 0.127881 0.796631
1.000000 0.126812 0.795562
0.000000 0.264558 0.799558
0.130142 0.263892 0.798892
0.263125 0.263125 0.798125
0.395998 0.262248 0.797248
0.528756 0.261256 0.796256
0.661392 0.260142 0.795142
0.793900 0.258900 0.793900
0.926277 0.257527 0.792527
1.000000 0.256020 0.791020
0.000000 0.395651 0.796901
0.127115 0.394615 0.795865
0.259705 0.393455 0.794705
0.392166 0.392166 0.793416
0.524494 0.390744 0.791994
0.656687 0.389187 0.790437
0.788741 0.387491 0.788741
0.920657 0.385657 0.786907
1.000000 0.383683 0.784933
0.000000 0.525414 0.792914
0.122693 0.523943 0.791443
0.254836 0.522336 0.789836
0.386840 0.520590 0.788090
0.518704 0.518704 0.786204
0.650430 0.516680 0.784180
0.782018 0.514518 0.782018
0.913470 0.512220 0.779720
1.000000 0.509789 0.777289
0.000000 0.653669 0.787419
0.116733 0.651733 0.785483
0.248409 0.649659 0.783409
0.379947 0.647447 0.781197
0.511350 0.645100 0.778850
0.642621 0.642621 0.776371
0.773766 0.640016 0.773766
0.904788 0.637288 0.771038
1.000000 0.634445 0.768195
0.000000 0.780358 0.780358
0.109213 0.777963 0.777963
0.240437 0.775437 0.775437
0.371537 0.772787 0.772787
0.502516 0.770016 0.770016
0.633382 0.767132 0.767132
0.764142 0.764142 0.764142
0.894803 0.761053 0.761053
1.000000 0.757875 0.757875
0.000000 0.905542 0.771792
0.100229 0.902729 0.768979
0.231056 0.899806 0.766056
0.361779 0.896779 0.763029
0.492406 0.893656 0.759906
0.622947 0.890447 0.756697
0.753410 0.887160 0.753410
0.883806 0.883806 0.750056
1.000000 0.880395 0.746645
0.000000 1.000000 0.761902
0.089997 1.000000 0.758747
0.220509 1.000000 0.755509
0.350946 1.000000 0.752196
0.481320 1.000000 0.748820
0.611641 1.000000 0.745391
0.741920 1.000000 0.741920
0.872168 1.000000 0.738418
1.000000 1.000000 0.734897
0.000000 0.000000 0.935771
0.133032 0.000000 0.935532
0.266505 0.000000 0.935255
0.399927 0.000000 0.934927
0.533289 0.000000 0.934539
0.666581 0.000000 0.934081
0.799791 0.000000 0.933541
0.932913 0.000000 0.932913
1.000000 0.000000 0.932185
0.000000 0.132293 0.934793
0.131881 0.131881 0.934381
0.265144 0.131394 0.933894
0.398323 0.130823 0.933323
0.531410 0.130160 0.932660
0.664395 0.129395 0.931895
0.797271 0.128521 0.931021
0.930032 0.127532 0.930032
1.000000 0.126420 0.928920
0.000000 0.264343 0.933093
0.129893 0.263643 0.932393
0.262840 0.262840 0.931590
0.395675 0.261925 0.930675
0.528391 0.260891 0.929641
0.660984 0.259734 0.928484
0.793449 0.258449 0.927199
0.925781 0.257031 0.925781
1.000000 0.255476 0.924226
0.000000 0.395312 0.930312
0.126735 0.394235 0.929235
0.259282 0.393032 0.928032
0.391698 0.391698 0.926698
0.523981 0.390231 0.925231
0.656126 0.388626 0.923626
0.788134 0.386884 0.921884
0.920002 0.385002 0.920002
1.000000 0.382981 0.917981
0.000000 0.524929 0.926179
0.122163 0.523413 0.924663
0.254258 0.521758 0.923008
0.386215 0.519965 0.921215
0.518032 0.518032 0.919282
0.649711 0.515961 0.917211
0.781252 0.513752 0.915002
0.912659 0.511409 0.912659
1.000000 0.508934 0.910184
0.000000 0.653028 0.920528
0.116044 0.651044 0.918544
0.247673 0.648923 0.916423
0.379165 0.646665 0.914165
0.510523 0.644273 0.911773
0.641751 0.641751 0.909251
0.772853 0.639103 0.906603
0.903836 0.636336 0.903836
1.000000 0.633454 0.900954
0.000000 0.779559 0.913309
0.108369 0.777119 0.910869
0.239551 0.774551 0.908301
0.370609 0.771859 0.905609
0.501549 0.769049 0.902799
0.632378 0.766128 0.899878
0.763104 0.763104 0.896854
0.893733 0.759983 0.893733
1.000000 0.756776 0.890526
0.000000 0.904599 0.904599
0.099248 0.901748 0.901748
0.230039 0.898789 0.898789
0.360728 0.895728 0.895728
0.491325 0.892575 0.892575
0.621839 0.889339 0.889339
0.752278 0.886028 0.886028
0.882654 0.882654 0.882654
1.000000 0.879226 0.879226
0.000000 1.000000 0.894591
0.088906 1.000000 0.891406
0.219391 1.000000 0.888141
0.349806 1.000000 0.884806
0.480161 1.000000 0.881411
0.610467 1.000000 0.877967
0.740734 1.000000 0.874484
0.870974 1.000000 0.870974
1.000000 1.000000 0.867449
0.000000 0.000000 1.000000
0.132943 0.000000 1.000000
0.266399 0.000000 1.000000
0.399803 0.000000 1.000000
0.533142 0.000000 1.000000
0.666407 0.000000 1.000000
0.799588 0.000000 1.000000
0.932677 0.000000 1.000000
1.000000 0.000000 1.000000
0.000000 0.132161 1.000000
0.131724 0.131724 1.000000
0.264960 0.131210 1.000000
0.398109 0.130609 1.000000
0.531162 0.129912 1.000000
0.664111 0.129111 1.000000
0.796948 0.128198 1.000000
0.929668 0.127168 1.000000
1.000000 0.126014 1.000000
0.000000 0.264116 1.000000
0.129632 0.263382 1.000000
0.262542 0.262542 1.000000
0.395337 0.261587 1.000000
0.528013 0.260513 1.000000
0.660563 0.259313 1.000000
0.792982 0.257982 1.000000
0.925268 0.256518 1.000000
1.000000 0.254917 1.000000
0.000000 0.394960 1.000000
0.126341 0.393841 1.000000
0.258844 0.392594 1.000000
0.391215 0.391215 1.000000
0.523451 0.389701 1.000000
0.655550 0.388050 1.000000
0.787510 0.386260 1.000000
0.919331 0.384331 1.000000
1.000000 0.382263 1.000000
0.000000 0.524430 1.000000
0.121616 0.522866 1.000000
0.253665 0.521165 1.000000
0.385574 0.519324 1.000000
0.517345 0.517345 1.000000
0.648976 0.515226 1.000000
0.780471 0.512971 1.000000
0.911833 0.510583 1.000000
1.000000 0.508064 1.000000
0.000000 0.652370 1.000000
0.115339 0.650339 1.000000
0.246921 0.648171 1.000000
0.378367 0.645867 1.000000
0.509681 0.643431 1.000000
0.640865 0.640865 1.000000
0.771926 0.638176 1.000000
0.902869 0.635369 1.000000
1.000000 0.632451 1.000000
0.000000 0.778745 1.000000
0.107511 0.776261 1.000000
0.238650 0.773650 1.000000
0.369668 0.770918 1.000000
0.500570 0.768070 1.000000
0.631363 0.765113 1.000000
0.762054 0.762054 1.000000
0.892653 0.758903 1.000000
1.000000 0.755669 1.000000
0.000000 0.903644 1.000000
0.098255 0.900755 1.000000
0.229010 0.897760 1.000000
0.359668 0.894668 1.000000
0.490235 0.891485 1.000000
0.620722 0.888222 1.000000
0.751139 0.884889 1.000000
0.881495 0.881495 1.000000
1.000000 0.878052 1.000000
0.000000 1.000000 1.000000
0.087806 1.000000 1.000000
0.218266 1.000000 1.000000
0.348660 1.000000 1.000000
0.478997 1.000000 1.000000
0.609288 1.000000 1.000000
0.739545 1.000000 1.000000
0.869778 1.000000 1.000000
1.000000 1.000000 1.000000
