luts/clean_studio.cube
TITLE "Clean Studio HD"
LUT_3D_SIZE 5
DOMAIN_MIN 0.0 0.0 0.0
DOMAIN_MAX 1.0 1.0 1.0
0.000000 0.000000 0.000000
0.267104 0.000000 0.000000
0.534115 0.000000 0.000000
0.800943 0.000000 0.000000
1.000000 0.000000 0.000000
0.000000 0.265637 0.000000
0.264581 0.264581 0.000000
0.530656 0.263156 0.000000
0.796295 0.261295 0.000000
1.000000 0.258949 0.000000
0.000000 0.528000 0.000000
0.257966 0.525466 0.000000
0.522399 0.522399 0.000000
0.786278 0.518778 0.000000
1.000000 0.514602 0.000000
0.000000 0.784821 0.000000
0.245445 0.780445 0.000000
0.508035 0.775535 0.000000
0.770123 0.770123 0.000000
1.000000 0.764256 0.000000
0.000000 1.000000 0.000000
0.227019 1.000000 0.000000
0.488132 1.000000 0.000000
0.748948 1.000000 0.000000
1.000000 1.000000 0.000000
0.000000 0.000000 0.267370
0.266952 0.000000 0.266952
0.533911 0.000000 0.266411
0.800659 0.000000 0.265659
1.000000 0.000000 0.264611
0.000000 0.265316 0.265316
0.264142 0.264142 0.264142
0.530075 0.262575 0.262575
0.795555 0.260555 0.260555
1.000000 0.258035 0.258035
0.000000 0.527198 0.259698
0.256986 0.524486 0.256986
0.521231 0.521231 0.253731
0.784922 0.517422 0.249922
1.000000 0.513059 0.245559
0.000000 0.783397 0.248397
0.243836 0.778836 0.243836
0.506251 0.773751 0.238751
0.768179 0.768179 0.233179
1.000000 0.762171 0.227171
0.000000 1.000000 0.231039
0.224888 1.000000 0.224888
0.485891 1.000000 0.218391
0.746626 1.000000 0.211626
1.000000 1.000000 0.204676
0.000000 0.000000 0.534736
0.266787 0.000000 0.534287
0.533684 0.000000 0.533684
0.800340 0.000000 0.532840
1.000000 0.000000 0.531675
0.000000 0.264957 0.532457
0.263657 0.263657 0.531157
0.529443 0.261943 0.529443
0.794757 0.259757 0.527257
1.000000 0.257058 0.524558
0.000000 0.526336 0.526336
0.255942 0.523442 0.523442
0.520000 0.520000 0.520000
0.783501 0.516001 0.516001
1.000000 0.511454 0.511454
0.000000 0.781908 0.514408
0.242166 0.777166 0.509666
0.504411 0.771911 0.504411
0.766184 0.766184 0.498684
1.000000 0.760043 0.492543
0.000000 1.000000 0.496493
0.222717 1.000000 0.490217
0.483620 1.000000 0.483620
0.744282 1.000000 0.476782
1.000000 1.000000 0.469790
0.000000 0.000000 0.802095
0.266604 0.000000 0.801604
0.533428 0.000000 0.800928
0.799984 0.000000 0.799984
1.000000 0.000000 0.798694
0.000000 0.264558 0.799558
0.263125 0.263125 0.798125
0.528756 0.261256 0.796256
0.793900 0.258900 0.793900
1.000000 0.256020 0.791020
0.000000 0.525414 0.792914
0.254836 0.522336 0.789836
0.518704 0.518704 0.786204
0.782018 0.514518 0.782018
1.000000 0.509789 0.777289
0.000000 0.780358 0.780358
0.240437 0.775437 0.775437
0.502516 0.770016 0.770016
0.764142 0.764142 0.764142
1.000000 0.757875 0.757875
0.000000 1.000000 0.761902
0.220509 1.000000 0.755509
0.481320 1.000000 0.748820
0.741920 1.000000 0.741920
1.000000 1.000000 0.734897
0.000000 0.000000 1.000000
0.266399 0.000000 1.000000
0.533142 0.000000 1.000000
0.799588 0.000000 1.000000
1.000000 0.000000 1.000000
0.000000 0.264116 1.000000
0.262542 0.262542 1.000000
0.528013 0.260513 1.000000
0.792982 0.257982 1.000000
1.000000 0.254917 1.000000
0.000000 0.524430 1.000000
0.253665 0.521165 1.000000
0.517345 0.517345 1.000000
0.780471 0.512971 1.000000
1.000000 0.508064 1.000000
0.000000 0.778745 1.000000
0.238650 0.773650 1.000000
0.500570 0.768070 1.000000
0.762054 0.762054 1.000000
1.000000 0.755669 1.000000
0.000000 1.000000 1.000000
0.218266 1.000000 1.000000
0.478997 1.000000 1.000000
0.739545 1.000000 1.000000
1.000000 1.000000 1.000000
