luts/cold_blue.cube
TITLE "Cold Blue"
LUT_3D_SIZE 9
DOMAIN_MIN 0.0 0.0 0.0
DOMAIN_MAX 1.0 1.0 1.0
0.000000 0.020000 0.040000
0.102500 0.020000 0.040000
0.205000 0.020000 0.040000
0.307500 0.020000 0.040000
0.410000 0.020000 0.040000
0.512500 0.020000 0.040000
0.615000 0.020000 0.040000
0.717500 0.020000 0.040000
0.820000 0.020000 0.040000
0.000000 0.138750 0.040000
0.102500 0.138750 0.040000
0.205000 0.138750 0.040000
0.307500 0.138750 0.040000
0.410000 0.138750 0.040000
0.512500 0.138750 0.040000
0.615000 0.138750 0.040000
0.717500 0.138750 0.040000
0.820000 0.138750 0.040000
0.000000 0.257500 0.040000
0.102500 0.257500 0.040000
0.205000 0.257500 0.040000
0.307500 0.257500 0.040000
0.410000 0.257500 0.040000
0.512500 0.257500 0.040000
0.615000 0.257500 0.040000
0.717500 0.257500 0.040000
0.820000 0.257500 0.040000
0.000000 0.376250 0.040000
0.102500 0.376250 0.040000
0.205000 0.376250 0.040000
0.307500 0.376250 0.040000
0.410000 0.376250 0.040000
0.512500 0.376250 0.040000
0.615000 0.376250 0.040000
0.717500 0.376250 0.040000
0.820000 0.376250 0.040000
0.000000 0.495000 0.040000
0.102500 0.495000 0.040000
0.205000 0.495000 0.040000
0.307500 0.495000 0.040000
0.410000 0.495000 0.040000
0.512500 0.495000 0.040000
0.615000 0.495000 0.040000
0.717500 0.495000 0.040000
0.820000 0.495000 0.040000
0.000000 0.613750 0.040000
0.102500 0.613750 0.040000
0.205000 0.613750 0.040000
0.307500 0.613750 0.040000
0.410000 0.613750 0.040000
0.512500 0.613750 0.040000
0.615000 0.613750 0.040000
0.717500 0.613750 0.040000
0.820000 0.613750 0.040000
0.000000 0.732500 0.040000
0.102500 0.732500 0.040000
0.205000 0.732500 0.040000
0.307500 0.732500 0.040000
0.410000 0.732500 0.040000
0.512500 0.732500 0.040000
0.615000 0.732500 0.040000
0.717500 0.732500 0.040000
0.820000 0.732500 0.040000
0.000000 0.851250 0.040000
0.102500 0.851250 0.040000
0.205000 0.851250 0.040000
0.307500 0.851250 0.040000
0.410000 0.851250 0.040000
0.512500 0.851250 0.040000
0.615000 0.851250 0.040000
0.717500 0.851250 0.040000
0.820000 0.851250 0.040000
0.000000 0.970000 0.040000
0.102500 0.970000 0.040000
0.205000 0.970000 0.040000
0.307500 0.970000 0.040000
0.410000 0.970000 0.040000
0.512500 0.970000 0.040000
0.615000 0.970000 0.040000
0.717500 0.970000 0.040000
0.820000 0.970000 0.040000
0.000000 0.020000 0.196250
0.102500 0.020000 0.196250
0.205000 0.020000 0.196250
0.307500 0.020000 0.196250
0.410000 0.020000 0.196250
0.512500 0.020000 0.196250
0.615000 0.020000 0.196250
0.717500 0.020000 0.196250
0.820000 0.020000 0.196250
0.000000 0.138750 0.196250
0.102500 0.138750 0.196250
0.205000 0.138750 0.196250
0.307500 0.138750 0.196250
0.410000 0.138750 0.196250
0.512500 0.138750 0.196250
0.615000 0.138750 0.196250
0.717500 0.138750 0.196250
0.820000 0.138750 0.196250
0.000000 0.257500 0.196250
0.102500 0.257500 0.196250
0.205000 0.257500 0.196250
0.307500 0.257500 0.196250
0.410000 0.257500 0.196250
0.512500 0.257500 0.196250
0.615000 0.257500 0.196250
0.717500 0.257500 0.196250
0.820000 0.257500 0.196250
0.000000 0.376250 0.196250
0.102500 0.376250 0.196250
0.205000 0.376250 0.196250
0.307500 0.376250 0.196250
0.410000 0.376250 0.196250
0.512500 0.376250 0.196250
0.615000 0.376250 0.196250
0.717500 0.376250 0.196250
0.820000 0.376250 0.196250
0.000000 0.495000 0.196250
0.102500 0.495000 0.196250
0.205000 0.495000 0.196250
0.307500 0.495000 0.196250
0.410000 0.495000 0.196250
0.512500 0.495000 0.196250
0.615000 0.495000 0.196250
0.717500 0.495000 0.196250
0.820000 0.495000 0.196250
0.000000 0.613750 0.196250
0.102500 0.613750 0.196250
0.205000 0.613750 0.196250
0.307500 0.613750 0.196250
0.410000 0.613750 0.196250
0.512500 0.613750 0.196250
0.615000 0.613750 0.196250
0.717500 0.613750 0.196250
0.820000 0.613750 0.196250
0.000000 0.732500 0.196250
0.102500 0.732500 0.196250
0.205000 0.732500 0.196250
0.307500 0.732500 0.196250
0.410000 0.732500 0.196250
0.512500 0.732500 0.196250
0.615000 0.732500 0.196250
0.717500 0.732500 0.196250
0.820000 0.732500 0.196250
0.000000 0.851250 0.196250
0.102500 0.851250 0.196250
0.205000 0.851250 0.196250
0.307500 0.851250 0.196250
0.410000 0.851250 0.196250
0.512500 0.851250 0.196250
0.615000 0.851250 0.196250
0.717500 0.851250 0.196250
0.820000 0.851250 0.196250
0.000000 0.970000 0.196250
0.102500 0.970000 0.196250
0.205000 0.970000 0.196250
0.307500 0.970000 0.196250
0.410000 0.970000 0.196250
0.512500 0.970000 0.196250
0.615000 0.970000 0.196250
0.717500 0.970000 0.196250
0.820000 0.970000 0.196250
0.000000 0.020000 0.352500
0.102500 0.020000 0.352500
0.205000 0.020000 0.352500
0.307500 0.020000 0.352500
0.410000 0.020000 0.352500
0.512500 0.020000 0.352500
0.615000 0.020000 0.352500
0.717500 0.020000 0.352500
0.820000 0.020000 0.352500
0.000000 0.138750 0.352500
0.102500 0.138750 0.352500
0.205000 0.138750 0.352500
0.307500 0.138750 0.352500
0.410000 0.138750 0.352500
0.512500 0.138750 0.352500
0.615000 0.138750 0.352500
0.717500 0.138750 0.352500
0.820000 0.138750 0.352500
0.000000 0.257500 0.352500
0.102500 0.257500 0.352500
0.205000 0.257500 0.352500
0.307500 0.257500 0.352500
0.410000 0.257500 0.352500
0.512500 0.257500 0.352500
0.615000 0.257500 0.352500
0.717500 0.257500 0.352500
0.820000 0.257500 0.352500
0.000000 0.376250 0.352500
0.102500 0.376250 0.352500
0.205000 0.376250 0.352500
0.307500 0.376250 0.352500
0.410000 0.376250 0.352500
0.512500 0.376250 0.352500
0.615000 0.376250 0.352500
0.717500 0.376250 0.352500
0.820000 0.376250 0.352500
0.000000 0.495000 0.352500
0.102500 0.495000 0.352500
0.205000 0.495000 0.352500
0.307500 0.495000 0.352500
0.410000 0.495000 0.352500
0.512500 0.495000 0.352500
0.615000 0.495000 0.352500
0.717500 0.495000 0.352500
0.820000 0.495000 0.352500
0.000000 0.613750 0.352500
0.102500 0.613750 0.352500
0.205000 0.613750 0.352500
0.307500 0.613750 0.352500
0.410000 0.613750 0.352500
0.512500 0.613750 0.352500
0.615000 0.613750 0.352500
0.717500 0.613750 0.352500
0.820000 0.613750 0.352500
0.000000 0.732500 0.352500
0.102500 0.732500 0.352500
0.205000 0.732500 0.352500
0.307500 0.732500 0.352500
0.410000 0.732500 0.352500
0.512500 0.732500 0.352500
0.615000 0.732500 0.352500
0.717500 0.732500 0.352500
0.820000 0.732500 0.352500
0.000000 0.851250 0.352500
0.102500 0.851250 0.352500
0.205000 0.851250 0.352500
0.307500 0.851250 0.352500
0.410000 0.851250 0.352500
0.512500 0.851250 0.352500
0.615000 0.851250 0.352500
0.717500 0.851250 0.352500
0.820000 0.851250 0.352500
0.000000 0.970000 0.352500
0.102500 0.970000 0.352500
0.205000 0.970000 0.352500
0.307500 0.970000 0.352500
0.410000 0.970000 0.352500
0.512500 0.970000 0.352500
0.615000 0.970000 0.352500
0.717500 0.970000 0.352500
0.820000 0.970000 0.352500
0.000000 0.020000 0.508750
0.102500 0.020000 0.508750
0.205000 0.020000 0.508750
0.307500 0.020000 0.508750
0.410000 0.020000 0.508750
0.512500 0.020000 0.508750
0.615000 0.020000 0.508750
0.717500 0.020000 0.508750
0.820000 0.020000 0.508750
0.000000 0.138750 0.508750
0.102500 0.138750 0.508750
0.205000 0.138750 0.508750
0.307500 0.138750 0.508750
0.410000 0.138750 0.508750
0.512500 0.138750 0.508750
0.615000 0.138750 0.508750
0.717500 0.138750 0.508750
0.820000 0.138750 0.508750
0.000000 0.257500 0.508750
0.102500 0.257500 0.508750
0.205000 0.257500 0.508750
0.307500 0.257500 0.508750
0.410000 0.257500 0.508750
0.512500 0.257500 0.508750
0.615000 0.257500 0.508750
0.717500 0.257500 0.508750
0.820000 0.257500 0.508750
0.000000 0.376250 0.508750
0.102500 0.376250 0.508750
0.205000 0.376250 0.508750
0.307500 0.376250 0.508750
0.410000 0.376250 0.508750
0.512500 0.376250 0.508750
0.615000 0.376250 0.508750
0.717500 0.376250 0.508750
0.820000 0.376250 0.508750
0.000000 0.495000 0.508750
0.102500 0.495000 0.508750
0.205000 0.495000 0.508750
0.307500 0.495000 0.508750
0.410000 0.495000 0.508750
0.512500 0.495000 0.508750
0.615000 0.495000 0.508750
0.717500 0.495000 0.508750
0.820000 0.495000 0.508750
0.000000 0.613750 0.508750
0.102500 0.613750 0.508750
0.205000 0.613750 0.508750
0.307500 0.613750 0.508750
0.410000 0.613750 0.508750
0.512500 0.613750 0.508750
0.615000 0.613750 0.508750
0.717500 0.613750 0.508750
0.820000 0.613750 0.508750
0.000000 0.732500 0.508750
0.102500 0.732500 0.508750
0.205000 0.732500 0.508750
0.307500 0.732500 0.508750
0.410000 0.732500 0.508750
0.512500 0.732500 0.508750
0.615000 0.732500 0.508750
0.717500 0.732500 0.508750
0.820000 0.732500 0.508750
0.000000 0.851250 0.508750
0.102500 0.851250 0.508750
0.205000 0.851250 0.508750
0.307500 0.851250 0.508750
0.410000 0.851250 0.508750
0.512500 0.851250 0.508750
0.615000 0.851250 0.508750
0.717500 0.851250 0.508750
0.820000 0.851250 0.508750
0.000000 0.970000 0.508750
0.102500 0.970000 0.508750
0.205000 0.970000 0.508750
0.307500 0.970000 0.508750
0.410000 0.970000 0.508750
0.512500 0.970000 0.508750
0.615000 0.970000 0.508750
0.717500 0.970000 0.508750
0.820000 0.970000 0.508750
0.000000 0.020000 0.665000
0.102500 0.020000 0.665000
0.205000 0.020000 0.665000
0.307500 0.020000 0.665000
0.410000 0.020000 0.665000
0.512500 0.020000 0.665000
0.615000 0.020000 0.665000
0.717500 0.020000 0.665000
0.820000 0.020000 0.665000
0.000000 0.138750 0.665000
0.102500 0.138750 0.665000
0.205000 0.138750 0.665000
0.307500 0.138750 0.665000
0.410000 0.138750 0.665000
0.512500 0.138750 0.665000
0.615000 0.138750 0.665000
0.717500 0.138750 0.665000
0.820000 0.138750 0.665000
0.000000 0.257500 0.665000
0.102500 0.257500 0.665000
0.205000 0.257500 0.665000
0.307500 0.257500 0.665000
0.410000 0.257500 0.665000
0.512500 0.257500 0.665000
0.615000 0.257500 0.665000
0.717500 0.257500 0.665000
0.820000 0.257500 0.665000
0.000000 0.376250 0.665000
0.102500 0.376250 0.665000
0.205000 0.376250 0.665000
0.307500 0.376250 0.665000
0.410000 0.376250 0.665000
0.512500 0.376250 0.665000
0.615000 0.376250 0.665000
0.717500 0.376250 0.665000
0.820000 0.376250 0.665000
0.000000 0.495000 0.665000
0.102500 0.495000 0.665000
0.205000 0.495000 0.665000
0.307500 0.495000 0.665000
0.410000 0.495000 0.665000
0.512500 0.495000 0.665000
0.615000 0.495000 0.665000
0.717500 0.495000 0.665000
0.820000 0.495000 0.665000
0.000000 0.613750 0.665000
0.102500 0.613750 0.665000
0.205000 0.613750 0.665000
0.307500 0.613750 0.665000
0.410000 0.613750 0.665000
0.512500 0.613750 0.665000
0.615000 0.613750 0.665000
0.717500 0.613750 0.665000
0.820000 0.613750 0.665000
0.000000 0.732500 0.665000
0.102500 0.732500 0.665000
0.205000 0.732500 0.665000
0.307500 0.732500 0.665000
0.410000 0.732500 0.665000
0.512500 0.732500 0.665000
0.615000 0.732500 0.665000
0.717500 0.732500 0.665000
0.820000 0.732500 0.665000
0.000000 0.851250 0.665000
0.102500 0.851250 0.665000
0.205000 0.851250 0.665000
0.307500 0.851250 0.665000
0.410000 0.851250 0.665000
0.512500 0.851250 0.665000
0.615000 0.851250 0.665000
0.717500 0.851250 0.665000
0.820000 0.851250 0.665000
0.000000 0.970000 0.665000
0.102500 0.970000 0.665000
0.205000 0.970000 0.665000
0.307500 0.970000 0.665000
0.410000 0.970000 0.665000
0.512500 0.970000 0.665000
0.615000 0.970000 0.665000
0.717500 0.970000 0.665000
0.820000 0.970000 0.665000
0.000000 0.020000 0.821250
0.102500 0.020000 0.821250
0.205000 0.020000 0.821250
0.307500 0.020000 0.821250
0.410000 0.020000 0.821250
0.512500 0.020000 0.821250
0.615000 0.020000 0.821250
0.717500 0.020000 0.821250
0.820000 0.020000 0.821250
0.000000 0.138750 0.821250
0.102500 0.138750 0.821250
0.205000 0.138750 0.821250
0.307500 0.138750 0.821250
0.410000 0.138750 0.821250
0.512500 0.138750 0.821250
0.615000 0.138750 0.821250
0.717500 0.138750 0.821250
0.820000 0.138750 0.821250
0.000000 0.257500 0.821250
0.102500 0.257500 0.821250
0.205000 0.257500 0.821250
0.307500 0.257500 0.821250
0.410000 0.257500 0.821250
0.512500 0.257500 0.821250
0.615000 0.257500 0.821250
0.717500 0.257500 0.821250
0.820000 0.257500 0.821250
0.000000 0.376250 0.821250
0.102500 0.376250 0.821250
0.205000 0.376250 0.821250
0.307500 0.376250 0.821250
0.410000 0.376250 0.821250
0.512500 0.376250 0.821250
0.615000 0.376250 0.821250
0.717500 0.376250 0.821250
0.820000 0.376250 0.821250
0.000000 0.495000 0.821250
0.102500 0.495000 0.821250
0.205000 0.495000 0.821250
0.307500 0.495000 0.821250
0.410000 0.495000 0.821250
0.512500 0.495000 0.821250
0.615000 0.495000 0.821250
0.717500 0.495000 0.821250
0.820000 0.495000 0.821250
0.000000 0.613750 0.821250
0.102500 0.613750 0.821250
0.205000 0.613750 0.821250
0.307500 0.613750 0.821250
0.410000 0.613750 0.821250
0.512500 0.613750 0.821250
0.615000 0.613750 0.821250
0.717500 0.613750 0.821250
0.820000 0.613750 0.821250
0.000000 0.732500 0.821250
0.102500 0.732500 0.821250
0.205000 0.732500 0.821250
0.307500 0.732500 0.821250
0.410000 0.732500 0.821250
0.512500 0.732500 0.821250
0.615000 0.732500 0.821250
0.717500 0.732500 0.821250
0.820000 0.732500 0.821250
0.000000 0.851250 0.821250
0.102500 0.851250 0.821250
0.205000 0.851250 0.821250
0.307500 0.851250 0.821250
0.410000 0.851250 0.821250
0.512500 0.851250 0.821250
0.615000 0.851250 0.821250
0.717500 0.851250 0.821250
0.820000 0.851250 0.821250
0.000000 0.970000 0.821250
0.102500 0.970000 0.821250
0.205000 0.970000 0.821250
0.307500 0.970000 0.821250
0.410000 0.970000 0.821250
0.512500 0.970000 0.821250
0.615000 0.970000 0.821250
0.717500 0.970000 0.821250
0.820000 0.970000 0.821250
0.000000 0.020000 0.977500
0.102500 0.020000 0.977500
0.205000 0.020000 0.977500
0.307500 0.020000 0.977500
0.410000 0.020000 0.977500
0.512500 0.020000 0.977500
0.615000 0.020000 0.977500
0.717500 0.020000 0.977500
0.820000 0.020000 0.977500
0.000000 0.138750 0.977500
0.102500 0.138750 0.977500
0.205000 0.138750 0.977500
0.307500 0.138750 0.977500
0.410000 0.138750 0.977500
0.512500 0.138750 0.977500
0.615000 0.138750 0.977500
0.717500 0.138750 0.977500
0.820000 0.138750 0.977500
0.000000 0.257500 0.977500
0.102500 0.257500 0.977500
0.205000 0.257500 0.977500
0.307500 0.257500 0.977500
0.410000 0.257500 0.977500
0.512500 0.257500 0.977500
0.615000 0.257500 0.977500
0.717500 0.257500 0.977500
0.820000 0.257500 0.977500
0.000000 0.376250 0.977500
0.102500 0.376250 0.977500
0.205000 0.376250 0.977500
0.307500 0.376250 0.977500
0.410000 0.376250 0.977500
0.512500 0.376250 0.977500
0.615000 0.376250 0.977500
0.717500 0.376250 0.977500
0.820000 0.376250 0.977500
0.000000 0.495000 0.977500
0.102500 0.495000 0.977500
0.205000 0.495000 0.977500
0.307500 0.495000 0.977500
0.410000 0.495000 0.977500
0.512500 0.495000 0.977500
0.615000 0.495000 0.977500
0.717500 0.495000 0.977500
0.820000 0.495000 0.977500
0.000000 0.613750 0.977500
0.102500 0.613750 0.977500
0.205000 0.613750 0.977500
0.307500 0.613750 0.977500
0.410000 0.613750 0.977500
0.512500 0.613750 0.977500
0.615000 0.613750 0.977500
0.717500 0.613750 0.977500
0.820000 0.613750 0.977500
0.000000 0.732500 0.977500
0.102500 0.732500 0.977500
0.205000 0.732500 0.977500
0.307500 0.732500 0.977500
0.410000 0.732500 0.977500
0.512500 0.732500 0.977500
0.615000 0.732500 0.977500
0.717500 0.732500 0.977500
0.820000 0.732500 0.977500
0.000000 0.851250 0.977500
0.102500 0.851250 0.977500
0.205000 0.851250 0.977500
0.307500 0.851250 0.977500
0.410000 0.851250 0.977500
0.512500 0.851250 0.977500
0.615000 0.851250 0.977500
0.717500 0.851250 0.977500
0.820000 0.851250 0.977500
0.000000 0.970000 0.977500
0.102500 0.970000 0.977500
0.205000 0.970000 0.977500
0.307500 0.970000 0.977500
0.410000 0.970000 0.977500
0.512500 0.970000 0.977500
0.615000 0.970000 0.977500
0.717500 0.970000 0.977500
0.820000 0.970000 0.977500
0.000000 0.020000 1.000000
0.102500 0.020000 1.000000
0.205000 0.020000 1.000000
0.307500 0.020000 1.000000
0.410000 0.020000 1.000000
0.512500 0.020000 1.000000
0.615000 0.020000 1.000000
0.717500 0.020000 1.000000
0.820000 0.020000 1.000000
0.000000 0.138750 1.000000
0.102500 0.138750 1.000000
0.205000 0.138750 1.000000
0.307500 0.138750 1.000000
0.410000 0.138750 1.000000
0.512500 0.138750 1.000000
0.615000 0.138750 1.000000
0.717500 0.138750 1.000000
0.820000 0.138750 1.000000
0.000000 0.257500 1.000000
0.102500 0.257500 1.000000
0.205000 0.257500 1.000000
0.307500 0.257500 1.000000
0.410000 0.257500 1.000000
0.512500 0.257500 1.000000
0.615000 0.257500 1.000000
0.717500 0.257500 1.000000
0.820000 0.257500 1.000000
0.000000 0.376250 1.000000
0.102500 0.376250 1.000000
0.205000 0.376250 1.000000
0.307500 0.376250 1.000000
0.410000 0.376250 1.000000
0.512500 0.376250 1.000000
0.615000 0.376250 1.000000
0.717500 0.376250 1.000000
0.820000 0.376250 1.000000
0.000000 0.495000 1.000000
0.102500 0.495000 1.000000
0.205000 0.495000 1.000000
0.307500 0.495000 1.000000
0.410000 0.495000 1.000000
0.512500 0.495000 1.000000
0.615000 0.495000 1.000000
0.717500 0.495000 1.000000
0.820000 0.495000 1.000000
0.000000 0.613750 1.000000
0.102500 0.613750 1.000000
0.205000 0.613750 1.000000
0.307500 0.613750 1.000000
0.410000 0.613750 1.000000
0.512500 0.613750 1.000000
0.615000 0.613750 1.000000
0.717500 0.613750 1.000000
0.820000 0.613750 1.000000
0.000000 0.732500 1.000000
0.102500 0.732500 1.000000
0.205000 0.732500 1.000000
0.307500 0.732500 1.000000
0.410000 0.732500 1.000000
0.512500 0.732500 1.000000
0.615000 0.732500 1.000000
0.717500 0.732500 1.000000
0.820000 0.732500 1.000000
0.000000 0.851250 1.000000
0.102500 0.851250 1.000000
0.205000 0.851250 1.000000
0.307500 0.851250 1.000000
0.410000 0.851250 1.000000
0.512500 0.851250 1.000000
0.615000 0.851250 1.000000
0.717500 0.851250 1.000000
0.820000 0.851250 1.000000
0.000000 0.970000 1.000000
0.102500 0.970000 1.000000
0.205000 0.970000 1.000000
0.307500 0.970000 1.000000
0.410000 0.970000 1.000000
0.512500 0.970000 1.000000
0.615000 0.970000 1.000000
0.717500 0.970000 1.000000
0.820000 0.970000 1.000000
0.000000 0.020000 1.000000
0.102500 0.020000 1.000000
0.205000 0.020000 1.000000
0.307500 0.020000 1.000000
0.410000 0.020000 1.000000
0.512500 0.020000 1.000000
0.615000 0.020000 1.000000
0.717500 0.020000 1.000000
0.820000 0.020000 1.000000
0.000000 0.138750 1.000000
0.102500 0.138750 1.000000
0.205000 0.138750 1.000000
0.307500 0.138750 1.000000
0.410000 0.138750 1.000000
0.512500 0.138750 1.000000
0.615000 0.138750 1.000000
0.717500 0.138750 1.000000
0.820000 0.138750 1.000000
0.000000 0.257500 1.000000
0.102500 0.257500 1.000000
0.205000 0.257500 1.000000
0.307500 0.257500 1.000000
0.410000 0.257500 1.000000
0.512500 0.257500 1.000000
0.615000 0.257500 1.000000
0.717500 0.257500 1.000000
0.820000 0.257500 1.000000
0.000000 0.376250 1.000000
0.102500 0.376250 1.000000
0.205000 0.376250 1.000000
0.307500 0.376250 1.000000
0.410000 0.376250 1.000000
0.512500 0.376250 1.000000
0.615000 0.376250 1.000000
0.717500 0.376250 1.000000
0.820000 0.376250 1.000000
0.000000 0.495000 1.000000
0.102500 0.495000 1.000000
0.205000 0.495000 1.000000
0.307500 0.495000 1.000000
0.410000 0.495000 1.000000
0.512500 0.495000 1.000000
0.615000 0.495000 1.000000
0.717500 0.495000 1.000000
0.820000 0.495000 1.000000
0.000000 0.613750 1.000000
0.102500 0.613750 1.000000
0.205000 0.613750 1.000000
0.307500 0.613750 1.000000
0.410000 0.613750 1.000000
0.512500 0.613750 1.000000
0.615000 0.613750 1.000000
0.717500 0.613750 1.000000
0.820000 0.613750 1.000000
0.000000 0.732500 1.000000
0.102500 0.732500 1.000000
0.205000 0.732500 1.000000
0.307500 0.732500 1.000000
0.410000 0.732500 1.000000
0.512500 0.732500 1.000000
0.615000 0.732500 1.000000
0.717500 0.732500 1.000000
0.820000 0.732500 1.000000
0.000000 0.851250 1.000000
0.102500 0.851250 1.000000
0.205000 0.851250 1.000000
0.307500 0.851250 1.000000
0.410000 0.851250 1.000000
0.512500 0.851250 1.000000
0.615000 0.851250 1.000000
0.717500 0.851250 1.000000
0.820000 0.851250 1.000000
0.000000 0.970000 1.000000
0.102500 0.970000 1.000000
0.205000 0.970000 1.000000
0.307500 0.970000 1.000000
0.410000 0.970000 1.000000
0.512500 0.970000 1.000000
0.615000 0.970000 1.000000
0.717500 0.970000 1.000000
0.820000 0.970000 1.000000
