luts/cold_blue.cube
TITLE "Cold Blue"
LUT_3D_SIZE 17
DOMAIN_MIN 0.0 0.0 0.0
DOMAIN_MAX 1.0 1.0 1.0
0.000000 0.020000 0.040000
0.051250 0.020000 0.040000
0.102500 0.020000 0.040000
0.153750 0.020000 0.040000
0.205000 0.020000 0.040000
0.256250 0.020000 0.040000
0.307500 0.020000 0.040000
0.358750 0.020000 0.040000
0.410000 0.020000 0.040000
0.461250 0.020000 0.040000
0.512500 0.020000 0.040000
0.563750 0.020000 0.040000
0.615000 0.020000 0.040000
0.666250 0.020000 0.040000
0.717500 0.020000 0.040000
0.768750 0.020000 0.040000
0.820000 0.020000 0.040000
0.000000 0.079375 0.040000
0.051250 0.079375 0.040000
0.102500 0.079375 0.040000
0.153750 0.079375 0.040000
0.205000 0.079375 0.040000
0.256250 0.079375 0.040000
0.307500 0.079375 0.040000
0.358750 0.079375 0.040000
0.410000 0.079375 0.040000
0.461250 0.079375 0.040000
0.512500 0.079375 0.040000
0.563750 0.079375 0.040000
0.615000 0.079375 0.040000
0.666250 0.079375 0.040000
0.717500 0.079375 0.040000
0.768750 0.079375 0.040000
0.820000 0.079375 0.040000
0.000000 0.138750 0.040000
0.051250 0.138750 0.040000
0.102500 0.138750 0.040000
0.153750 0.138750 0.040000
0.205000 0.138750 0.040000
0.256250 0.138750 0.040000
0.307500 0.138750 0.040000
0.358750 0.138750 0.040000
0.410000 0.138750 0.040000
0.461250 0.138750 0.040000
0.512500 0.138750 0.040000
0.563750 0.138750 0.040000
0.615000 0.138750 0.040000
0.666250 0.138750 0.040000
0.717500 0.138750 0.040000
0.768750 0.138750 0.040000
0.820000 0.138750 0.040000
0.000000 0.198125 0.040000
0.051250 0.198125 0.040000
0.102500 0.198125 0.040000
0.153750 0.198125 0.040000
0.205000 0.198125 0.040000
0.256250 0.198125 0.040000
0.307500 0.198125 0.040000
0.358750 0.198125 0.040000
0.410000 0.198125 0.040000
0.461250 0.198125 0.040000
0.512500 0.198125 0.040000
0.563750 0.198125 0.040000
0.615000 0.198125 0.040000
0.666250 0.198125 0.040000
0.717500 0.198125 0.040000
0.768750 0.198125 0.040000
0.820000 0.198125 0.040000
0.000000 0.257500 0.040000
0.051250 0.257500 0.040000
0.102500 0.257500 0.040000
0.153750 0.257500 0.040000
0.205000 0.257500 0.040000
0.256250 0.257500 0.040000
0.307500 0.257500 0.040000
0.358750 0.257500 0.040000
0.410000 0.257500 0.040000
0.461250 0.257500 0.040000
0.512500 0.257500 0.040000
0.563750 0.257500 0.040000
0.615000 0.257500 0.040000
0.666250 0.257500 0.040000
0.717500 0.257500 0.040000
0.768750 0.257500 0.040000
0.820000 0.257500 0.040000
0.000000 0.316875 0.040000
0.051250 0.316875 0.040000
0.102500 0.316875 0.040000
0.153750 0.316875 0.040000
0.205000 0.316875 0.040000
0.256250 0.316875 0.040000
0.307500 0.316875 0.040000
0.358750 0.316875 0.040000
0.410000 0.316875 0.040000
0.461250 0.316875 0.040000
0.512500 0.316875 0.040000
0.563750 0.316875 0.040000
0.615000 0.316875 0.040000
0.666250 0.316875 0.040000
0.717500 0.316875 0.040000
0.768750 0.316875 0.040000
0.820000 0.316875 0.040000
0.000000 0.376250 0.040000
0.051250 0.376250 0.040000
0.102500 0.376250 0.040000
0.153750 0.376250 0.040000
0.205000 0.376250 0.040000
0.256250 0.376250 0.040000
0.307500 0.376250 0.040000
0.358750 0.376250 0.040000
0.410000 0.376250 0.040000
0.461250 0.376250 0.040000
0.512500 0.376250 0.040000
0.563750 0.376250 0.040000
0.615000 0.376250 0.040000
0.666250 0.376250 0.040000
0.717500 0.376250 0.040000
0.768750 0.376250 0.040000
0.820000 0.376250 0.040000
0.000000 0.435625 0.040000
0.051250 0.435625 0.040000
0.102500 0.435625 0.040000
0.153750 0.435625 0.040000
0.205000 0.435625 0.040000
0.256250 0.435625 0.040000
0.307500 0.435625 0.040000
0.358750 0.435625 0.040000
0.410000 0.435625 0.040000
0.461250 0.435625 0.040000
0.512500 0.435625 0.040000
0.563750 0.435625 0.040000
0.615000 0.435625 0.040000
0.666250 0.435625 0.040000
0.717500 0.435625 0.040000
0.768750 0.435625 0.040000
0.820000 0.435625 0.040000
0.000000 0.495000 0.040000
0.051250 0.495000 0.040000
0.102500 0.495000 0.040000
0.153750 0.495000 0.040000
0.205000 0.495000 0.040000
0.256250 0.495000 0.040000
0.307500 0.495000 0.040000
0.358750 0.495000 0.040000
0.410000 0.495000 0.040000
0.461250 0.495000 0.040000
0.512500 0.495000 0.040000
0.563750 0.495000 0.040000
0.615000 0.495000 0.040000
0.666250 0.495000 0.040000
0.717500 0.495000 0.040000
0.768750 0.495000 0.040000
0.820000 0.495000 0.040000
0.000000 0.554375 0.040000
0.051250 0.554375 0.040000
0.102500 0.554375 0.040000
0.153750 0.554375 0.040000
0.205000 0.554375 0.040000
0.256250 0.554375 0.040000
0.307500 0.554375 0.040000
0.358750 0.554375 0.040000
0.410000 0.554375 0.040000
0.461250 0.554375 0.040000
0.512500 0.554375 0.040000
0.563750 0.554375 0.040000
0.615000 0.554375 0.040000
0.666250 0.554375 0.040000
0.717500 0.554375 0.040000
0.768750 0.554375 0.040000
0.820000 0.554375 0.040000
0.000000 0.613750 0.040000
0.051250 0.613750 0.040000
0.102500 0.613750 0.040000
0.153750 0.613750 0.040000
0.205000 0.613750 0.040000
0.256250 0.613750 0.040000
0.307500 0.613750 0.040000
0.358750 0.613750 0.040000
0.410000 0.613750 0.040000
0.461250 0.613750 0.040000
0.512500 0.613750 0.040000
0.563750 0.613750 0.040000
0.615000 0.613750 0.040000
0.666250 0.613750 0.040000
0.717500 0.613750 0.040000
0.768750 0.613750 0.040000
0.820000 0.613750 0.040000
0.000000 0.673125 0.040000
0.051250 0.673125 0.040000
0.102500 0.673125 0.040000
0.153750 0.673125 0.040000
0.205000 0.673125 0.040000
0.256250 0.673125 0.040000
0.307500 0.673125 0.040000
0.358750 0.673125 0.040000
0.410000 0.673125 0.040000
0.461250 0.673125 0.040000
0.512500 0.673125 0.040000
0.563750 0.673125 0.040000
0.615000 0.673125 0.040000
0.666250 0.673125 0.040000
0.717500 0.673125 0.040000
0.768750 0.673125 0.040000
0.820000 0.673125 0.040000
0.000000 0.732500 0.040000
0.051250 0.732500 0.040000
0.102500 0.732500 0.040000
0.153750 0.732500 0.040000
0.205000 0.732500 0.040000
0.256250 0.732500 0.040000
0.307500 0.732500 0.040000
0.358750 0.732500 0.040000
0.410000 0.732500 0.040000
0.461250 0.732500 0.040000
0.512500 0.732500 0.040000
0.563750 0.732500 0.040000
0.615000 0.732500 0.040000
0.666250 0.732500 0.040000
0.717500 0.732500 0.040000
0.768750 0.732500 0.040000
0.820000 0.732500 0.040000
0.000000 0.791875 0.040000
0.051250 0.791875 0.040000
0.102500 0.791875 0.040000
0.153750 0.791875 0.040000
0.205000 0.791875 0.040000
0.256250 0.791875 0.040000
0.307500 0.791875 0.040000
0.358750 0.791875 0.040000
0.410000 0.791875 0.040000
0.461250 0.791875 0.040000
0.512500 0.791875 0.040000
0.563750 0.791875 0.040000
0.615000 0.791875 0.040000
0.666250 0.791875 0.040000
0.717500 0.791875 0.040000
0.768750 0.791875 0.040000
0.820000 0.791875 0.040000
0.000000 0.851250 0.040000
0.051250 0.851250 0.040000
0.102500 0.851250 0.040000
0.153750 0.851250 0.040000
0.205000 0.851250 0.040000
0.256250 0.851250 0.040000
0.307500 0.851250 0.040000
0.358750 0.851250 0.040000
0.410000 0.851250 0.040000
0.461250 0.851250 0.040000
0.512500 0.851250 0.040000
0.563750 0.851250 0.040000
0.615000 0.851250 0.040000
0.666250 0.851250 0.040000
0.717500 0.851250 0.040000
0.768750 0.851250 0.040000
0.820000 0.851250 0.040000
0.000000 0.910625 0.040000
0.051250 0.910625 0.040000
0.102500 0.910625 0.040000
0.153750 0.910625 0.040000
0.205000 0.910625 0.040000
0.256250 0.910625 0.040000
0.307500 0.910625 0.040000
0.358750 0.910625 0.040000
0.410000 0.910625 0.040000
0.461250 0.910625 0.040000
0.512500 0.910625 0.040000
0.563750 0.910625 0.040000
0.615000 0.910625 0.040000
0.666250 0.910625 0.040000
0.717500 0.910625 0.040000
0.768750 0.910625 0.040000
0.820000 0.910625 0.040000
0.000000 0.970000 0.040000
0.051250 0.970000 0.040000
0.102500 0.970000 0.040000
0.153750 0.970000 0.040000
0.205000 0.970000 0.040000
0.256250 0.970000 0.040000
0.307500 0.970000 0.040000
0.358750 0.970000 0.040000
0.410000 0.970000 0.040000
0.461250 0.970000 0.040000
0.512500 0.970000 0.040000
0.563750 0.970000 0.040000
0.615000 0.970000 0.040000
0.666250 0.970000 0.040000
0.717500 0.970000 0.040000
0.768750 0.970000 0.040000
0.820000 0.970000 0.040000
0.000000 0.020000 0.118125
0.051250 0.020000 0.118125
0.102500 0.020000 0.118125
0.153750 0.020000 0.118125
0.205000 0.020000 0.118125
0.256250 0.020000 0.118125
0.307500 0.020000 0.118125
0.358750 0.020000 0.118125
0.410000 0.020000 0.118125
0.461250 0.020000 0.118125
0.512500 0.020000 0.118125
0.563750 0.020000 0.118125
0.615000 0.020000 0.118125
0.666250 0.020000 0.118125
0.717500 0.020000 0.118125
0.768750 0.020000 0.118125
0.820000 0.020000 0.118125
0.000000 0.079375 0.118125
0.051250 0.079375 0.118125
0.102500 0.079375 0.118125
0.153750 0.079375 0.118125
0.205000 0.079375 0.118125
0.256250 0.079375 0.118125
0.307500 0.079375 0.118125
0.358750 0.079375 0.118125
0.410000 0.079375 0.118125
0.461250 0.079375 0.118125
0.512500 0.079375 0.118125
0.563750 0.079375 0.118125
0.615000 0.079375 0.118125
0.666250 0.079375 0.118125
0.717500 0.079375 0.118125
0.768750 0.079375 0.118125
0.820000 0.079375 0.118125
0.000000 0.138750 0.118125
0.051250 0.138750 0.118125
0.102500 0.138750 0.118125
0.153750 0.138750 0.118125
0.205000 0.138750 0.118125
0.256250 0.138750 0.118125
0.307500 0.138750 0.118125
0.358750 0.138750 0.118125
0.410000 0.138750 0.118125
0.461250 0.138750 0.118125
0.512500 0.138750 0.118125
0.563750 0.138750 0.118125
0.615000 0.138750 0.118125
0.666250 0.138750 0.118125
0.717500 0.138750 0.118125
0.768750 0.138750 0.118125
0.820000 0.138750 0.118125
0.000000 0.198125 0.118125
0.051250 0.198125 0.118125
0.102500 0.198125 0.118125
0.153750 0.198125 0.118125
0.205000 0.198125 0.118125
0.256250 0.198125 0.118125
0.307500 0.198125 0.118125
0.358750 0.198125 0.118125
0.410000 0.198125 0.118125
0.461250 0.198125 0.118125
0.512500 0.198125 0.118125
0.563750 0.198125 0.118125
0.615000 0.198125 0.118125
0.666250 0.198125 0.118125
0.717500 0.198125 0.118125
0.768750 0.198125 0.118125
0.820000 0.198125 0.118125
0.000000 0.257500 0.118125
0.051250 0.257500 0.118125
0.102500 0.257500 0.118125
0.153750 0.257500 0.118125
0.205000 0.257500 0.118125
0.256250 0.257500 0.118125
0.307500 0.257500 0.118125
0.358750 0.257500 0.118125
0.410000 0.257500 0.118125
0.461250 0.257500 0.118125
0.512500 0.257500 0.118125
0.563750 0.257500 0.118125
0.615000 0.257500 0.118125
0.666250 0.257500 0.118125
0.717500 0.257500 0.118125
0.768750 0.257500 0.118125
0.820000 0.257500 0.118125
0.000000 0.316875 0.118125
0.051250 0.316875 0.118125
0.102500 0.316875 0.118125
0.153750 0.316875 0.118125
0.205000 0.316875 0.118125
0.256250 0.316875 0.118125
0.307500 0.316875 0.118125
0.358750 0.316875 0.118125
0.410000 0.316875 0.118125
0.461250 0.316875 0.118125
0.512500 0.316875 0.118125
0.563750 0.316875 0.118125
0.615000 0.316875 0.118125
0.666250 0.316875 0.118125
0.717500 0.316875 0.118125
0.768750 0.316875 0.118125
0.820000 0.316875 0.118125
0.000000 0.376250 0.118125
0.051250 0.376250 0.118125
0.102500 0.376250 0.118125
0.153750 0.376250 0.118125
0.205000 0.376250 0.118125
0.256250 0.376250 0.118125
0.307500 0.376250 0.118125
0.358750 0.376250 0.118125
0.410000 0.376250 0.118125
0.461250 0.376250 0.118125
0.512500 0.376250 0.118125
0.563750 0.376250 0.118125
0.615000 0.376250 0.118125
0.666250 0.376250 0.118125
0.717500 0.376250 0.118125
0.768750 0.376250 0.118125
0.820000 0.376250 0.118125
0.000000 0.435625 0.118125
0.051250 0.435625 0.118125
0.102500 0.435625 0.118125
0.153750 0.435625 0.118125
0.205000 0.435625 0.118125
0.256250 0.435625 0.118125
0.307500 0.435625 0.118125
0.358750 0.435625 0.118125
0.410000 0.435625 0.118125
0.461250 0.435625 0.118125
0.512500 0.435625 0.118125
0.563750 0.435625 0.118125
0.615000 0.435625 0.118125
0.666250 0.435625 0.118125
0.717500 0.435625 0.118125
0.768750 0.435625 0.118125
0.820000 0.435625 0.118125
0.000000 0.495000 0.118125
0.051250 0.495000 0.118125
0.102500 0.495000 0.118125
0.153750 0.495000 0.118125
0.205000 0.495000 0.118125
0.256250 0.495000 0.118125
0.307500 0.495000 0.118125
0.358750 0.495000 0.118125
0.410000 0.495000 0.118125
0.461250 0.495000 0.118125
0.512500 0.495000 0.118125
0.563750 0.495000 0.118125
0.615000 0.495000 0.118125
0.666250 0.495000 0.118125
0.717500 0.495000 0.118125
0.768750 0.495000 0.118125
0.820000 0.495000 0.118125
0.000000 0.554375 0.118125
0.051250 0.554375 0.118125
0.102500 0.554375 0.118125
0.153750 0.554375 0.118125
0.205000 0.554375 0.118125
0.256250 0.554375 0.118125
0.307500 0.554375 0.118125
0.358750 0.554375 0.118125
0.410000 0.554375 0.118125
0.461250 0.554375 0.118125
0.512500 0.554375 0.118125
0.563750 0.554375 0.118125
0.615000 0.554375 0.118125
0.666250 0.554375 0.118125
0.717500 0.554375 0.118125
0.768750 0.554375 0.118125
0.820000 0.554375 0.118125
0.000000 0.613750 0.118125
0.051250 0.613750 0.118125
0.102500 0.613750 0.118125
0.153750 0.613750 0.118125
0.205000 0.613750 0.118125
0.256250 0.613750 0.118125
0.307500 0.613750 0.118125
0.358750 0.613750 0.118125
0.410000 0.613750 0.118125
0.461250 0.613750 0.118125
0.512500 0.613750 0.118125
0.563750 0.613750 0.118125
0.615000 0.613750 0.118125
0.666250 0.613750 0.118125
0.717500 0.613750 0.118125
0.768750 0.613750 0.118125
0.820000 0.613750 0.118125
0.000000 0.673125 0.118125
0.051250 0.673125 0.118125
0.102500 0.673125 0.118125
0.153750 0.673125 0.118125
0.205000 0.673125 0.118125
0.256250 0.673125 0.118125
0.307500 0.673125 0.118125
0.358750 0.673125 0.118125
0.410000 0.673125 0.118125
0.461250 0.673125 0.118125
0.512500 0.673125 0.118125
0.563750 0.673125 0.118125
0.615000 0.673125 0.118125
0.666250 0.673125 0.118125
0.717500 0.673125 0.118125
0.768750 0.673125 0.118125
0.820000 0.673125 0.118125
0.000000 0.732500 0.118125
0.051250 0.732500 0.118125
0.102500 0.732500 0.118125
0.153750 0.732500 0.118125
0.205000 0.732500 0.118125
0.256250 0.732500 0.118125
0.307500 0.732500 0.118125
0.358750 0.732500 0.118125
0.410000 0.732500 0.118125
0.461250 0.732500 0.118125
0.512500 0.732500 0.118125
0.563750 0.732500 0.118125
0.615000 0.732500 0.118125
0.666250 0.732500 0.118125
0.717500 0.732500 0.118125
0.768750 0.732500 0.118125
0.820000 0.732500 0.118125
0.000000 0.791875 0.118125
0.051250 0.791875 0.118125
0.102500 0.791875 0.118125
0.153750 0.791875 0.118125
0.205000 0.791875 0.118125
0.256250 0.791875 0.118125
0.307500 0.791875 0.118125
0.358750 0.791875 0.118125
0.410000 0.791875 0.118125
0.461250 0.791875 0.118125
0.512500 0.791875 0.118125
0.563750 0.791875 0.118125
0.615000 0.791875 0.118125
0.666250 0.791875 0.118125
0.717500 0.791875 0.118125
0.768750 0.791875 0.118125
0.820000 0.791875 0.118125
0.000000 0.851250 0.118125
0.051250 0.851250 0.118125
0.102500 0.851250 0.118125
0.153750 0.851250 0.118125
0.205000 0.851250 0.118125
0.256250 0.851250 0.118125
0.307500 0.851250 0.118125
0.358750 0.851250 0.118125
0.410000 0.851250 0.118125
0.461250 0.851250 0.118125
0.512500 0.851250 0.118125
0.563750 0.851250 0.118125
0.615000 0.851250 0.118125
0.666250 0.851250 0.118125
0.717500 0.851250 0.118125
0.768750 0.851250 0.118125
0.820000 0.851250 0.118125
0.000000 0.910625 0.118125
0.051250 0.910625 0.118125
0.102500 0.910625 0.118125
0.153750 0.910625 0.118125
0.205000 0.910625 0.118125
0.256250 0.910625 0.118125
0.307500 0.910625 0.118125
0.358750 0.910625 0.118125
0.410000 0.910625 0.118125
0.461250 0.910625 0.118125
0.512500 0.910625 0.118125
0.563750 0.910625 0.118125
0.615000 0.910625 0.118125
0.666250 0.910625 0.118125
0.717500 0.910625 0.118125
0.768750 0.910625 0.118125
0.820000 0.910625 0.118125
0.000000 0.970000 0.118125
0.051250 0.970000 0.118125
0.102500 0.970000 0.118125
0.153750 0.970000 0.118125
0.205000 0.970000 0.118125
0.256250 0.970000 0.118125
0.307500 0.970000 0.118125
0.358750 0.970000 0.118125
0.410000 0.970000 0.118125
0.461250 0.970000 0.118125
0.512500 0.970000 0.118125
0.563750 0.970000 0.118125
0.615000 0.970000 0.118125
0.666250 0.970000 0.118125
0.717500 0.970000 0.118125
0.768750 0.970000 0.118125
0.820000 0.970000 0.118125
0.000000 0.020000 0.196250
0.051250 0.020000 0.196250
0.102500 0.020000 0.196250
0.153750 0.020000 0.196250
0.205000 0.020000 0.196250
0.256250 0.020000 0.196250
0.307500 0.020000 0.196250
0.358750 0.020000 0.196250
0.410000 0.020000 0.196250
0.461250 0.020000 0.196250
0.512500 0.020000 0.196250
0.563750 0.020000 0.196250
0.615000 0.020000 0.196250
0.666250 0.020000 0.196250
0.717500 0.020000 0.196250
0.768750 0.020000 0.196250
0.820000 0.020000 0.196250
0.000000 0.079375 0.196250
0.051250 0.079375 0.196250
0.102500 0.079375 0.196250
0.153750 0.079375 0.196250
0.205000 0.079375 0.196250
0.256250 0.079375 0.196250
0.307500 0.079375 0.196250
0.358750 0.079375 0.196250
0.410000 0.079375 0.196250
0.461250 0.079375 0.196250
0.512500 0.079375 0.196250
0.563750 0.079375 0.196250
0.615000 0.079375 0.196250
0.666250 0.079375 0.196250
0.717500 0.079375 0.196250
0.768750 0.079375 0.196250
0.820000 0.079375 0.196250
0.000000 0.138750 0.196250
0.051250 0.138750 0.196250
0.102500 0.138750 0.196250
0.153750 0.138750 0.196250
0.205000 0.138750 0.196250
0.256250 0.138750 0.196250
0.307500 0.138750 0.196250
0.358750 0.138750 0.196250
0.410000 0.138750 0.196250
0.461250 0.138750 0.196250
0.512500 0.138750 0.196250
0.563750 0.138750 0.196250
0.615000 0.138750 0.196250
0.666250 0.138750 0.196250
0.717500 0.138750 0.196250
0.768750 0.138750 0.196250
0.820000 0.138750 0.196250
0.000000 0.198125 0.196250
0.051250 0.198125 0.196250
0.102500 0.198125 0.196250
0.153750 0.198125 0.196250
0.205000 0.198125 0.196250
0.256250 0.198125 0.196250
0.307500 0.198125 0.196250
0.358750 0.198125 0.196250
0.410000 0.198125 0.196250
0.461250 0.198125 0.196250
0.512500 0.198125 0.196250
0.563750 0.198125 0.196250
0.615000 0.198125 0.196250
0.666250 0.198125 0.196250
0.717500 0.198125 0.196250
0.768750 0.198125 0.196250
0.820000 0.198125 0.196250
0.000000 0.257500 0.196250
0.051250 0.257500 0.196250
0.102500 0.257500 0.196250
0.153750 0.257500 0.196250
0.205000 0.257500 0.196250
0.256250 0.257500 0.196250
0.307500 0.257500 0.196250
0.358750 0.257500 0.196250
0.410000 0.257500 0.196250
0.461250 0.257500 0.196250
0.512500 0.257500 0.196250
0.563750 0.257500 0.196250
0.615000 0.257500 0.196250
0.666250 0.257500 0.196250
0.717500 0.257500 0.196250
0.768750 0.257500 0.196250
0.820000 0.257500 0.196250
0.000000 0.316875 0.196250
0.051250 0.316875 0.196250
0.102500 0.316875 0.196250
0.153750 0.316875 0.196250
0.205000 0.316875 0.196250
0.256250 0.316875 0.196250
0.307500 0.316875 0.196250
0.358750 0.316875 0.196250
0.410000 0.316875 0.196250
0.461250 0.316875 0.196250
0.512500 0.316875 0.196250
0.563750 0.316875 0.196250
0.615000 0.316875 0.196250
0.666250 0.316875 0.196250
0.717500 0.316875 0.196250
0.768750 0.316875 0.196250
0.820000 0.316875 0.196250
0.000000 0.376250 0.196250
0.051250 0.376250 0.196250
0.102500 0.376250 0.196250
0.153750 0.376250 0.196250
0.205000 0.376250 0.196250
0.256250 0.376250 0.196250
0.307500 0.376250 0.196250
0.358750 0.376250 0.196250
0.410000 0.376250 0.196250
0.461250 0.376250 0.196250
0.512500 0.376250 0.196250
0.563750 0.376250 0.196250
0.615000 0.376250 0.196250
0.666250 0.376250 0.196250
0.717500 0.376250 0.196250
0.768750 0.376250 0.196250
0.820000 0.376250 0.196250
0.000000 0.435625 0.196250
0.051250 0.435625 0.196250
0.102500 0.435625 0.196250
0.153750 0.435625 0.196250
0.205000 0.435625 0.196250
0.256250 0.435625 0.196250
0.307500 0.435625 0.196250
0.358750 0.435625 0.196250
0.410000 0.435625 0.196250
0.461250 0.435625 0.196250
0.512500 0.435625 0.196250
0.563750 0.435625 0.196250
0.615000 0.435625 0.196250
0.666250 0.435625 0.196250
0.717500 0.435625 0.196250
0.768750 0.435625 0.196250
0.820000 0.435625 0.196250
0.000000 0.495000 0.196250
0.051250 0.495000 0.196250
0.102500 0.495000 0.196250
0.153750 0.495000 0.196250
0.205000 0.495000 0.196250
0.256250 0.495000 0.196250
0.307500 0.495000 0.196250
0.358750 0.495000 0.196250
0.410000 0.495000 0.196250
0.461250 0.495000 0.196250
0.512500 0.495000 0.196250
0.563750 0.495000 0.196250
0.615000 0.495000 0.196250
0.666250 0.495000 0.196250
0.717500 0.495000 0.196250
0.768750 0.495000 0.196250
0.820000 0.495000 0.196250
0.000000 0.554375 0.196250
0.051250 0.554375 0.196250
0.102500 0.554375 0.196250
0.153750 0.554375 0.196250
0.205000 0.554375 0.196250
0.256250 0.554375 0.196250
0.307500 0.554375 0.196250
0.358750 0.554375 0.196250
0.410000 0.554375 0.196250
0.461250 0.554375 0.196250
0.512500 0.554375 0.196250
0.563750 0.554375 0.196250
0.615000 0.554375 0.196250
0.666250 0.554375 0.196250
0.717500 0.554375 0.196250
0.768750 0.554375 0.196250
0.820000 0.554375 0.196250
0.000000 0.613750 0.196250
0.051250 0.613750 0.196250
0.102500 0.613750 0.196250
0.153750 0.613750 0.196250
0.205000 0.613750 0.196250
0.256250 0.613750 0.196250
0.307500 0.613750 0.196250
0.358750 0.613750 0.196250
0.410000 0.613750 0.196250
0.461250 0.613750 0.196250
0.512500 0.613750 0.196250
0.563750 0.613750 0.196250
0.615000 0.613750 0.196250
0.666250 0.613750 0.196250
0.717500 0.613750 0.196250
0.768750 0.613750 0.196250
0.820000 0.613750 0.196250
0.000000 0.673125 0.196250
0.051250 0.673125 0.196250
0.102500 0.673125 0.196250
0.153750 0.673125 0.196250
0.205000 0.673125 0.196250
0.256250 0.673125 0.196250
0.307500 0.673125 0.196250
0.358750 0.673125 0.196250
0.410000 0.673125 0.196250
0.461250 0.673125 0.196250
0.512500 0.673125 0.196250
0.563750 0.673125 0.196250
0.615000 0.673125 0.196250
0.666250 0.673125 0.196250
0.717500 0.673125 0.196250
0.768750 0.673125 0.196250
0.820000 0.673125 0.196250
0.000000 0.732500 0.196250
0.051250 0.732500 0.196250
0.102500 0.732500 0.196250
0.153750 0.732500 0.196250
0.205000 0.732500 0.196250
0.256250 0.732500 0.196250
0.307500 0.732500 0.196250
0.358750 0.732500 0.196250
0.410000 0.732500 0.196250
0.461250 0.732500 0.196250
0.512500 0.732500 0.196250
0.563750 0.732500 0.196250
0.615000 0.732500 0.196250
0.666250 0.732500 0.196250
0.717500 0.732500 0.196250
0.768750 0.732500 0.196250
0.820000 0.732500 0.196250
0.000000 0.791875 0.196250
0.051250 0.791875 0.196250
0.102500 0.791875 0.196250
0.153750 0.791875 0.196250
0.205000 0.791875 0.196250
0.256250 0.791875 0.196250
0.307500 0.791875 0.196250
0.358750 0.791875 0.196250
0.410000 0.791875 0.196250
0.461250 0.791875 0.196250
0.512500 0.791875 0.196250
0.563750 0.791875 0.196250
0.615000 0.791875 0.196250
0.666250 0.791875 0.196250
0.717500 0.791875 0.196250
0.768750 0.791875 0.196250
0.820000 0.791875 0.196250
0.000000 0.851250 0.196250
0.051250 0.851250 0.196250
0.102500 0.851250 0.196250
0.153750 0.851250 0.196250
0.205000 0.851250 0.196250
0.256250 0.851250 0.196250
0.307500 0.851250 0.196250
0.358750 0.851250 0.196250
0.410000 0.851250 0.196250
0.461250 0.851250 0.196250
0.512500 0.851250 0.196250
0.563750 0.851250 0.196250
0.615000 0.851250 0.196250
0.666250 0.851250 0.196250
0.717500 0.851250 0.196250
0.768750 0.851250 0.196250
0.820000 0.851250 0.196250
0.000000 0.910625 0.196250
0.051250 0.910625 0.196250
0.102500 0.910625 0.196250
0.153750 0.910625 0.196250
0.205000 0.910625 0.196250
0.256250 0.910625 0.196250
0.307500 0.910625 0.196250
0.358750 0.910625 0.196250
0.410000 0.910625 0.196250
0.461250 0.910625 0.196250
0.512500 0.910625 0.196250
0.563750 0.910625 0.196250
0.615000 0.910625 0.196250
0.666250 0.910625 0.196250
0.717500 0.910625 0.196250
0.768750 0.910625 0.196250
0.820000 0.910625 0.196250
0.000000 0.970000 0.196250
0.051250 0.970000 0.196250
0.102500 0.970000 0.196250
0.153750 0.970000 0.196250
0.205000 0.970000 0.196250
0.256250 0.970000 0.196250
0.307500 0.970000 0.196250
0.358750 0.970000 0.196250
0.410000 0.970000 0.196250
0.461250 0.970000 0.196250
0.512500 0.970000 0.196250
0.563750 0.970000 0.196250
0.615000 0.970000 0.196250
0.666250 0.970000 0.196250
0.717500 0.970000 0.196250
0.768750 0.970000 0.196250
0.820000 0.970000 0.196250
0.000000 0.020000 0.274375
0.051250 0.020000 0.274375
0.102500 0.020000 0.274375
0.153750 0.020000 0.274375
0.205000 0.020000 0.274375
0.256250 0.020000 0.274375
0.307500 0.020000 0.274375
0.358750 0.020000 0.274375
0.410000 0.020000 0.274375
0.461250 0.020000 0.274375
0.512500 0.020000 0.274375
0.563750 0.020000 0.274375
0.615000 0.020000 0.274375
0.666250 0.020000 0.274375
0.717500 0.020000 0.274375
0.768750 0.020000 0.274375
0.820000 0.020000 0.274375
0.000000 0.079375 0.274375
