luts/cold_blue.cube
TITLE "Cold Blue"
LUT_3D_SIZE 5
DOMAIN_MIN 0.0 0.0 0.0
DOMAIN_MAX 1.0 1.0 1.0
0.000000 0.020000 0.040000
0.205000 0.020000 0.040000
0.410000 0.020000 0.040000
0.615000 0.020000 0.040000
0.820000 0.020000 0.040000
0.000000 0.257500 0.040000
0.205000 0.257500 0.040000
0.410000 0.257500 0.040000
0.615000 0.257500 0.040000
0.820000 0.257500 0.040000
0.000000 0.495000 0.040000
0.205000 0.495000 0.040000
0.410000 0.495000 0.040000
0.615000 0.495000 0.040000
0.820000 0.495000 0.040000
0.000000 0.732500 0.040000
0.205000 0.732500 0.040000
0.410000 0.732500 0.040000
0.615000 0.732500 0.040000
0.820000 0.732500 0.040000
0.000000 0.970000 0.040000
0.205000 0.970000 0.040000
0.410000 0.970000 0.040000
0.615000 0.970000 0.040000
0.820000 0.970000 0.040000
0.000000 0.020000 0.352500
0.205000 0.020000 0.352500
0.410000 0.020000 0.352500
0.615000 0.020000 0.352500
0.820000 0.020000 0.352500
0.000000 0.257500 0.352500
0.205000 0.257500 0.352500
0.410000 0.257500 0.352500
0.615000 0.257500 0.352500
0.820000 0.257500 0.352500
0.000000 0.495000 0.352500
0.205000 0.495000 0.352500
0.410000 0.495000 0.352500
0.615000 0.495000 0.352500
0.820000 0.495000 0.352500
0.000000 0.732500 0.352500
0.205000 0.732500 0.352500
0.410000 0.732500 0.352500
0.615000 0.732500 0.352500
0.820000 0.732500 0.352500
0.000000 0.970000 0.352500
0.205000 0.970000 0.352500
0.410000 0.970000 0.352500
0.615000 0.970000 0.352500
0.820000 0.970000 0.352500
0.000000 0.020000 0.665000
0.205000 0.020000 0.665000
0.410000 0.020000 0.665000
0.615000 0.020000 0.665000
0.820000 0.020000 0.665000
0.000000 0.257500 0.665000
0.205000 0.257500 0.665000
0.410000 0.257500 0.665000
0.615000 0.257500 0.665000
0.820000 0.257500 0.665000
0.000000 0.495000 0.665000
0.205000 0.495000 0.665000
0.410000 0.495000 0.665000
0.615000 0.495000 0.665000
0.820000 0.495000 0.665000
0.000000 0.732500 0.665000
0.205000 0.732500 0.665000
0.410000 0.732500 0.665000
0.615000 0.732500 0.665000
0.820000 0.732500 0.665000
0.000000 0.970000 0.665000
0.205000 0.970000 0.665000
0.410000 0.970000 0.665000
0.615000 0.970000 0.665000
0.820000 0.970000 0.665000
0.000000 0.020000 0.977500
0.205000 0.020000 0.977500
0.410000 0.020000 0.977500
0.615000 0.020000 0.977500
0.820000 0.020000 0.977500
0.000000 0.257500 0.977500
0.205000 0.257500 0.977500
0.410000 0.257500 0.977500
0.615000 0.257500 0.977500
0.820000 0.257500 0.977500
0.000000 0.495000 0.977500
0.205000 0.495000 0.977500
0.410000 0.495000 0.977500
0.615000 0.495000 0.977500
0.820000 0.495000 0.977500
0.000000 0.732500 0.977500
0.205000 0.732500 0.977500
0.410000 0.732500 0.977500
0.615000 0.732500 0.977500
0.820000 0.732500 0.977500
0.000000 0.970000 0.977500
0.205000 0.970000 0.977500
0.410000 0.970000 0.977500
0.615000 0.970000 0.977500
0.820000 0.970000 0.977500
0.000000 0.020000 1.000000
0.205000 0.020000 1.000000
0.410000 0.020000 1.000000
0.615000 0.020000 1.000000
0.820000 0.020000 1.000000
0.000000 0.257500 1.000000
0.205000 0.257500 1.000000
0.410000 0.257500 1.000000
0.615000 0.257500 1.000000
0.820000 0.257500 1.000000
0.000000 0.495000 1.000000
0.205000 0.495000 1.000000
0.410000 0.495000 1.000000
0.615000 0.495000 1.000000
0.820000 0.495000 1.000000
0.000000 0.732500 1.000000
0.205000 0.732500 1.000000
0.410000 0.732500 1.000000
0.615000 0.732500 1.000000
0.820000 0.732500 1.000000
0.000000 0.970000 1.000000
0.205000 0.970000 1.000000
0.410000 0.970000 1.000000
0.615000 0.970000 1.000000
0.820000 0.970000 1.000000
