luts/film_noir.cube
TITLE "Film Noir"
LUT_3D_SIZE 9
DOMAIN_MIN 0.0 0.0 0.0
DOMAIN_MAX 1.0 1.0 1.0
0.000000 0.000000 0.000000
0.013912 0.013628 0.013202
0.035464 0.034740 0.033654
0.061306 0.060055 0.058178
0.090401 0.088556 0.085789
0.122180 0.119687 0.115947
0.156277 0.153088 0.148304
0.192431 0.188504 0.182613
0.230443 0.225740 0.218686
0.034586 0.033880 0.032821
0.060294 0.059063 0.057217
0.089280 0.087458 0.084725
0.120968 0.118500 0.114796
0.154985 0.151822 0.147078
0.191067 0.187167 0.181318
0.229013 0.224340 0.217329
0.268669 0.263186 0.254962
0.309907 0.303582 0.294095
0.088163 0.086364 0.083665
0.119759 0.117315 0.113649
0.153696 0.150559 0.145854
0.189705 0.185834 0.180026
0.227586 0.222942 0.215975
0.267182 0.261729 0.253550
0.308363 0.302070 0.292630
0.351024 0.343861 0.333115
0.395076 0.387013 0.374919
0.152409 0.149299 0.144633
0.188346 0.184502 0.178737
0.226161 0.221546 0.214623
0.265696 0.260274 0.252140
0.306821 0.300559 0.291167
0.349430 0.342298 0.331602
0.393432 0.385402 0.373359
0.438750 0.429795 0.416364
0.485316 0.475411 0.460555
0.224739 0.220152 0.213273
0.264213 0.258821 0.250732
0.305281 0.299051 0.289706
0.347837 0.340738 0.330090
0.391789 0.383793 0.371800
0.437060 0.428140 0.414761
0.483581 0.473712 0.458909
0.531294 0.520451 0.504187
0.580145 0.568305 0.550546
0.303743 0.297545 0.288246
0.346246 0.339180 0.328580
0.390148 0.382186 0.370243
0.435372 0.426487 0.413159
0.481848 0.472015 0.457264
0.529518 0.518712 0.502502
0.578328 0.566526 0.548822
0.628231 0.615410 0.596179
0.679184 0.665323 0.644532
0.388509 0.380581 0.368687
0.433685 0.424835 0.411559
0.480117 0.470319 0.455621
0.527744 0.516974 0.500818
0.576513 0.564747 0.547099
0.626376 0.613593 0.594418
0.677291 0.663469 0.642736
0.729219 0.714337 0.692014
0.782124 0.766162 0.742220
0.478387 0.468624 0.453980
0.525971 0.515237 0.499136
0.574699 0.562971 0.545378
0.624523 0.611778 0.592660
0.675400 0.661616 0.640941
0.727291 0.712448 0.690184
0.780161 0.764239 0.740357
0.833976 0.816956 0.791427
0.888708 0.870571 0.843366
0.572887 0.561195 0.543658
0.622671 0.609964 0.590902
0.673510 0.659765 0.639147
0.725365 0.710561 0.688356
0.778199 0.762317 0.738495
0.831980 0.815001 0.789532
0.886679 0.868583 0.841440
0.942266 0.923036 0.894192
0.998718 0.978336 0.947763
0.003785 0.003708 0.003592
0.021516 0.021077 0.020419
0.044883 0.043967 0.042593
0.072053 0.070582 0.068376
0.102224 0.100138 0.097008
0.134923 0.132170 0.128039
0.169831 0.166365 0.161166
0.206714 0.202495 0.196167
0.245392 0.240384 0.232872
0.043950 0.043053 0.041707
0.070996 0.069547 0.067374
0.101067 0.099004 0.095910
0.133679 0.130951 0.126859
0.168510 0.165071 0.159913
0.205324 0.201134 0.194848
0.243939 0.238961 0.231493
0.284211 0.278411 0.269711
0.326023 0.319370 0.309390
0.099913 0.097874 0.094815
0.132439 0.129736 0.125682
0.167193 0.163781 0.158662
0.203937 0.199775 0.193532
0.242488 0.237539 0.230116
0.282702 0.276932 0.268278
0.324459 0.317837 0.307905
0.367660 0.360157 0.348902
0.412221 0.403809 0.391190
0.165878 0.162492 0.157414
0.202552 0.198418 0.192218
0.241040 0.236120 0.228742
0.281194 0.275456 0.266848
0.322897 0.316307 0.306422
0.366046 0.358576 0.347371
0.410559 0.402180 0.389612
0.456360 0.447047 0.433076
0.503386 0.493113 0.477703
0.239593 0.234704 0.227369
0.279689 0.273981 0.265419
0.321336 0.314778 0.304942
0.364434 0.356997 0.345841
0.408898 0.400553 0.388036
0.454653 0.445374 0.431456
0.501635 0.491398 0.476042
0.549788 0.538568 0.521737
0.599060 0.586835 0.568496
0.319778 0.313252 0.303463
0.362824 0.355420 0.344313
0.407239 0.398928 0.386461
0.452948 0.443704 0.429838
0.499886 0.489684 0.474381
0.547996 0.536813 0.520037
0.597228 0.585040 0.566757
0.647536 0.634321 0.614499
0.698879 0.684616 0.663222
0.405581 0.397304 0.384889
0.451244 0.442035 0.428221
0.498138 0.487972 0.472723
0.546206 0.535059 0.518338
0.595398 0.583247 0.565020
0.645667 0.632490 0.612725
0.696972 0.682749 0.661413
0.749277 0.733985 0.711048
0.802546 0.786167 0.761599
0.496391 0.486261 0.471065
0.544418 0.533307 0.516641
0.593569 0.581455 0.563285
0.643799 0.630660 0.610952
0.695067 0.680882 0.659604
0.747335 0.732083 0.709206
0.800569 0.784231 0.759724
0.854737 0.837294 0.811128
0.909811 0.891243 0.863392
0.591741 0.579665 0.561550
0.641932 0.628832 0.609181
0.693163 0.679017 0.657798
0.745395 0.730183 0.707365
0.798594 0.782296 0.757849
0.852728 0.835326 0.809222
0.907769 0.889243 0.861454
0.963689 0.944022 0.914521
1.000000 0.999638 0.968399
0.009648 0.009451 0.009156
0.029901 0.029290 0.028375
0.054848 0.053728 0.052049
0.083232 0.081534 0.078986
0.114413 0.112078 0.108575
0.147986 0.144966 0.140436
0.183671 0.179923 0.174300
0.221257 0.216742 0.209969
0.260581 0.255263 0.247286
0.053864 0.052765 0.051116
0.082135 0.080459 0.077945
0.113221 0.110911 0.107445
0.146712 0.143718 0.139227
0.182323 0.178602 0.173021
0.219843 0.215356 0.208626
0.259105 0.253817 0.245885
0.299977 0.293855 0.284672
0.342349 0.335363 0.324882
0.112033 0.109747 0.106317
0.145441 0.142473 0.138020
0.180978 0.177285 0.171745
0.218431 0.213973 0.207286
0.257631 0.252374 0.244487
0.298446 0.292356 0.283220
0.340765 0.333811 0.323379
0.384494 0.376647 0.364877
0.429553 0.420787 0.407637
0.179636 0.175970 0.170471
0.217021 0.212592 0.205948
0.256160 0.250932 0.243090
0.296918 0.290858 0.281769
0.339183 0.332261 0.321877
0.382861 0.375048 0.363327
0.427873 0.419141 0.406043
0.474149 0.464472 0.449957
0.521627 0.510981 0.495013
0.254691 0.249493 0.241696
0.295391 0.289362 0.280320
0.337602 0.330712 0.320378
0.381230 0.373450 0.361780
0.426194 0.417496 0.404450
0.472424 0.462783 0.448321
0.519859 0.509250 0.493336
0.568445 0.556844 0.539442
0.618132 0.605517 0.586594
0.336024 0.329166 0.318880
0.379601 0.371854 0.360234
0.424517 0.415854 0.402858
0.470702 0.461096 0.446687
0.518093 0.507520 0.491660
0.566637 0.555073 0.537727
0.616285 0.603707 0.584842
0.666992 0.653380 0.632962
0.718719 0.704052 0.682050
0.422842 0.414213 0.401268
0.468981 0.459410 0.445053
0.516329 0.505792 0.489986
0.564832 0.553304 0.536014
0.614439 0.601900 0.583090
0.665108 0.651534 0.631174
0.716799 0.702170 0.680227
0.769475 0.753771 0.730216
0.823103 0.806305 0.781108
0.514567 0.504065 0.488313
0.563027 0.551537 0.534301
0.612595 0.600093 0.581340
0.663226 0.649690 0.629388
0.714879 0.700290 0.678406
0.767520 0.751856 0.728360
0.821113 0.804356 0.779220
0.875630 0.857760 0.830955
0.931042 0.912041 0.883539
0.610752 0.598288 0.579592
0.661345 0.647848 0.627603
0.712961 0.698411 0.676586
0.765566 0.749942 0.726506
0.819125 0.802408 0.777333
0.873608 0.855780 0.829037
0.928987 0.910029 0.881590
0.985236 0.965129 0.934969
1.000000 1.000000 0.989150
0.016679 0.016339 0.015828
0.038949 0.038154 0.036962
0.065307 0.063974 0.061975
0.094816 0.092881 0.089979
0.126948 0.124358 0.120471
0.161355 0.158062 0.153123
0.197787 0.193750 0.187696
0.236053 0.231236 0.224009
0.276003 0.270370 0.261921
0.064277 0.062965 0.060998
0.093681 0.091770 0.088902
0.125724 0.123158 0.119310
0.160052 0.156786 0.151886
0.196413 0.192405 0.186392
0.234615 0.229826 0.222644
0.274505 0.268903 0.260500
0.315961 0.309513 0.299840
0.358880 0.351556 0.340569
0.124503 0.121962 0.118151
0.158752 0.155512 0.150652
0.195042 0.191061 0.185091
0.233178 0.228420 0.221281
0.273009 0.267437 0.259080
0.314409 0.307993 0.298368
0.357276 0.349984 0.339047
0.401521 0.393327 0.381035
0.447069 0.437945 0.424259
0.193673 0.189720 0.183792
0.231744 0.227015 0.219921
0.271515 0.265974 0.257662
0.312860 0.306475 0.296897
0.355674 0.348415 0.337527
0.399870 0.391709 0.379468
0.445371 0.436282 0.422648
0.492112 0.482069 0.467004
0.540034 0.529013 0.512481
0.270023 0.264513 0.256247
0.311312 0.304959 0.295429
0.354074 0.346848 0.336009
0.398220 0.390093 0.377903
0.443675 0.434620 0.421038
0.490371 0.480363 0.465352
0.538250 0.527266 0.510789
0.587261 0.575276 0.557299
0.637357 0.624350 0.604839
0.352476 0.345282 0.334492
0.396572 0.388479 0.376339
0.441980 0.432960 0.419430
0.488632 0.478660 0.463702
0.536469 0.525520 0.509098
0.585439 0.573491 0.555569
0.635495 0.622526 0.603072
0.686596 0.672584 0.651565
0.738702 0.723627 0.701014
0.440287 0.431302 0.417823
0.486894 0.476957 0.462053
0.534688 0.523776 0.507408
0.583618 0.571707 0.553841
0.633635 0.620704 0.601307
0.684698 0.670724 0.649764
0.736768 0.721732 0.699178
0.789811 0.773692 0.749514
0.843794 0.826574 0.800743
0.532910 0.522034 0.505720
0.581798 0.569925 0.552114
0.631776 0.618883 0.599542
0.682801 0.668866 0.647964
0.734835 0.719838 0.697343
0.787843 0.771764 0.747647
0.841792 0.824612 0.798843
0.896653 0.878354 0.850905
0.952398 0.932962 0.903807
0.629918 0.617063 0.597780
0.680906 0.667010 0.646166
0.732903 0.717946 0.695510
0.785876 0.769837 0.745780
0.839791 0.822652 0.796944
0.894619 0.876361 0.848975
0.950332 0.930938 0.901846
1.000000 0.986357 0.955533
1.000000 1.000000 1.000000
0.024595 0.024093 0.023340
0.048581 0.047589 0.046102
0.076220 0.074665 0.072332
0.106779 0.104600 0.101332
0.139814 0.136960 0.132680
0.175018 0.171446 0.166089
0.212169 0.207839 0.201344
0.251093 0.245969 0.238282
0.291652 0.285700 0.276772
0.075148 0.073615 0.071314
0.105609 0.103454 0.100221
0.138558 0.135731 0.131489
0.173687 0.170143 0.164826
0.210770 0.206469 0.200016
0.249632 0.244537 0.236895
0.290132 0.284211 0.275330
0.332157 0.325378 0.315210
0.375610 0.367944 0.356446
0.137306 0.134504 0.130300
0.172359 0.168842 0.163565
0.209373 0.205100 0.198691
0.248172 0.243107 0.235510
0.288615 0.282724 0.273889
0.330585 0.323839 0.313719
0.373987 0.366355 0.354906
0.418737 0.410191 0.397373
0.464764 0.455279 0.441052
0.207979 0.203735 0.197368
0.246715 0.241680 0.234127
0.287099 0.281240 0.272451
0.329015 0.322301 0.312229
0.372366 0.364767 0.353368
0.417068 0.408556 0.395789
0.463049 0.453599 0.439424
0.510247 0.499833 0.484214
0.558605 0.547205 0.530105
0.285585 0.279757 0.271015
0.327447 0.320765 0.310741
0.370747 0.363180 0.351831
0.415400 0.406923 0.394206
0.461335 0.451920 0.437798
0.508489 0.498112 0.482546
0.556806 0.545443 0.528398
0.606236 0.593864 0.575305
0.656734 0.643331 0.623227
0.369129 0.361596 0.350296
0.413734 0.405291 0.392625
0.459624 0.450243 0.436173
0.506734 0.496392 0.480880
0.555009 0.543682 0.526692
0.604398 0.592063 0.573561
0.654857 0.641493 0.621446
0.706346 0.691931 0.670308
0.758827 0.743341 0.720111
0.457913 0.448568 0.434550
0.504980 0.494674 0.479215
0.553212 0.541922 0.524987
0.602562 0.590265 0.571819
0.652982 0.639656 0.619667
0.704434 0.690058 0.668493
0.756879 0.741432 0.718263
0.810284 0.793747 0.768943
0.864618 0.846972 0.820504
0.551418 0.540165 0.523284
0.600727 0.588467 0.570078
0.651109 0.637821 0.617889
0.702523 0.688186 0.666680
0.754932 0.739525 0.716415
0.808302 0.791806 0.767063
0.862603 0.844998 0.818592
0.917804 0.899073 0.870977
0.973880 0.954005 0.924192
0.649237 0.635987 0.616113
0.700614 0.686316 0.664868
0.752987 0.737620 0.714569
0.806322 0.789867 0.765183
0.860589 0.843026 0.816681
0.915758 0.897069 0.869035
0.971802 0.951969 0.922220
1.000000 1.000000 0.976213
1.000000 1.000000 1.000000
0.033240 0.032562 0.031545
0.058737 0.057538 0.055740
0.087556 0.085769 0.083088
0.119101 0.116671 0.113025
0.152994 0.149871 0.145188
0.188963 0.185107 0.179323
0.226809 0.222180 0.215237
0.266371 0.260935 0.252781
0.307522 0.301246 0.291832
0.086444 0.084680 0.082034
0.117897 0.115491 0.111882
0.151709 0.148612 0.143968
0.187606 0.183777 0.178034
0.225385 0.220786 0.213886
0.264887 0.259481 0.251372
0.305981 0.299736 0.290370
0.348561 0.341447 0.330777
0.392535 0.384525 0.372508
0.150426 0.147356 0.142751
0.186251 0.182450 0.176748
0.223964 0.219393 0.212537
0.263404 0.258029 0.249965
0.304442 0.298229 0.288909
0.346969 0.339888 0.329266
0.390894 0.382916 0.370950
0.436139 0.427238 0.413887
0.482636 0.472786 0.458012
0.222545 0.218003 0.211191
0.261924 0.256579 0.248561
0.302905 0.296724 0.287451
0.345379 0.338331 0.327758
0.389254 0.381310 0.369394
0.434452 0.425585 0.412286
0.480904 0.471089 0.456368
0.528550 0.517763 0.501583
0.577338 0.565555 0.547882
0.301371 0.295220 0.285995
0.343791 0.336775 0.326251
0.387616 0.379706 0.367840
0.432766 0.423934 0.410686
0.479173 0.469394 0.454726
0.526777 0.516026 0.499900
0.575523 0.563778 0.546160
0.625365 0.612603 0.593459
0.676260 0.662458 0.641757
0.385980 0.378103 0.366287
0.431083 0.422285 0.409089
0.477444 0.467701 0.453085
0.525005 0.514291 0.498219
0.573710 0.562002 0.544439
0.623513 0.610788 0.591701
0.674369 0.660606 0.639962
0.726240 0.711419 0.689187
0.779090 0.763191 0.739341
0.475717 0.466009 0.451446
0.523235 0.512556 0.496539
0.571899 0.560227 0.542720
0.621662 0.608975 0.589944
0.672480 0.658756 0.638170
0.724314 0.709532 0.687359
0.777129 0.761269 0.737480
0.830892 0.813935 0.788499
0.885572 0.867499 0.840390
0.570089 0.558454 0.541003
0.619812 0.607163 0.588189
0.670592 0.656907 0.636378
0.722390 0.707647 0.685533
0.775169 0.759349 0.735620
0.828897 0.811981 0.786607
0.883544 0.865513 0.838466
0.939082 0.919917 0.891170
0.995486 0.975170 0.944695
0.668706 0.655059 0.634588
0.720467 0.705763 0.683708
0.773210 0.757431 0.733761
0.826904 0.810029 0.784715
0.881518 0.863528 0.836543
0.937024 0.917901 0.889216
0.993395 0.973122 0.942712
1.000000 1.000000 0.997007
1.000000 1.000000 1.000000
0.042517 0.041649 0.040348
0.069372 0.067956 0.065832
0.099285 0.097259 0.094220
0.131763 0.129074 0.125041
0.166475 0.163078 0.157981
0.203181 0.199034 0.192815
0.241698 0.236765 0.229366
0.281879 0.276127 0.267498
0.323607 0.317002 0.307096
0.098137 0.096134 0.093130
0.130527 0.127863 0.123867
0.165161 0.161791 0.156735
0.201798 0.197679 0.191502
0.240250 0.235347 0.227993
0.280373 0.274651 0.266068
0.322045 0.315473 0.305614
0.365167 0.357715 0.346536
0.409653 0.401292 0.388752
0.163850 0.160507 0.155491
0.200417 0.196326 0.190191
0.238805 0.233932 0.226621
0.278869 0.273178 0.264641
0.320486 0.313945 0.304135
0.363556 0.356136 0.345007
0.407993 0.399666 0.387177
0.453723 0.444463 0.430573
0.500681 0.490463 0.475136
0.237363 0.232518 0.225252
0.277367 0.271706 0.263215
0.318929 0.312420 0.302657
0.361947 0.354560 0.343480
0.406335 0.398042 0.385603
0.452018 0.442793 0.428956
0.498932 0.488750 0.473476
0.547020 0.535856 0.519110
0.596230 0.584062 0.565810
0.317373 0.310896 0.301181
0.360339 0.352985 0.341955
0.404678 0.396419 0.384031
0.450315 0.441125 0.427340
0.497185 0.487038 0.471818
0.545230 0.534103 0.517412
0.594400 0.582269 0.564073
0.644648 0.631492 0.611758
0.695933 0.681730 0.660426
0.403024 0.394799 0.382461
0.448614 0.439459 0.425726
0.495440 0.485329 0.470162
0.543443 0.532352 0.515716
0.592572 0.580478 0.562338
0.642781 0.629663 0.609986
0.694028 0.679864 0.658619
0.746277 0.731047 0.708201
0.799492 0.783175 0.758701
0.493696 0.483620 0.468507
0.541656 0.530602 0.514021
0.590745 0.578689 0.560605
0.640915 0.627835 0.608215
0.692125 0.678000 0.656812
0.744337 0.729147 0.706361
0.797517 0.781241 0.756827
0.851633 0.834253 0.808182
0.906656 0.888153 0.860398
0.588919 0.576901 0.558873
0.639050 0.626009 0.606446
0.690223 0.676137 0.655008
0.742399 0.727248 0.704522
0.795544 0.779308 0.754955
0.849626 0.832287 0.806278
0.904616 0.886154 0.858462
0.960487 0.940885 0.911482
1.000000 0.996454 0.965315
0.688322 0.674275 0.653204
0.740462 0.725351 0.702683
0.793572 0.777377 0.753084
0.847620 0.830322 0.804374
0.902577 0.884157 0.856527
0.958416 0.938856 0.909517
1.000000 0.994395 0.963320
1.000000 1.000000 1.000000
1.000000 1.000000 1.000000
0.052353 0.051284 0.049682
0.080448 0.078806 0.076343
0.111386 0.109113 0.105703
0.144749 0.141795 0.137364
0.180246 0.176567 0.171049
0.217661 0.213219 0.206556
0.256828 0.251587 0.243725
0.297612 0.291539 0.282428
0.339902 0.332965 0.322560
0.110203 0.107954 0.104580
0.143482 0.140554 0.136162
0.178905 0.175253 0.169777
0.216253 0.211840 0.205220
0.255358 0.250147 0.242330
0.296085 0.290042 0.280978
0.338320 0.331416 0.321059
0.381971 0.374176 0.362483
0.426957 0.418244 0.405174
0.177566 0.173942 0.168507
0.214847 0.210462 0.203885
0.253890 0.248709 0.240936
0.294559 0.288547 0.279530
0.336741 0.329869 0.319560
0.380341 0.372579 0.360936
0.425279 0.416600 0.403581
0.471485 0.461863 0.447429
0.518896 0.508306 0.492422
0.252424 0.247273 0.239545
0.293035 0.287055 0.278084
0.335163 0.328323 0.318063
0.378713 0.370984 0.359391
0.423603 0.414958 0.401991
0.469763 0.460176 0.445796
0.517131 0.506577 0.490747
0.565652 0.554108 0.536792
0.615278 0.602721 0.583886
0.333588 0.326780 0.316568
0.377087 0.369391 0.357848
0.421929 0.413318 0.400402
0.468043 0.458491 0.444163
0.515368 0.504850 0.489073
0.563847 0.552340 0.535080
0.613433 0.600914 0.582136
0.664081 0.650529 0.630199
0.715752 0.701144 0.679234
0.420256 0.411680 0.398815
0.466325 0.456808 0.442533
0.513606 0.503124 0.487401
0.562044 0.550574 0.533368
0.611590 0.599108 0.580386
0.662200 0.648685 0.628414
0.713833 0.699265 0.677413
0.766454 0.750812 0.727349
0.820029 0.803293 0.778191
0.511846 0.501400 0.485731
0.560242 0.548808 0.531658
0.609748 0.597304 0.578638
0.660319 0.646843 0.626630
0.711916 0.697387 0.675593
0.764501 0.748899 0.725496
0.818041 0.801346 0.776304
0.872506 0.854700 0.827991
0.927868 0.908931 0.880527
0.607908 0.595501 0.576892
0.658440 0.645003 0.624846
0.710000 0.695510 0.673775
0.762549 0.746987 0.723644
0.816055 0.799401 0.774419
0.870486 0.852721 0.826074
0.925815 0.906921 0.878580
0.982015 0.961974 0.931912
1.000000 1.000000 0.986048
0.708085 0.693634 0.671958
0.760599 0.745076 0.721793
0.814070 0.797456 0.772536
0.868468 0.850744 0.824158
0.923764 0.904912 0.876633
0.979932 0.959934 0.929936
1.000000 1.000000 0.984043
1.000000 1.000000 1.000000
1.000000 1.000000 1.000000
0.062694 0.061415 0.059496
0.091935 0.090059 0.087244
0.123838 0.121311 0.117520
0.158044 0.154819 0.149980
0.194295 0.190330 0.184382
0.232396 0.227653 0.220539
0.272194 0.266639 0.258306
0.313564 0.307165 0.297566
0.356402 0.349128 0.338218
0.122622 0.120119 0.116366
0.156748 0.153549 0.148751
0.192927 0.188990 0.183084
0.230963 0.226250 0.219179
0.270701 0.265177 0.256890
0.312015 0.305648 0.296096
0.354801 0.347560 0.336699
0.398970 0.390827 0.378614
0.444445 0.435375 0.421770
0.191562 0.187653 0.181789
0.229533 0.224849 0.217822
0.269211 0.263717 0.255475
0.310469 0.304133 0.294628
0.353202 0.345994 0.335181
0.397321 0.389213 0.377050
0.442750 0.433714 0.420161
0.489422 0.479434 0.464452
0.537278 0.526314 0.509866
0.267722 0.262259 0.254063
0.308924 0.302619 0.293163
0.351605 0.344429 0.333666
0.395674 0.387599 0.375487
0.441056 0.432055 0.418554
0.487684 0.477731 0.462802
0.535497 0.524569 0.508176
0.584445 0.572518 0.554627
0.634480 0.621532 0.602109
0.350009 0.342866 0.332152
0.394029 0.385988 0.373926
0.439364 0.430398 0.416948
0.485947 0.476030 0.461154
0.533718 0.522826 0.506487
0.582625 0.570735 0.552899
0.632621 0.619710 0.600344
0.683663 0.669711 0.648782
0.735714 0.720699 0.698177
0.437674 0.428742 0.415344
0.484212 0.474330 0.459507
0.531940 0.521084 0.504800
0.580806 0.568953 0.551173
0.630763 0.617890 0.598581
0.681767 0.667854 0.646983
0.733781 0.718806 0.696343
0.786770 0.770713 0.746628
0.840700 0.823543 0.797807
0.530164 0.519344 0.503115
0.578989 0.567173 0.549449
0.628906 0.616071 0.596819
0.679873 0.665998 0.645185
0.731850 0.716914 0.694511
0.784803 0.768787 0.744762
0.838700 0.821583 0.795909
0.893510 0.875275 0.847922
0.949206 0.929834 0.900777
0.627051 0.614254 0.595058
0.677979 0.664143 0.643389
0.729920 0.715024 0.692680
0.782838 0.766862 0.742898
0.836700 0.819625 0.794012
0.891477 0.873284 0.845994
0.947141 0.927812 0.898818
1.000000 0.983184 0.952459
1.000000 1.000000 1.000000
0.727992 0.713135 0.690850
0.780875 0.764938 0.741034
0.834703 0.817668 0.792116
0.889446 0.871294 0.844066
0.945078 0.925791 0.896860
1.000000 0.981132 0.950472
1.000000 1.000000 1.000000
1.000000 1.000000 1.000000
1.000000 1.000000 1.000000
