luts/film_noir.cube
TITLE "Film Noir"
LUT_3D_SIZE 5
DOMAIN_MIN 0.0 0.0 0.0
DOMAIN_MAX 1.0 1.0 1.0
0.000000 0.000000 0.000000
0.035464 0.034740 0.033654
0.090401 0.088556 0.085789
0.156277 0.153088 0.148304
0.230443 0.225740 0.218686
0.088163 0.086364 0.083665
0.153696 0.150559 0.145854
0.227586 0.222942 0.215975
0.308363 0.302070 0.292630
0.395076 0.387013 0.374919
0.224739 0.220152 0.213273
0.305281 0.299051 0.289706
0.391789 0.383793 0.371800
0.483581 0.473712 0.458909
0.580145 0.568305 0.550546
0.388509 0.380581 0.368687
0.480117 0.470319 0.455621
0.576513 0.564747 0.547099
0.677291 0.663469 0.642736
0.782124 0.766162 0.742220
0.572887 0.561195 0.543658
0.673510 0.659765 0.639147
0.778199 0.762317 0.738495
0.886679 0.868583 0.841440
0.998718 0.978336 0.947763
0.009648 0.009451 0.009156
0.054848 0.053728 0.052049
0.114413 0.112078 0.108575
0.183671 0.179923 0.174300
0.260581 0.255263 0.247286
0.112033 0.109747 0.106317
0.180978 0.177285 0.171745
0.257631 0.252374 0.244487
0.340765 0.333811 0.323379
0.429553 0.420787 0.407637
0.254691 0.249493 0.241696
0.337602 0.330712 0.320378
0.426194 0.417496 0.404450
0.519859 0.509250 0.493336
0.618132 0.605517 0.586594
0.422842 0.414213 0.401268
0.516329 0.505792 0.489986
0.614439 0.601900 0.583090
0.716799 0.702170 0.680227
0.823103 0.806305 0.781108
0.610752 0.598288 0.579592
0.712961 0.698411 0.676586
0.819125 0.802408 0.777333
0.928987 0.910029 0.881590
1.000000 1.000000 0.989150
0.024595 0.024093 0.023340
0.076220 0.074665 0.072332
0.139814 0.136960 0.132680
0.212169 0.207839 0.201344
0.291652 0.285700 0.276772
0.137306 0.134504 0.130300
0.209373 0.205100 0.198691
0.288615 0.282724 0.273889
0.373987 0.366355 0.354906
0.464764 0.455279 0.441052
0.285585 0.279757 0.271015
0.370747 0.363180 0.351831
0.461335 0.451920 0.437798
0.556806 0.545443 0.528398
0.656734 0.643331 0.623227
0.457913 0.448568 0.434550
0.553212 0.541922 0.524987
0.652982 0.639656 0.619667
0.756879 0.741432 0.718263
0.864618 0.846972 0.820504
0.649237 0.635987 0.616113
0.752987 0.737620 0.714569
0.860589 0.843026 0.816681
0.971802 0.951969 0.922220
1.000000 1.000000 1.000000
0.042517 0.041649 0.040348
0.099285 0.097259 0.094220
0.166475 0.163078 0.157981
0.241698 0.236765 0.229366
0.323607 0.317002 0.307096
0.163850 0.160507 0.155491
0.238805 0.233932 0.226621
0.320486 0.313945 0.304135
0.407993 0.399666 0.387177
0.500681 0.490463 0.475136
0.317373 0.310896 0.301181
0.404678 0.396419 0.384031
0.497185 0.487038 0.471818
0.594400 0.582269 0.564073
0.695933 0.681730 0.660426
0.493696 0.483620 0.468507
0.590745 0.578689 0.560605
0.692125 0.678000 0.656812
0.797517 0.781241 0.756827
0.906656 0.888153 0.860398
0.688322 0.674275 0.653204
0.793572 0.777377 0.753084
0.902577 0.884157 0.856527
1.000000 0.994395 0.963320
1.000000 1.000000 1.000000
0.062694 0.061415 0.059496
0.123838 0.121311 0.117520
0.194295 0.190330 0.184382
0.272194 0.266639 0.258306
0.356402 0.349128 0.338218
0.191562 0.187653 0.181789
0.269211 0.263717 0.255475
0.353202 0.345994 0.335181
0.442750 0.433714 0.420161
0.537278 0.526314 0.509866
0.350009 0.342866 0.332152
0.439364 0.430398 0.416948
0.533718 0.522826 0.506487
0.632621 0.619710 0.600344
0.735714 0.720699 0.698177
0.530164 0.519344 0.503115
0.628906 0.616071 0.596819
0.731850 0.716914 0.694511
0.838700 0.821583 0.795909
0.949206 0.929834 0.900777
0.727992 0.713135 0.690850
0.834703 0.817668 0.792116
0.945078 0.925791 0.896860
1.000000 1.000000 1.000000
1.000000 1.000000 1.000000
