luts/film_noir.cube
TITLE "Film Noir"
LUT_3D_SIZE 17
DOMAIN_MIN 0.0 0.0 0.0
DOMAIN_MAX 1.0 1.0 1.0
0.000000 0.000000 0.000000
0.005458 0.005346 0.005179
0.013912 0.013628 0.013202
0.024050 0.023559 0.022823
0.035464 0.034740 0.033654
0.047930 0.046952 0.045485
0.061306 0.060055 0.058178
0.075489 0.073948 0.071638
0.090401 0.088556 0.085789
0.105981 0.103818 0.100574
0.122180 0.119687 0.115947
0.138957 0.136122 0.131868
0.156277 0.153088 0.148304
0.174111 0.170557 0.165227
0.192431 0.188504 0.182613
0.211215 0.206904 0.200439
0.230443 0.225740 0.218686
0.013568 0.013291 0.012875
0.023653 0.023170 0.022446
0.035024 0.034309 0.033237
0.047455 0.046486 0.045034
0.060799 0.059559 0.057697
0.074954 0.073424 0.071130
0.089840 0.088007 0.085256
0.105397 0.103246 0.100019
0.121574 0.119093 0.115371
0.138330 0.135507 0.131273
0.155631 0.152455 0.147691
0.173446 0.169906 0.164596
0.191748 0.187835 0.181965
0.210516 0.206220 0.199775
0.229728 0.225040 0.218007
0.249366 0.244277 0.236643
0.269414 0.263916 0.255668
0.034586 0.033880 0.032821
0.046981 0.046022 0.044584
0.060294 0.059063 0.057217
0.074420 0.072901 0.070623
0.089280 0.087458 0.084725
0.104813 0.102674 0.099466
0.120968 0.118500 0.114796
0.137704 0.134894 0.130678
0.154985 0.151822 0.147078
0.172781 0.169255 0.163966
0.191067 0.187167 0.181318
0.209817 0.205535 0.199112
0.229013 0.224340 0.217329
0.248636 0.243562 0.235951
0.268669 0.263186 0.254962
0.289097 0.283197 0.274347
0.309907 0.303582 0.294095
0.059789 0.058569 0.056738
0.073887 0.072379 0.070117
0.088721 0.086911 0.084195
0.104230 0.102103 0.098913
0.120363 0.117907 0.114222
0.137078 0.134281 0.130085
0.154340 0.151190 0.146466
0.172118 0.168605 0.163336
0.190386 0.186500 0.180672
0.209120 0.204852 0.198450
0.228300 0.223640 0.216652
0.247907 0.242848 0.235259
0.267925 0.262457 0.254255
0.288339 0.282454 0.273628
0.309135 0.302826 0.293362
0.330300 0.323559 0.313448
0.351822 0.344642 0.333872
0.088163 0.086364 0.083665
0.103649 0.101533 0.098360
0.119759 0.117315 0.113649
0.136454 0.133669 0.129492
0.153696 0.150559 0.145854
0.171455 0.167956 0.162707
0.189705 0.185834 0.180026
0.208422 0.204169 0.197789
0.227586 0.222942 0.215975
0.247178 0.242134 0.234567
0.267182 0.261729 0.253550
0.287581 0.281712 0.272909
0.308363 0.302070 0.292630
0.329515 0.322790 0.312703
0.351024 0.343861 0.333115
0.372881 0.365272 0.353857
0.395076 0.387013 0.374919
0.119156 0.116724 0.113077
0.135830 0.133058 0.128900
0.153052 0.149929 0.145243
0.170793 0.167307 0.162079
0.189025 0.185168 0.179381
0.207726 0.203486 0.197128
0.226874 0.222244 0.215298
0.246450 0.241420 0.233876
0.266439 0.261001 0.252845
0.286824 0.280970 0.272190
0.307592 0.301314 0.291898
0.328730 0.322021 0.311958
0.350227 0.343079 0.332358
0.372071 0.364478 0.353088
0.394254 0.386208 0.374139
0.416764 0.408259 0.395501
0.439595 0.430624 0.417167
0.152409 0.149299 0.144633
0.170131 0.166659 0.161451
0.188346 0.184502 0.178737
0.207030 0.202805 0.196467
0.226161 0.221546 0.214623
0.245722 0.240708 0.233186
0.265696 0.260274 0.252140
0.286067 0.280229 0.271472
0.306821 0.300559 0.291167
0.327946 0.321253 0.311214
0.349430 0.342298 0.331602
0.371262 0.363685 0.352320
0.393432 0.385402 0.373359
0.415931 0.407442 0.394710
0.438750 0.429795 0.416364
0.461880 0.452454 0.438315
0.485316 0.475411 0.460555
0.187668 0.183838 0.178093
0.206334 0.202123 0.195807
0.225450 0.220849 0.213947
0.244995 0.239996 0.232496
0.264954 0.259547 0.251436
0.285311 0.279488 0.270754
0.306051 0.299805 0.290436
0.327162 0.320485 0.310470
0.348633 0.341518 0.330846
0.370452 0.362892 0.351552
0.392610 0.384598 0.372579
0.415097 0.406626 0.393919
0.437904 0.428968 0.415562
0.461024 0.451615 0.437502
0.484448 0.474562 0.459732
0.508170 0.497799 0.482243
0.532182 0.521322 0.505030
0.224739 0.220152 0.213273
0.244269 0.239284 0.231806
0.264213 0.258821 0.250732
0.284555 0.278748 0.270037
0.305281 0.299051 0.289706
0.326379 0.319718 0.309727
0.347837 0.340738 0.330090
0.369644 0.362100 0.350784
0.391789 0.383793 0.371800
0.414264 0.405810 0.393128
0.437060 0.428140 0.414761
0.460168 0.450777 0.436690
0.483581 0.473712 0.458909
0.507292 0.496939 0.481410
0.531294 0.520451 0.504187
0.555580 0.544242 0.527234
0.580145 0.568305 0.550546
0.263472 0.258095 0.250029
0.283799 0.278008 0.269320
0.304512 0.298297 0.288976
0.325597 0.318952 0.308984
0.347041 0.339959 0.329335
0.368835 0.361308 0.350017
0.390968 0.382990 0.371021
0.413432 0.404994 0.392338
0.436216 0.427313 0.413960
0.459312 0.449939 0.435878
0.482715 0.472863 0.458086
0.506415 0.496080 0.480577
0.530406 0.519581 0.503344
0.554682 0.543362 0.526382
0.579236 0.567415 0.549684
0.604064 0.591736 0.573244
0.629159 0.616319 0.597059
0.303743 0.297545 0.288246
0.324814 0.318186 0.308242
0.346246 0.339180 0.328580
0.368027 0.360517 0.349251
0.390148 0.382186 0.370243
0.412599 0.404179 0.391548
0.435372 0.426487 0.413159
0.458457 0.449101 0.435067
0.481848 0.472015 0.457264
0.505538 0.495220 0.479745
0.529518 0.518712 0.502502
0.553784 0.542482 0.525529
0.578328 0.566526 0.548822
0.603146 0.590837 0.572373
0.628231 0.615410 0.596179
0.653579 0.640240 0.620233
0.679184 0.665323 0.644532
0.345451 0.338401 0.327826
0.367220 0.359726 0.348484
0.389329 0.381383 0.369465
0.411768 0.403364 0.390759
0.434528 0.425660 0.412359
0.457603 0.448264 0.434255
0.480982 0.471166 0.456443
0.504661 0.494362 0.478913
0.528631 0.517842 0.501660
0.552886 0.541603 0.524678
0.577420 0.565636 0.547960
0.602228 0.589938 0.571502
0.627304 0.614501 0.595298
0.652642 0.639323 0.619344
0.678238 0.664396 0.643634
0.704086 0.689717 0.668164
0.730184 0.715282 0.692929
0.388509 0.380581 0.368687
0.410936 0.402550 0.389970
0.433685 0.424835 0.411559
0.456748 0.447427 0.433445
0.480117 0.470319 0.455621
0.503785 0.493503 0.478081
0.527744 0.516974 0.500818
0.551989 0.540724 0.523826
0.576513 0.564747 0.547099
0.601311 0.589039 0.570632
0.626376 0.613593 0.594418
0.651705 0.638405 0.618455
0.677291 0.663469 0.642736
0.703131 0.688781 0.667257
0.729219 0.714337 0.692014
0.755551 0.740132 0.717003
0.782124 0.766162 0.742220
0.432843 0.424009 0.410759
0.455894 0.446590 0.432634
0.479252 0.469471 0.454800
0.502909 0.492645 0.477250
0.526857 0.516105 0.499977
0.551092 0.539845 0.522975
0.575606 0.563859 0.546238
0.600394 0.588141 0.569761
0.625450 0.612685 0.593539
0.650769 0.637488 0.617566
0.676346 0.662543 0.641838
0.702176 0.687846 0.666351
0.728255 0.713393 0.691099
0.754578 0.739179 0.716080
0.781142 0.765201 0.741288
0.807942 0.791454 0.766721
0.834975 0.817935 0.792374
0.478387 0.468624 0.453980
0.502033 0.491787 0.476419
0.525971 0.515237 0.499136
0.550195 0.538967 0.522124
0.574699 0.562971 0.545378
0.599477 0.587243 0.568891
0.624523 0.611778 0.592660
0.649832 0.636571 0.616678
0.675400 0.661616 0.640941
0.701221 0.686911 0.665445
0.727291 0.712448 0.690184
0.753606 0.738226 0.715156
0.780161 0.764239 0.740357
0.806952 0.790484 0.765781
0.833976 0.816956 0.791427
0.861229 0.843653 0.817289
0.888708 0.870571 0.843366
0.525085 0.514369 0.498295
0.549299 0.538089 0.521274
0.573793 0.562083 0.544518
0.598561 0.586345 0.568022
0.623597 0.610870 0.591781
0.648897 0.635654 0.615790
0.674455 0.660691 0.640044
0.700267 0.685976 0.664539
0.726328 0.711505 0.689270
0.752633 0.737273 0.714234
0.779180 0.763278 0.739426
0.805962 0.789514 0.764842
0.832978 0.815978 0.790479
0.860223 0.842667 0.816334
0.887693 0.869577 0.842403
0.915386 0.896704 0.868682
0.943297 0.924046 0.895170
0.572887 0.561195 0.543658
0.597645 0.585448 0.567152
0.622671 0.609964 0.590902
0.647961 0.634738 0.614902
0.673510 0.659765 0.639147
0.699313 0.685041 0.663634
0.725365 0.710561 0.688356
0.751661 0.736321 0.713311
0.778199 0.762317 0.738495
0.804973 0.788545 0.763903
0.831980 0.815001 0.789532
0.859216 0.841681 0.815379
0.886679 0.868583 0.841440
0.914363 0.895702 0.867712
0.942266 0.923036 0.894192
0.970386 0.950582 0.920876
0.998718 0.978336 0.947763
0.001485 0.001454 0.001409
0.008441 0.008268 0.008010
0.017607 0.017248 0.016709
0.028266 0.027689 0.026824
0.040102 0.039283 0.038056
0.052929 0.051849 0.050229
0.066623 0.065264 0.063224
0.081092 0.079437 0.076955
0.096265 0.094301 0.091354
0.112087 0.109799 0.106368
0.128511 0.125888 0.121954
0.145499 0.142529 0.138075
0.163018 0.159691 0.154700
0.181039 0.177345 0.171803
0.199539 0.195467 0.189358
0.218495 0.214036 0.207347
0.237887 0.233032 0.225750
0.017241 0.016889 0.016361
0.027851 0.027283 0.026430
0.039648 0.038839 0.037625
0.052441 0.051371 0.049766
0.066105 0.064756 0.062733
0.080547 0.078903 0.076437
0.095695 0.093742 0.090813
0.111494 0.109218 0.105805
0.127896 0.125286 0.121371
0.144864 0.141908 0.137473
0.162364 0.159050 0.154080
0.180368 0.176687 0.171165
0.198850 0.194792 0.188705
0.217790 0.213345 0.206678
0.237166 0.232326 0.225066
0.256962 0.251718 0.243852
0.277162 0.271506 0.263021
0.039195 0.038395 0.037195
0.051955 0.050894 0.049304
0.065588 0.064250 0.062242
0.080003 0.078370 0.075921
0.095126 0.093185 0.090273
0.110902 0.108638 0.105243
0.127283 0.124685 0.120789
0.144230 0.141287 0.136872
0.161711 0.158411 0.153461
0.179697 0.176029 0.170529
0.198162 0.194118 0.188052
0.217085 0.212655 0.206009
0.236446 0.231620 0.224382
0.256227 0.250998 0.243154
0.276412 0.270771 0.262309
0.296987 0.290926 0.281835
0.317939 0.311450 0.301717
0.065072 0.063744 0.061752
0.079459 0.077838 0.075405
0.094558 0.092628 0.089734
0.110310 0.108059 0.104682
0.126670 0.124085 0.120207
0.143597 0.140667 0.136271
0.161059 0.157772 0.152842
0.179026 0.175373 0.169892
0.197474 0.193444 0.187399
0.216381 0.211965 0.205341
0.235726 0.230915 0.223699
0.255492 0.250278 0.242456
0.275662 0.270037 0.261598
0.296223 0.290178 0.281110
0.317161 0.310689 0.300980
0.338464 0.331557 0.321195
0.360120 0.352771 0.341747
0.093991 0.092072 0.089195
0.109720 0.107481 0.104122
0.126058 0.123485 0.119626
0.142965 0.140047 0.135671
0.160407 0.157134 0.152223
0.178357 0.174717 0.169257
0.196788 0.192771 0.186747
0.215677 0.211276 0.204673
0.235007 0.230211 0.223016
0.254757 0.249558 0.241759
0.274913 0.269303 0.260887
0.295460 0.289430 0.280386
0.316384 0.309928 0.300242
0.337674 0.330783 0.320446
0.359317 0.351984 0.340985
0.381304 0.373523 0.361850
0.403625 0.395388 0.383032
0.125446 0.122886 0.119046
0.142333 0.139428 0.135071
0.159757 0.156496 0.151606
0.177688 0.174061 0.168622
0.196101 0.192099 0.186096
0.214975 0.210587 0.204006
0.234288 0.229507 0.222334
0.254023 0.248839 0.241063
0.274165 0.268570 0.260177
0.294697 0.288683 0.279662
0.315608 0.309167 0.299506
0.336884 0.330009 0.319696
0.358515 0.351198 0.340223
0.380489 0.372724 0.361077
0.402798 0.394578 0.382247
0.425432 0.416749 0.403726
0.448382 0.439231 0.425506
0.159106 0.155859 0.150989
0.177019 0.173407 0.167988
0.195415 0.191427 0.185445
0.214272 0.209899 0.203340
0.233570 0.228803 0.221653
0.253290 0.248121 0.240367
0.273417 0.267837 0.259467
0.293935 0.287937 0.278939
0.314832 0.308407 0.298769
0.336095 0.329236 0.318948
0.357713 0.350413 0.339462
0.379675 0.371927 0.360304
0.401972 0.393768 0.381463
0.424593 0.415928 0.402931
0.447532 0.438399 0.424699
0.470780 0.461172 0.446761
0.494330 0.484241 0.469109
0.194730 0.190756 0.184795
0.213571 0.209212 0.202674
0.232852 0.228100 0.220972
0.252557 0.247403 0.239672
0.272669 0.267105 0.258758
0.293174 0.287191 0.278216
0.314057 0.307648 0.298034
0.335307 0.328464 0.318199
0.356912 0.349628 0.338702
0.378861 0.371129 0.359531
0.401145 0.392959 0.380679
0.423756 0.415107 0.402135
0.446683 0.437567 0.423893
0.469920 0.460329 0.445944
0.493458 0.483387 0.468282
0.517291 0.506734 0.490899
0.541413 0.530364 0.513790
0.232135 0.227398 0.220292
0.251825 0.246686 0.238977
0.271922 0.266373 0.258049
0.292413 0.286445 0.277494
0.313282 0.306889 0.297298
0.334519 0.327692 0.317451
0.356111 0.348843 0.337942
0.378048 0.370332 0.358759
0.400320 0.392150 0.379895
0.422918 0.414287 0.401341
0.445834 0.436735 0.423087
0.469059 0.459487 0.445128
0.492587 0.482534 0.467455
0.516409 0.505870 0.490062
0.540520 0.529489 0.512943
0.564914 0.553385 0.536091
0.589583 0.577551 0.559502
0.271176 0.265642 0.257340
0.291652 0.285700 0.276772
0.312508 0.306130 0.296563
0.333731 0.326920 0.316704
0.355310 0.348059 0.337182
0.377235 0.369536 0.357988
0.399495 0.391342 0.379112
0.422081 0.413467 0.400546
0.444985 0.435904 0.422282
0.468199 0.458644 0.444312
0.491716 0.481681 0.466628
0.515528 0.505007 0.489225
0.539628 0.528616 0.512096
0.564011 0.552501 0.535235
0.588671 0.576657 0.558636
0.613601 0.601078 0.582295
0.638796 0.625760 0.606205
0.311734 0.305372 0.295829
0.332944 0.326149 0.315957
0.354510 0.347275 0.336423
0.376422 0.368740 0.357217
0.398670 0.390534 0.378330
0.421244 0.412648 0.399752
0.444137 0.435073 0.421477
0.467340 0.457802 0.443496
0.490846 0.480828 0.465802
0.514647 0.504144 0.488389
0.538737 0.527742 0.511250
0.563109 0.551617 0.534379
0.587759 0.575764 0.557771
0.612679 0.600175 0.581420
0.637865 0.624847 0.605321
0.663311 0.649774 0.629469
0.689013 0.674952 0.653860
0.353710 0.346492 0.335664
0.375610 0.367944 0.356446
0.397845 0.389726 0.377547
0.420408 0.411828 0.398959
0.443289 0.434243 0.420673
0.466481 0.456961 0.442681
0.489976 0.479976 0.464977
0.513766 0.503281 0.487553
0.537845 0.526869 0.510404
0.562208 0.550734 0.533524
0.586847 0.574870 0.556906
0.611757 0.599272 0.580545
0.636934 0.623935 0.604437
0.662371 0.648853 0.628576
0.688063 0.674021 0.652958
0.714007 0.699436 0.677578
0.740198 0.725092 0.702433
0.397022 0.388919 0.376765
0.419572 0.411010 0.398166
0.442442 0.433413 0.419868
0.465622 0.456120 0.441866
0.489106 0.479124 0.464151
0.512885 0.502418 0.486718
0.536954 0.525996 0.509559
0.561306 0.549851 0.532668
0.585936 0.573978 0.556041
0.610836 0.598370 0.579671
0.636003 0.623023 0.603554
0.661430 0.647932 0.627684
0.687114 0.673091 0.652057
0.713048 0.698496 0.676668
0.739230 0.724144 0.701514
0.765655 0.750029 0.726591
0.792318 0.776148 0.751893
0.441595 0.432583 0.419065
0.464764 0.455279 0.441052
0.488237 0.478273 0.463327
0.512005 0.501556 0.485883
0.536064 0.525124 0.508714
0.560406 0.548969 0.531814
0.585025 0.573085 0.555176
0.609915 0.597468 0.578797
0.635072 0.622112 0.602671
0.660490 0.647011 0.626792
0.686164 0.672161 0.651156
0.712090 0.697558 0.675759
0.738263 0.723196 0.700596
0.764678 0.749073 0.725664
0.791333 0.775183 0.750959
0.818222 0.801523 0.776476
0.845342 0.828090 0.802212
0.487368 0.477422 0.462502
0.511126 0.500695 0.485048
0.535174 0.524252 0.507869
0.559505 0.548087 0.530959
0.584114 0.572193 0.554312
0.608995 0.596566 0.577924
0.634142 0.621200 0.601788
0.659550 0.646090 0.625900
0.685215 0.671231 0.650255
0.711132 0.696619 0.674850
0.737296 0.722249 0.699678
0.763702 0.748116 0.724738
0.790348 0.774218 0.750024
0.817228 0.800550 0.775533
0.844340 0.827109 0.801262
0.871680 0.853890 0.827206
0.899243 0.880891 0.853364
0.534284 0.523380 0.507025
0.558605 0.547205 0.530105
0.583204 0.571302 0.553449
0.608075 0.595665 0.577051
0.633212 0.620290 0.600905
0.658611 0.645170 0.625009
0.684267 0.670302 0.649355
0.710174 0.695681 0.673941
0.736329 0.721302 0.698761
0.762727 0.747161 0.723812
0.789363 0.773254 0.749090
0.816235 0.799578 0.774591
0.843339 0.826128 0.800311
0.870670 0.852901 0.826248
0.898225 0.879894 0.852398
0.926002 0.907104 0.878757
0.953996 0.934527 0.905323
0.582294 0.570411 0.552585
0.607155 0.594764 0.576178
0.632283 0.619379 0.600023
0.657672 0.644250 0.624117
0.683318 0.669373 0.648455
0.709216 0.694743 0.673032
0.735362 0.720355 0.697844
0.761751 0.746205 0.722886
0.788379 0.772290 0.748156
0.815243 0.798605 0.773649
0.842338 0.825147 0.799361
0.869660 0.851912 0.825290
0.897208 0.878897 0.851432
0.924976 0.906099 0.877783
0.952962 0.933514 0.904342
0.981163 0.961139 0.931104
1.000000 0.988972 0.958067
0.003785 0.003708 0.003592
0.011730 0.011490 0.011131
0.021516 0.021077 0.020419
0.032651 0.031985 0.030985
0.044883 0.043967 0.042593
0.058054 0.056869 0.055092
0.072053 0.070582 0.068376
0.086797 0.085026 0.082369
0.102224 0.100138 0.097008
0.118280 0.115866 0.112245
0.134923 0.132170 0.128039
0.152117 0.149013 0.144356
0.169831 0.166365 0.161166
0.188038 0.184200 0.178444
0.206714 0.202495 0.196167
0.225838 0.221229 0.214316
0.245392 0.240384 0.232872
0.021130 0.020699 0.020052
0.032221 0.031564 0.030577
0.044416 0.043509 0.042150
0.057554 0.056379 0.054618
0.071524 0.070064 0.067875
0.086243 0.084482 0.081842
0.101645 0.099570 0.096459
0.117679 0.115277 0.111675
0.134301 0.131560 0.127449
0.151475 0.148384 0.143747
0.169170 0.165718 0.160539
0.187359 0.183536 0.177800
0.206018 0.201814 0.195507
0.225127 0.220532 0.213641
0.244665 0.239672 0.232182
0.264617 0.259217 0.251116
0.284967 0.279151 0.270428
0.043950 0.043053 0.041707
0.057055 0.055891 0.054144
0.070996 0.069547 0.067374
0.085689 0.083940 0.081317
0.101067 0.099004 0.095910
0.117078 0.114689 0.111105
0.133679 0.130951 0.126859
0.150834 0.147756 0.143138
0.168510 0.165071 0.159913
0.186682 0.182872 0.177157
0.205324 0.201134 0.194848
0.224416 0.219836 0.212966
0.243939 0.238961 0.231493
0.263876 0.258491 0.250413
0.284211 0.278411 0.269711
0.304932 0.298708 0.289374
0.326023 0.319370 0.309390
0.070470 0.069032 0.066874
0.085136 0.083398 0.080792
0.100489 0.098439 0.095362
0.116478 0.114101 0.110536
0.133059 0.130343 0.126270
0.150193 0.147128 0.142530
0.167851 0.164426 0.159287
0.186005 0.182209 0.176515
0.204630 0.200454 0.194190
0.223706 0.219140 0.212292
0.243213 0.238250 0.230804
0.263135 0.257765 0.249710
0.283456 0.277672 0.268994
0.304163 0.297955 0.288644
0.325241 0.318603 0.308647
0.346680 0.339605 0.328992
0.368468 0.360948 0.349669
0.099913 0.097874 0.094815
0.115879 0.113515 0.109967
0.132439 0.129736 0.125682
0.149554 0.146501 0.141923
0.167193 0.163781 0.158662
0.185328 0.181546 0.175873
0.203937 0.199775 0.193532
0.222996 0.218445 0.211619
0.242488 0.237539 0.230116
0.262395 0.257040 0.249008
0.282702 0.276932 0.268278
0.303394 0.297202 0.287915
0.324459 0.317837 0.307905
0.345885 0.338826 0.328238
0.367660 0.360157 0.348902
0.389776 0.381821 0.369889
0.412221 0.403809 0.391190
0.131819 0.129129 0.125094
0.148914 0.145875 0.141317
0.166535 0.163136 0.158038
0.184653 0.180884 0.175232
0.203244 0.199096 0.192874
0.222287 0.217751 0.210946
0.241764 0.236830 0.229429
0.261656 0.256316 0.248306
0.281948 0.276194 0.267563
0.302626 0.296450 0.287186
0.323678 0.317072 0.307163
0.345090 0.338048 0.327484
0.366853 0.359366 0.348136
0.388956 0.381018 0.369111
0.411390 0.402994 0.390400
0.434145 0.425285 0.411995
0.457214 0.447883 0.433887
0.165878 0.162492 0.157414
0.183978 0.180223 0.174591
0.202552 0.198418 0.192218
0.221579 0.217057 0.210274
0.241040 0.236120 0.228742
0.260917 0.255592 0.247605
0.281194 0.275456 0.266848
0.301859 0.295698 0.286458
0.322897 0.316307 0.306422
0.344296 0.337270 0.326730
0.366046 0.358576 0.347371
0.388137 0.380216 0.368334
0.410559 0.402180 0.389612
0.433302 0.424460 0.411195
0.456360 0.447047 0.433076
0.479724 0.469933 0.455248
0.503386 0.493113 0.477703
0.201860 0.197741 0.191561
0.220871 0.216364 0.209602
0.240316 0.235412 0.228055
0.260178 0.254868 0.246904
0.280441 0.274718 0.266133
0.301092 0.294947 0.285730
0.322116 0.315542 0.305682
0.343503 0.336492 0.325977
0.365240 0.357786 0.346605
0.387318 0.379414 0.367557
0.409728 0.401366 0.388824
0.432460 0.423634 0.410396
0.455506 0.446210 0.432266
0.478859 0.469086 0.454427
0.502511 0.492255 0.476872
0.526455 0.515711 0.499595
0.550684 0.539446 0.522588
0.239593 0.234704 0.227369
0.259440 0.254146 0.246204
0.279689 0.273981 0.265419
0.300325 0.294196 0.285003
0.321336 0.314778 0.304942
0.342710 0.335716 0.325224
0.364434 0.356997 0.345841
0.386500 0.378613 0.366781
0.408898 0.400553 0.388036
0.431618 0.422810 0.409597
0.454653 0.445374 0.431456
0.477994 0.468239 0.453607
0.501635 0.491398 0.476042
0.525569 0.514843 0.498754
0.549788 0.538568 0.521737
0.574287 0.562567 0.544987
0.599060 0.586835 0.568496
0.278937 0.273245 0.264706
0.299560 0.293446 0.284276
0.320557 0.314015 0.304202
0.341917 0.334939 0.324472
0.363629 0.356208 0.345077
0.385683 0.377812 0.366005
0.408068 0.399740 0.387248
0.430777 0.421985 0.408798
0.453800 0.444539 0.430647
0.477130 0.467393 0.452787
0.500760 0.490541 0.475211
0.524683 0.513975 0.497913
0.548892 0.537690 0.520887
0.573381 0.561679 0.544127
0.598144 0.585937 0.567627
0.623176 0.610458 0.591381
0.648472 0.635237 0.615386
0.319778 0.313252 0.303463
0.341125 0.334163 0.323721
0.362824 0.355420 0.344313
0.384865 0.377011 0.365229
0.407239 0.398928 0.386461
0.429936 0.421161 0.408000
0.452948 0.443704 0.429838
0.476267 0.466547 0.451967
0.499886 0.489684 0.474381
0.523798 0.513108 0.497073
0.547996 0.536813 0.520037
0.572475 0.560792 0.543267
0.597228 0.585040 0.566757
0.622250 0.609551 0.590503
0.647536 0.634321 0.614499
0.673081 0.659344 0.638740
0.698879 0.684616 0.663222
0.362020 0.354632 0.343549
0.384048 0.376211 0.364454
0.406410 0.398116 0.385675
0.429095 0.420338 0.407202
0.452095 0.442869 0.429029
0.475403 0.465701 0.451148
0.499012 0.488828 0.473552
0.522913 0.512241 0.496234
0.547101 0.535936 0.519188
0.571570 0.559905 0.542408
0.596313 0.584143 0.565889
0.621325 0.608645 0.589625
0.646601 0.633406 0.613612
0.672137 0.658419 0.637844
0.697926 0.683682 0.662317
0.723964 0.709189 0.687027
0.750248 0.734937 0.711970
0.405581 0.397304 0.384889
0.428255 0.419515 0.406405
0.451244 0.442035 0.428221
0.474541 0.464856 0.450329
0.498138 0.487972 0.472723
0.522028 0.511375 0.495394
0.546206 0.535059 0.518338
0.570664 0.559018 0.541549
0.595398 0.583247 0.565020
0.620400 0.607739 0.588747
0.645667 0.632490 0.612725
0.671193 0.657495 0.636948
0.696972 0.682749 0.661413
0.723002 0.708247 0.686114
0.749277 0.733985 0.711048
0.775793 0.759960 0.736211
0.802546 0.786167 0.761599
0.450393 0.441201 0.427413
0.473678 0.464011 0.449511
0.497264 0.487116 0.471894
0.521144 0.510509 0.494555
0.545312 0.534183 0.517490
0.569760 0.558132 0.540690
0.594483 0.582351 0.564152
0.619476 0.606833 0.587870
0.644733 0.631575 0.611838
0.670249 0.656570 0.636053
0.696020 0.681815 0.660508
0.722040 0.707304 0.685201
0.748306 0.733034 0.710127
0.774813 0.759000 0.735282
0.801557 0.785199 0.760661
0.828535 0.811626 0.786263
0.855742 0.838278 0.812082
0.496391 0.486261 0.471065
0.520261 0.509643 0.493717
0.544418 0.533307 0.516641
0.568855 0.557246 0.539832
0.593569 0.581455 0.563285
0.618552 0.605928 0.586993
0.643799 0.630660 0.610952
0.669306 0.655646 0.635157
0.695067 0.680882 0.659604
0.721078 0.706362 0.684289
0.747335 0.732083 0.709206
0.773833 0.758041 0.734352
0.800569 0.784231 0.759724
0.827538 0.810650 0.785317
0.854737 0.837294 0.811128
0.882163 0.864159 0.837154
0.909811 0.891243 0.863392
0.543524 0.532431 0.515793
0.567951 0.556361 0.538974
0.592655 0.580560 0.562417
0.617628 0.605023 0.586116
0.642866 0.629746 0.610066
0.668363 0.654723 0.634263
0.694115 0.679949 0.658701
0.720117 0.705421 0.683376
0.746365 0.731133 0.708285
0.772854 0.757082 0.733423
0.799581 0.783263 0.758786
0.826542 0.809674 0.784372
0.853733 0.836310 0.810175
0.881150 0.863167 0.836193
0.908790 0.890243 0.862423
0.936650 0.917534 0.888861
0.964726 0.945038 0.915505
0.591741 0.579665 0.561550
0.616704 0.604119 0.585240
0.641932 0.628832 0.609181
0.667420 0.653799 0.633368
0.693163 0.679017 0.657798
0.719156 0.704479 0.682464
0.745395 0.730183 0.707365
0.771876 0.756123 0.732494
0.798594 0.782296 0.757849
0.825546 0.808698 0.783426
0.852728 0.835326 0.809222
0.880137 0.862175 0.835232
0.907769 0.889243 0.861454
0.935621 0.916526 0.887885
0.963689 0.944022 0.914521
0.991971 0.971727 0.941360
1.000000 0.999638 0.968399
0.006543 0.006410 0.006209
0.015279 0.014967 0.014500
0.025619 0.025096 0.024312
0.037196 0.036437 0.035298
0.049801 0.048784 0.047260
0.063298 0.062007 0.060069
0.077590 0.076007 0.073632
0.092602 0.090712 0.087877
0.108274 0.106064 0.102750
0.124558 0.122016 0.118203
0.141416 0.138529 0.134200
0.158811 0.155570 0.150708
0.176716 0.173109 0.167700
0.195104 0.191122 0.185150
0.213953 0.209587 0.203037
0.233244 0.228484 0.221343
0.252957 0.247794 0.240051
0.025215 0.024701 0.023929
