luts/vibrant_pop.cube
TITLE "Vibrant Pop"
LUT_3D_SIZE 9
DOMAIN_MIN 0.0 0.0 0.0
DOMAIN_MAX 1.0 1.0 1.0
0.000000 0.000000 0.000000
0.138896 0.000000 0.000000
0.277777 0.000000 0.000000
0.416629 0.000000 0.000000
0.555438 0.000000 0.000000
0.694191 0.000000 0.000000
0.832872 0.000000 0.000000
0.971470 0.000000 0.000000
1.000000 0.000000 0.000000
0.000000 0.136202 0.000000
0.134991 0.134991 0.000000
0.273719 0.133719 0.000000
0.412372 0.132372 0.000000
0.550936 0.130936 0.000000
0.689400 0.129400 0.000000
0.827752 0.127752 0.000000
0.965981 0.125981 0.000000
1.000000 0.124077 0.000000
0.000000 0.271860 0.000000
0.130389 0.270389 0.000000
0.268813 0.268813 0.000000
0.407122 0.267122 0.000000
0.545304 0.265304 0.000000
0.683350 0.263350 0.000000
0.821251 0.261251 0.000000
0.959000 0.259000 0.000000
1.000000 0.256591 0.000000
0.000000 0.406475 0.000000
0.124609 0.404609 0.000000
0.262603 0.402603 0.000000
0.400450 0.400450 0.000000
0.538142 0.398142 0.000000
0.675673 0.395673 0.000000
0.813039 0.393039 0.000000
0.950235 0.390235 0.000000
1.000000 0.387259 0.000000
0.000000 0.539628 0.000000
0.117262 0.537262 0.000000
0.254734 0.534734 0.000000
0.392038 0.532038 0.000000
0.529171 0.529171 0.000000
0.666132 0.526132 0.000000
0.802918 0.522918 0.000000
0.939531 0.519531 0.000000
1.000000 0.515970 0.000000
0.000000 0.671014 0.000000
0.108085 0.668085 0.000000
0.244982 0.664982 0.000000
0.381705 0.661705 0.000000
0.518254 0.658254 0.000000
0.654632 0.654632 0.000000
0.790841 0.650841 0.000000
0.926885 0.646885 0.000000
1.000000 0.642771 0.000000
0.000000 0.800469 0.000000
0.096955 0.796955 0.000000
0.233271 0.793271 0.000000
0.369420 0.789420 0.000000
0.505406 0.785406 0.000000
0.641234 0.781234 0.000000
0.776913 0.776913 0.000000
0.912450 0.772450 0.000000
1.000000 0.767853 0.000000
0.000000 0.927977 0.000000
0.083905 0.923905 0.000000
0.219678 0.919678 0.000000
0.355304 0.915304 0.000000
0.490791 0.910791 0.000000
0.626148 0.906148 0.000000
0.761386 0.901386 0.000000
0.896514 0.896514 0.000000
1.000000 0.891546 0.000000
0.000000 1.000000 0.000000
0.069116 1.000000 0.000000
0.204428 1.000000 0.000000
0.339624 1.000000 0.000000
0.474716 1.000000 0.000000
0.609715 1.000000 0.000000
0.744634 1.000000 0.000000
0.879487 1.000000 0.000000
1.000000 1.000000 0.000000
0.000000 0.000000 0.139626
0.138518 0.000000 0.138518
0.277391 0.000000 0.137391
0.416230 0.000000 0.136230
0.555022 0.000000 0.135022
0.693751 0.000000 0.133751
0.832406 0.000000 0.132406
0.970972 0.000000 0.130972
1.000000 0.000000 0.129439
0.000000 0.135797 0.135797
0.134567 0.134567 0.134567
0.273271 0.133271 0.133271
0.411895 0.131895 0.131895
0.550426 0.130426 0.130426
0.688853 0.128853 0.128853
0.827165 0.127165 0.127165
0.965350 0.125350 0.125350
1.000000 0.123399 0.123399
0.000000 0.271371 0.131371
0.129866 0.269866 0.129866
0.268252 0.268252 0.128252
0.406519 0.266519 0.126519
0.544656 0.264656 0.124656
0.682654 0.262654 0.122654
0.820504 0.260504 0.120504
0.958200 0.258200 0.118200
1.000000 0.255736 0.115736
0.000000 0.405856 0.125856
0.123943 0.403943 0.123943
0.261889 0.401889 0.121889
0.399684 0.399684 0.119684
0.537322 0.397322 0.117322
0.674798 0.394798 0.114798
0.812106 0.392106 0.112106
0.949244 0.389244 0.109244
1.000000 0.386208 0.106208
0.000000 0.538842 0.118842
0.116422 0.536422 0.116422
0.253837 0.533837 0.113837
0.391084 0.531084 0.111084
0.528159 0.528159 0.108159
0.665060 0.525060 0.105060
0.801787 0.521787 0.101787
0.938341 0.518341 0.098341
1.000000 0.514723 0.094723
0.000000 0.670039 0.110039
0.107051 0.667051 0.107051
0.243889 0.663889 0.103889
0.380552 0.660552 0.100552
0.517043 0.657043 0.097043
0.653363 0.653363 0.093363
0.789516 0.649516 0.089516
0.925506 0.645506 0.085506
1.000000 0.641338 0.081338
0.000000 0.799295 0.099295
0.095723 0.795723 0.095723
0.231982 0.791982 0.091982
0.368074 0.788074 0.088074
0.504006 0.784006 0.084006
0.639783 0.779783 0.079783
0.775413 0.775413 0.075413
0.910903 0.770903 0.070903
1.000000 0.766263 0.066263
0.000000 0.926612 0.086612
0.082486 0.922486 0.082486
0.218209 0.918209 0.078209
0.353787 0.913787 0.073787
0.489229 0.909229 0.069229
0.624544 0.904544 0.064544
0.759743 0.899743 0.059743
0.894837 0.894837 0.054837
1.000000 0.889839 0.049839
0.000000 1.000000 0.072143
0.067537 1.000000 0.067537
0.202809 1.000000 0.062809
0.337969 1.000000 0.057969
0.473028 1.000000 0.053028
0.607998 1.000000 0.047998
0.742893 1.000000 0.042893
0.877726 1.000000 0.037726
1.000000 1.000000 0.032510
0.000000 0.000000 0.279251
0.138138 0.000000 0.278138
0.277002 0.000000 0.277002
0.415826 0.000000 0.275826
0.554598 0.000000 0.274598
0.693303 0.000000 0.273303
0.831929 0.000000 0.271929
0.970463 0.000000 0.270463
1.000000 0.000000 0.268893
0.000000 0.135386 0.275386
0.134135 0.134135 0.274135
0.272813 0.132813 0.272813
0.411407 0.131407 0.271407
0.549904 0.129904 0.269904
0.688293 0.128293 0.268293
0.826563 0.126563 0.266563
0.964703 0.124703 0.264703
1.000000 0.122704 0.262704
0.000000 0.270872 0.270872
0.129331 0.269331 0.269331
0.267678 0.267678 0.267678
0.405901 0.265901 0.265901
0.543992 0.263992 0.263992
0.681941 0.261941 0.261941
0.819739 0.259739 0.259739
0.957382 0.257382 0.257382
1.000000 0.254861 0.254861
0.000000 0.405222 0.265222
0.123262 0.403262 0.263262
0.261157 0.401157 0.261157
0.398899 0.398899 0.258899
0.536483 0.396483 0.256483
0.673902 0.393902 0.253902
0.811153 0.391153 0.251153
0.948232 0.388232 0.248232
1.000000 0.385138 0.245138
0.000000 0.538038 0.258038
0.115563 0.535563 0.255563
0.252921 0.532921 0.252921
0.390110 0.530110 0.250110
0.527126 0.527126 0.247126
0.663968 0.523968 0.243968
0.800636 0.520636 0.240636
0.937131 0.517131 0.237131
1.000000 0.513455 0.233455
0.000000 0.669043 0.249043
0.105996 0.665996 0.245996
0.242775 0.662775 0.242775
0.379380 0.659380 0.239380
0.515813 0.655813 0.235813
0.652075 0.652075 0.232075
0.788172 0.648172 0.228172
0.924108 0.644108 0.224108
1.000000 0.639889 0.219889
0.000000 0.798101 0.238101
0.094471 0.794471 0.234471
0.230673 0.790673 0.230673
0.366711 0.786711 0.226711
0.502589 0.782589 0.222589
0.638315 0.778315 0.218315
0.773897 0.773897 0.213897
0.909342 0.769342 0.209342
1.000000 0.764660 0.204660
0.000000 0.925228 0.225228
0.081051 0.921051 0.221051
0.216723 0.916723 0.216723
0.352254 0.912254 0.212254
0.487651 0.907651 0.207651
0.622926 0.902926 0.202926
0.758088 0.898088 0.198088
0.893149 0.893149 0.193149
1.000000 0.888122 0.188122
0.000000 1.000000 0.210593
0.065945 1.000000 0.205945
0.201177 1.000000 0.201177
0.336301 1.000000 0.196301
0.471329 1.000000 0.191329
0.606272 1.000000 0.186272
0.741145 1.000000 0.181145
0.875959 1.000000 0.175959
1.000000 1.000000 0.170730
0.000000 0.000000 0.418875
0.137756 0.000000 0.417756
0.276607 0.000000 0.416607
0.415416 0.000000 0.415416
0.554166 0.000000 0.414166
0.692846 0.000000 0.412846
0.831443 0.000000 0.411443
0.969942 0.000000 0.409942
1.000000 0.000000 0.408334
0.000000 0.134968 0.414968
0.133695 0.133695 0.413695
0.272346 0.132346 0.412346
0.410908 0.130908 0.410908
0.549370 0.129370 0.409370
0.687720 0.127720 0.407720
0.825946 0.125946 0.405946
0.964040 0.124040 0.404040
1.000000 0.121992 0.401992
0.000000 0.270360 0.410360
0.128783 0.268783 0.408783
0.267089 0.267089 0.407089
0.405268 0.265268 0.405268
0.543312 0.263312 0.403312
0.681210 0.261210 0.401210
0.818957 0.258957 0.398957
0.956544 0.256544 0.396544
1.000000 0.253968 0.393968
0.000000 0.404572 0.404572
0.122564 0.402564 0.402564
0.260408 0.400408 0.400408
0.398097 0.398097 0.398097
0.535625 0.395625 0.395625
0.672988 0.392988 0.392988
0.810181 0.390181 0.390181
0.947201 0.387201 0.387201
1.000000 0.384047 0.384047
0.000000 0.537216 0.397216
0.114685 0.534685 0.394685
0.251986 0.531986 0.391986
0.389116 0.529116 0.389116
0.526073 0.526073 0.386073
0.662856 0.522856 0.382856
0.799465 0.519465 0.379465
0.935902 0.515902 0.375902
1.000000 0.512169 0.372169
0.000000 0.668028 0.388028
0.104922 0.664922 0.384922
0.241642 0.661642 0.381642
0.378188 0.658188 0.378188
0.514562 0.654562 0.374562
0.650768 0.650768 0.370768
0.786810 0.646810 0.366810
0.922692 0.642692 0.362692
1.000000 0.638422 0.358422
0.000000 0.796888 0.376888
0.093200 0.793200 0.373200
0.229346 0.789346 0.369346
0.365329 0.785329 0.365329
0.501155 0.781155 0.361155
0.636831 0.776831 0.356831
0.772365 0.772365 0.352365
0.907765 0.767765 0.347765
1.000000 0.763043 0.343043
0.000000 0.923827 0.363827
0.079597 0.919597 0.359597
0.215221 0.915221 0.355221
0.350705 0.910705 0.350705
0.486060 0.906060 0.346060
0.621295 0.901295 0.341295
0.756422 0.896422 0.336422
0.891451 0.891451 0.331451
1.000000 0.886397 0.326397
0.000000 1.000000 0.349028
0.064338 1.000000 0.344338
0.199533 1.000000 0.339533
0.334623 1.000000 0.334623
0.469620 1.000000 0.329620
0.604538 1.000000 0.324538
0.739389 1.000000 0.319389
0.874188 1.000000 0.314188
1.000000 1.000000 0.308947
0.000000 0.000000 0.558497
0.137370 0.000000 0.557370
0.276208 0.000000 0.556208
0.414998 0.000000 0.554998
0.553727 0.000000 0.553727
0.692380 0.000000 0.552380
0.830944 0.000000 0.550944
0.969409 0.000000 0.549409
1.000000 0.000000 0.547761
0.000000 0.134543 0.554543
0.133246 0.133246 0.553246
0.271868 0.131868 0.551868
0.410398 0.130398 0.550398
0.548823 0.128823 0.548823
0.687132 0.127132 0.547132
0.825314 0.125314 0.545314
0.963361 0.123361 0.543361
1.000000 0.121263 0.541263
0.000000 0.269837 0.549837
0.128221 0.268221 0.548221
0.266485 0.266485 0.546485
0.404619 0.264619 0.544619
0.542615 0.262615 0.542615
0.680462 0.260462 0.540462
0.818155 0.258155 0.538155
0.955688 0.255688 0.535688
1.000000 0.253054 0.533054
0.000000 0.403906 0.543906
0.121848 0.401848 0.541848
0.259641 0.399641 0.539641
0.397276 0.397276 0.537276
0.534748 0.394748 0.534748
0.672054 0.392054 0.532054
0.809188 0.389188 0.529188
0.946149 0.386149 0.526149
1.000000 0.382937 0.522937
0.000000 0.536375 0.536375
0.113787 0.533787 0.533787
0.251030 0.531030 0.531030
0.388102 0.528102 0.528102
0.525000 0.525000 0.525000
0.661724 0.521724 0.521724
0.798274 0.518274 0.518274
0.934653 0.514653 0.514653
1.000000 0.510863 0.510863
0.000000 0.666993 0.526993
0.103827 0.663827 0.523827
0.240488 0.660488 0.520488
0.376976 0.656976 0.516976
0.513292 0.653292 0.513292
0.649442 0.649442 0.509442
0.785429 0.645429 0.505429
0.921258 0.641258 0.501258
1.000000 0.636938 0.496938
0.000000 0.795654 0.515654
0.091910 0.791910 0.511910
0.227999 0.787999 0.507999
0.363928 0.783928 0.503928
0.499703 0.779703 0.499703
0.635329 0.775329 0.495329
0.770817 0.770817 0.490817
0.906175 0.766175 0.486175
1.000000 0.761413 0.481413
0.000000 0.922407 0.502407
0.078127 0.918127 0.498127
0.213702 0.913702 0.493702
0.349142 0.909142 0.489142
0.484455 0.904455 0.484455
0.619652 0.899652 0.479652
0.754744 0.894744 0.474744
0.889744 0.889744 0.469744
1.000000 0.884663 0.464663
0.000000 1.000000 0.487449
0.062719 1.000000 0.482719
0.197876 1.000000 0.477876
0.332934 1.000000 0.472934
0.467903 1.000000 0.467903
0.602796 1.000000 0.462796
0.737628 1.000000 0.457628
0.872412 1.000000 0.452412
1.000000 1.000000 0.447161
0.000000 0.000000 0.698117
0.136980 0.000000 0.696980
0.275803 0.000000 0.695803
0.414574 0.000000 0.694574
0.553278 0.000000 0.693278
0.691903 0.000000 0.691903
0.830435 0.000000 0.690435
0.968862 0.000000 0.688862
1.000000 0.000000 0.687174
0.000000 0.134111 0.694111
0.132787 0.132787 0.692787
0.271380 0.131380 0.691380
0.409875 0.129875 0.689875
0.548262 0.128262 0.688262
0.686529 0.126529 0.686529
0.824667 0.124667 0.684667
0.962665 0.122665 0.682665
1.000000 0.120517 0.680517
0.000000 0.269301 0.689301
0.127645 0.267645 0.687645
0.265867 0.265867 0.685867
0.403955 0.263955 0.683955
0.541901 0.261901 0.681901
0.679697 0.259697 0.679697
0.817336 0.257336 0.677336
0.954812 0.254812 0.674812
1.000000 0.252122 0.672122
0.000000 0.403224 0.683224
0.121116 0.401116 0.681116
0.258856 0.398856 0.678856
0.396436 0.396436 0.676436
0.533852 0.393852 0.673852
0.671100 0.391100 0.671100
0.808176 0.388176 0.668176
0.945078 0.385078 0.665078
1.000000 0.381806 0.661806
0.000000 0.535515 0.675515
0.112870 0.532870 0.672870
0.250055 0.530055 0.670055
0.387068 0.527068 0.667068
0.523907 0.523907 0.663907
0.660572 0.520572 0.660572
0.797064 0.517064 0.657064
0.933385 0.513385 0.653385
1.000000 0.509538 0.649538
0.000000 0.665937 0.665937
0.102713 0.662713 0.662713
0.239315 0.659315 0.659315
0.375744 0.655744 0.655744
0.512003 0.652003 0.652003
0.648097 0.648097 0.648097
0.784030 0.644030 0.644030
0.919808 0.639808 0.639808
1.000000 0.635438 0.635438
0.000000 0.794402 0.654402
0.090600 0.790600 0.650600
0.226635 0.786635 0.646635
0.362510 0.782510 0.642510
0.498234 0.778234 0.638234
0.633812 0.773812 0.633812
0.769255 0.769255 0.629255
0.904571 0.764571 0.624571
1.000000 0.759770 0.619770
0.000000 0.920970 0.640970
0.076640 0.916640 0.636640
0.212168 0.912168 0.632168
0.347564 0.907564 0.627564
0.482836 0.902836 0.622836
0.617996 0.897996 0.617996
0.753056 0.893056 0.613056
0.888027 0.888027 0.608027
1.000000 0.882922 0.602922
0.000000 1.000000 0.625856
0.061086 1.000000 0.621086
0.196209 1.000000 0.616209
0.331234 1.000000 0.611234
0.466176 1.000000 0.606176
0.601048 1.000000 0.601048
0.735861 1.000000 0.595861
0.870632 1.000000 0.590632
1.000000 1.000000 0.585373
0.000000 0.000000 0.837734
0.136585 0.000000 0.836585
0.275393 0.000000 0.835393
0.414142 0.000000 0.834142
0.552821 0.000000 0.832821
0.691415 0.000000 0.831415
0.829913 0.000000 0.829913
0.968303 0.000000 0.828303
1.000000 0.000000 0.826573
0.000000 0.133670 0.833670
0.132319 0.132319 0.832319
0.270880 0.130880 0.830880
0.409340 0.129340 0.829340
0.547687 0.127687 0.827687
0.685912 0.125912 0.825912
0.824003 0.124003 0.824003
0.961953 0.121953 0.821953
1.000000 0.119752 0.819752
0.000000 0.268752 0.828752
0.127056 0.267056 0.827056
0.265233 0.265233 0.825233
0.403273 0.263273 0.823273
0.541169 0.261169 0.821169
0.678913 0.258913 0.818913
0.816497 0.256497 0.816497
0.953917 0.253917 0.813917
1.000000 0.251169 0.811169
0.000000 0.402525 0.822525
0.120366 0.400366 0.820366
0.258052 0.398052 0.818052
0.395577 0.395577 0.815577
0.532937 0.392937 0.812937
0.670126 0.390126 0.810126
0.807143 0.387143 0.807143
0.943986 0.383986 0.803986
1.000000 0.380655 0.800655
0.000000 0.534635 0.814635
0.111933 0.531933 0.811933
0.249060 0.529060 0.809060
0.386014 0.526014 0.806014
0.522794 0.522794 0.802794
0.659400 0.519400 0.799400
0.795833 0.515833 0.795833
0.932097 0.512097 0.792097
1.000000 0.508194 0.788194
0.000000 0.664862 0.804862
0.101578 0.661578 0.801578
0.238121 0.658121 0.798121
0.374492 0.654492 0.794492
0.510695 0.650695 0.790695
0.646733 0.646733 0.786733
0.782613 0.642613 0.782613
0.918340 0.638340 0.778340
1.000000 0.633922 0.773922
0.000000 0.793129 0.793129
0.089272 0.789272 0.789272
0.225251 0.785251 0.785251
0.361075 0.781075 0.781075
0.496748 0.776748 0.776748
0.632279 0.772279 0.772279
0.767678 0.767678 0.767678
0.902953 0.762953 0.762953
1.000000 0.758116 0.758116
0.000000 0.919516 0.779516
0.075137 0.915137 0.775137
0.210619 0.910619 0.770619
0.345971 0.905971 0.765971
0.481204 0.901204 0.761204
0.616329 0.896329 0.756329
0.751357 0.891357 0.751357
0.886301 0.886301 0.746301
1.000000 0.881174 0.741174
0.000000 1.000000 0.764249
0.059441 1.000000 0.759441
0.194529 1.000000 0.754529
0.329525 1.000000 0.749525
0.464442 1.000000 0.744442
0.599292 1.000000 0.739292
0.734090 1.000000 0.734090
0.868848 1.000000 0.728848
1.000000 1.000000 0.723583
0.000000 0.000000 0.977348
0.136186 0.000000 0.976186
0.274975 0.000000 0.974975
0.413702 0.000000 0.973702
0.552354 0.000000 0.972354
0.690917 0.000000 0.970917
0.829379 0.000000 0.969379
0.967729 0.000000 0.967729
1.000000 0.000000 0.965957
0.000000 0.133221 0.973221
0.131841 0.131841 0.971841
0.270369 0.130369 0.970369
0.408792 0.128792 0.968792
0.547099 0.127099 0.967099
0.685279 0.125279 0.965279
0.823323 0.123323 0.963323
0.961222 0.121222 0.961222
1.000000 0.118970 0.958970
0.000000 0.268189 0.968189
0.126451 0.266451 0.966451
0.264583 0.264583 0.964583
0.402575 0.262575 0.962575
0.540420 0.260420 0.960420
0.678110 0.258110 0.958110
0.815640 0.255640 0.955640
0.953003 0.253003 0.953003
1.000000 0.250197 0.950197
0.000000 0.401808 0.961808
0.119598 0.399598 0.959598
0.257230 0.397230 0.957230
0.394699 0.394699 0.954699
0.532001 0.392001 0.952001
0.669132 0.389132 0.949132
0.806091 0.386091 0.946091
0.942875 0.382875 0.942875
1.000000 0.379485 0.939485
0.000000 0.533737 0.953737
0.110977 0.530977 0.950977
0.248045 0.528045 0.948045
0.384940 0.524940 0.944940
0.521661 0.521661 0.941661
0.658208 0.518208 0.938208
0.794583 0.514583 0.934583
0.930790 0.510790 0.930790
1.000000 0.506832 0.926832
0.000000 0.663766 0.943766
0.100424 0.660424 0.940424
0.236908 0.656908 0.936908
0.373222 0.653222 0.933222
0.509368 0.649368 0.929368
0.645352 0.645352 0.925352
0.781179 0.641179 0.921179
0.916855 0.636855 0.916855
1.000000 0.632390 0.912390
0.000000 0.791838 0.931838
0.087924 0.787924 0.927924
0.223850 0.783850 0.923850
0.359622 0.779622 0.919622
0.495246 0.775246 0.915246
0.630731 0.770731 0.910731
0.766086 0.766086 0.906086
0.901322 0.761322 0.901322
1.000000 0.756449 0.896449
0.000000 0.918045 0.918045
0.073618 0.913618 0.913618
0.209055 0.909055 0.909055
0.344365 0.904365 0.904365
0.479560 0.899560 0.899560
0.614651 0.894651 0.894651
0.749649 0.889649 0.889649
0.884567 0.884567 0.884567
1.000000 0.879419 0.879419
0.000000 1.000000 0.902629
0.057784 1.000000 0.897784
0.192840 1.000000 0.892840
0.327807 1.000000 0.887807
0.462700 1.000000 0.882700
0.597530 1.000000 0.877530
0.732313 1.000000 0.872313
0.867062 1.000000 0.867062
1.000000 1.000000 0.861792
0.000000 0.000000 1.000000
0.135781 0.000000 1.000000
0.274550 0.000000 1.000000
0.413253 0.000000 1.000000
0.551876 0.000000 1.000000
0.690406 0.000000 1.000000
0.828832 0.000000 1.000000
0.967142 0.000000 1.000000
1.000000 0.000000 1.000000
0.000000 0.132762 1.000000
0.131352 0.131352 1.000000
0.269846 0.129846 1.000000
0.408230 0.128230 1.000000
0.546495 0.126495 1.000000
0.684630 0.124630 1.000000
0.822626 0.122626 1.000000
0.960475 0.120475 1.000000
1.000000 0.118169 1.000000
0.000000 0.267613 1.000000
0.125832 0.265832 1.000000
0.263917 0.263917 1.000000
0.401860 0.261860 1.000000
0.539654 0.259654 1.000000
0.677290 0.257290 1.000000
0.814763 0.254763 1.000000
0.952069 0.252069 1.000000
1.000000 0.249205 1.000000
0.000000 0.401075 1.000000
0.118811 0.398811 1.000000
0.256389 0.396389 1.000000
0.393802 0.393802 1.000000
0.531046 0.391046 1.000000
0.668119 0.388119 1.000000
0.805018 0.385018 1.000000
0.941743 0.381743 1.000000
1.000000 0.378294 1.000000
0.000000 0.532818 1.000000
0.110001 0.530001 1.000000
0.247010 0.527010 1.000000
0.383846 0.523846 1.000000
0.520507 0.520507 1.000000
0.656996 0.516996 1.000000
0.793314 0.513314 1.000000
0.929464 0.509464 1.000000
1.000000 0.505452 1.000000
0.000000 0.662651 1.000000
0.099249 0.659249 1.000000
0.235675 0.655675 1.000000
0.371931 0.651931 1.000000
0.508022 0.648022 1.000000
0.643952 0.643952 1.000000
0.779727 0.639727 1.000000
0.915355 0.635355 1.000000
1.000000 0.630843 1.000000
0.000000 0.790527 1.000000
0.086558 0.786558 1.000000
0.222431 0.782431 1.000000
0.358152 0.778152 1.000000
0.493728 0.773728 1.000000
0.629168 0.769168 1.000000
0.764481 0.764481 1.000000
0.899679 0.759679 1.000000
1.000000 0.754772 1.000000
0.000000 0.916557 1.000000
0.072083 0.912083 1.000000
0.207476 0.907476 1.000000
0.342746 0.902746 1.000000
0.477904 0.897904 1.000000
0.612962 0.892962 1.000000
0.747931 0.887931 1.000000
0.882825 0.882825 1.000000
1.000000 0.877658 1.000000
0.000000 1.000000 1.000000
0.056116 1.000000 1.000000
0.191140 1.000000 1.000000
0.326081 1.000000 1.000000
0.460950 1.000000 1.000000
0.595763 1.000000 1.000000
0.730533 1.000000 1.000000
0.865274 1.000000 1.000000
1.000000 1.000000 1.000000
