luts/vibrant_pop.cube
TITLE "Vibrant Pop"
LUT_3D_SIZE 33
DOMAIN_MIN 0.0 0.0 0.0
DOMAIN_MAX 1.0 1.0 1.0
0.000000 0.000000 0.000000
0.034725 0.000000 0.000000
0.069449 0.000000 0.000000
0.104173 0.000000 0.000000
0.138896 0.000000 0.000000
0.173618 0.000000 0.000000
0.208339 0.000000 0.000000
0.243059 0.000000 0.000000
0.277777 0.000000 0.000000
0.312493 0.000000 0.000000
0.347208 0.000000 0.000000
0.381920 0.000000 0.000000
0.416629 0.000000 0.000000
0.451336 0.000000 0.000000
0.486040 0.000000 0.000000
0.520741 0.000000 0.000000
0.555438 0.000000 0.000000
0.590132 0.000000 0.000000
0.624822 0.000000 0.000000
0.659509 0.000000 0.000000
0.694191 0.000000 0.000000
0.728868 0.000000 0.000000
0.763541 0.000000 0.000000
0.798209 0.000000 0.000000
0.832872 0.000000 0.000000
0.867530 0.000000 0.000000
0.902182 0.000000 0.000000
0.936829 0.000000 0.000000
0.971470 0.000000 0.000000
1.000000 0.000000 0.000000
1.000000 0.000000 0.000000
1.000000 0.000000 0.000000
1.000000 0.000000 0.000000
0.000000 0.034072 0.000000
0.033795 0.033795 0.000000
0.068517 0.033517 0.000000
0.103237 0.033237 0.000000
0.137956 0.032956 0.000000
0.172674 0.032674 0.000000
0.207390 0.032390 0.000000
0.242103 0.032103 0.000000
0.276814 0.031814 0.000000
0.311523 0.031523 0.000000
0.346229 0.031229 0.000000
0.380932 0.030932 0.000000
0.415631 0.030631 0.000000
0.450327 0.030327 0.000000
0.485020 0.030020 0.000000
0.519709 0.029709 0.000000
0.554393 0.029393 0.000000
0.589074 0.029074 0.000000
0.623749 0.028749 0.000000
0.658421 0.028421 0.000000
0.693087 0.028087 0.000000
0.727748 0.027748 0.000000
0.762404 0.027404 0.000000
0.797054 0.027054 0.000000
0.831699 0.026699 0.000000
0.866338 0.026338 0.000000
0.900970 0.025970 0.000000
0.935597 0.025597 0.000000
0.970217 0.025217 0.000000
1.000000 0.024830 0.000000
1.000000 0.024436 0.000000
1.000000 0.024036 0.000000
1.000000 0.023628 0.000000
0.000000 0.068135 0.000000
0.032854 0.067854 0.000000
0.067571 0.067571 0.000000
0.102286 0.067286 0.000000
0.136998 0.066998 0.000000
0.171709 0.066709 0.000000
0.206416 0.066416 0.000000
0.241121 0.066121 0.000000
0.275823 0.065823 0.000000
0.310521 0.065521 0.000000
0.345216 0.065216 0.000000
0.379907 0.064907 0.000000
0.414594 0.064594 0.000000
0.449277 0.064277 0.000000
0.483956 0.063956 0.000000
0.518630 0.063630 0.000000
0.553300 0.063300 0.000000
0.587964 0.062964 0.000000
0.622623 0.062623 0.000000
0.657277 0.062277 0.000000
0.691925 0.061925 0.000000
0.726568 0.061568 0.000000
0.761205 0.061205 0.000000
0.795835 0.060835 0.000000
0.830459 0.060459 0.000000
0.865077 0.060077 0.000000
0.899688 0.059688 0.000000
0.934292 0.059292 0.000000
0.968888 0.058888 0.000000
1.000000 0.058478 0.000000
1.000000 0.058061 0.000000
1.000000 0.057635 0.000000
1.000000 0.057202 0.000000
0.000000 0.102181 0.000000
0.031893 0.101893 0.000000
0.066602 0.101602 0.000000
0.101309 0.101309 0.000000
0.136013 0.101013 0.000000
0.170713 0.100713 0.000000
0.205410 0.100410 0.000000
0.240104 0.100104 0.000000
0.274794 0.099794 0.000000
0.309479 0.099479 0.000000
0.344161 0.099161 0.000000
0.378838 0.098838 0.000000
0.413510 0.098510 0.000000
0.448178 0.098178 0.000000
0.482841 0.097841 0.000000
0.517498 0.097498 0.000000
0.552150 0.097150 0.000000
0.586796 0.096796 0.000000
0.621436 0.096436 0.000000
0.656071 0.096071 0.000000
0.690699 0.095699 0.000000
0.725321 0.095321 0.000000
0.759936 0.094936 0.000000
0.794544 0.094544 0.000000
0.829146 0.094146 0.000000
0.863740 0.093740 0.000000
0.898327 0.093327 0.000000
0.932907 0.092907 0.000000
0.967479 0.092479 0.000000
1.000000 0.092043 0.000000
1.000000 0.091599 0.000000
1.000000 0.091147 0.000000
1.000000 0.090687 0.000000
0.000000 0.136202 0.000000
0.030904 0.135904 0.000000
0.065603 0.135603 0.000000
0.100299 0.135299 0.000000
0.134991 0.134991 0.000000
0.169680 0.134680 0.000000
0.204364 0.134364 0.000000
0.239044 0.134044 0.000000
0.273719 0.133719 0.000000
0.308390 0.133390 0.000000
0.343056 0.133056 0.000000
0.377716 0.132716 0.000000
0.412372 0.132372 0.000000
0.447022 0.132022 0.000000
0.481666 0.131666 0.000000
0.516304 0.131304 0.000000
0.550936 0.130936 0.000000
0.585562 0.130562 0.000000
0.620181 0.130181 0.000000
0.654794 0.129794 0.000000
0.689400 0.129400 0.000000
0.723999 0.128999 0.000000
0.758590 0.128590 0.000000
0.793175 0.128175 0.000000
0.827752 0.127752 0.000000
0.862321 0.127321 0.000000
0.896882 0.126882 0.000000
0.931436 0.126436 0.000000
0.965981 0.125981 0.000000
1.000000 0.125518 0.000000
1.000000 0.125046 0.000000
1.000000 0.124566 0.000000
1.000000 0.124077 0.000000
0.000000 0.170188 0.000000
0.029878 0.169878 0.000000
0.064565 0.169565 0.000000
0.099248 0.169248 0.000000
0.133926 0.168926 0.000000
0.168600 0.168600 0.000000
0.203269 0.168269 0.000000
0.237933 0.167933 0.000000
0.272592 0.167592 0.000000
0.307245 0.167245 0.000000
0.341893 0.166893 0.000000
0.376535 0.166535 0.000000
0.411171 0.166171 0.000000
0.445801 0.165801 0.000000
0.480424 0.165424 0.000000
0.515041 0.165041 0.000000
0.549651 0.164651 0.000000
0.584255 0.164255 0.000000
0.618851 0.163851 0.000000
0.653440 0.163440 0.000000
0.688022 0.163022 0.000000
0.722596 0.162596 0.000000
0.757162 0.162162 0.000000
0.791721 0.161721 0.000000
0.826271 0.161271 0.000000
0.860813 0.160813 0.000000
0.895347 0.160347 0.000000
0.929872 0.159872 0.000000
0.964389 0.159389 0.000000
0.998897 0.158897 0.000000
1.000000 0.158396 0.000000
1.000000 0.157886 0.000000
1.000000 0.157367 0.000000
0.000000 0.204131 0.000000
0.028808 0.203808 0.000000
0.063480 0.203480 0.000000
0.098147 0.203147 0.000000
0.132809 0.202809 0.000000
0.167466 0.202466 0.000000
0.202117 0.202117 0.000000
0.236763 0.201763 0.000000
0.271403 0.201403 0.000000
0.306037 0.201037 0.000000
0.340664 0.200664 0.000000
0.375285 0.200285 0.000000
0.409900 0.199900 0.000000
0.444508 0.199508 0.000000
0.479109 0.199109 0.000000
0.513702 0.198702 0.000000
0.548289 0.198289 0.000000
0.582867 0.197867 0.000000
0.617439 0.197439 0.000000
0.652002 0.197002 0.000000
0.686558 0.196558 0.000000
0.721105 0.196105 0.000000
0.755644 0.195644 0.000000
0.790175 0.195175 0.000000
0.824698 0.194698 0.000000
0.859211 0.194211 0.000000
0.893716 0.193716 0.000000
0.928212 0.193212 0.000000
0.962698 0.192698 0.000000
0.997176 0.192176 0.000000
1.000000 0.191644 0.000000
1.000000 0.191103 0.000000
1.000000 0.190552 0.000000
0.000000 0.238025 0.000000
0.027685 0.237685 0.000000
0.062340 0.237340 0.000000
0.096989 0.236989 0.000000
0.131633 0.236633 0.000000
0.166270 0.236270 0.000000
0.200902 0.235902 0.000000
0.235527 0.235527 0.000000
0.270146 0.235146 0.000000
0.304758 0.234758 0.000000
0.339363 0.234363 0.000000
0.373961 0.233961 0.000000
0.408552 0.233552 0.000000
0.443136 0.233136 0.000000
0.477712 0.232712 0.000000
0.512281 0.232281 0.000000
0.546841 0.231841 0.000000
0.581394 0.231394 0.000000
0.615938 0.230938 0.000000
0.650475 0.230475 0.000000
0.685002 0.230002 0.000000
0.719521 0.229521 0.000000
0.754032 0.229032 0.000000
0.788533 0.228533 0.000000
0.823026 0.228026 0.000000
0.857509 0.227509 0.000000
0.891983 0.226983 0.000000
0.926448 0.226448 0.000000
0.960904 0.225904 0.000000
0.995349 0.225349 0.000000
1.000000 0.224785 0.000000
1.000000 0.224212 0.000000
1.000000 0.223628 0.000000
0.000000 0.271860 0.000000
0.026501 0.271501 0.000000
0.061137 0.271137 0.000000
0.095766 0.270766 0.000000
0.130389 0.270389 0.000000
0.165005 0.270005 0.000000
0.199615 0.269615 0.000000
0.234218 0.269218 0.000000
0.268813 0.268813 0.000000
0.303402 0.268402 0.000000
0.337983 0.267983 0.000000
0.372556 0.267556 0.000000
0.407122 0.267122 0.000000
0.441679 0.266679 0.000000
0.476229 0.266229 0.000000
0.510771 0.265771 0.000000
0.545304 0.265304 0.000000
0.579828 0.264828 0.000000
0.614344 0.264344 0.000000
0.648851 0.263851 0.000000
0.683350 0.263350 0.000000
0.717839 0.262839 0.000000
0.752319 0.262319 0.000000
0.786790 0.261790 0.000000
0.821251 0.261251 0.000000
0.855703 0.260703 0.000000
0.890145 0.260145 0.000000
0.924578 0.259578 0.000000
0.959000 0.259000 0.000000
0.993413 0.258413 0.000000
1.000000 0.257816 0.000000
1.000000 0.257209 0.000000
1.000000 0.256591 0.000000
0.000000 0.305630 0.000000
0.025250 0.305250 0.000000
0.059864 0.304864 0.000000
0.094471 0.304471 0.000000
0.129071 0.304071 0.000000
0.163664 0.303664 0.000000
0.198250 0.303250 0.000000
0.232828 0.302828 0.000000
0.267399 0.302399 0.000000
0.301962 0.301962 0.000000
0.336516 0.301516 0.000000
0.371063 0.301063 0.000000
0.405602 0.300602 0.000000
0.440132 0.300132 0.000000
0.474653 0.299653 0.000000
0.509166 0.299166 0.000000
0.543670 0.298670 0.000000
0.578165 0.298165 0.000000
0.612651 0.297651 0.000000
0.647127 0.297127 0.000000
0.681595 0.296595 0.000000
0.716053 0.296053 0.000000
0.750501 0.295501 0.000000
0.784940 0.294940 0.000000
0.819369 0.294369 0.000000
0.853788 0.293788 0.000000
0.888197 0.293197 0.000000
0.922596 0.292596 0.000000
0.956985 0.291985 0.000000
0.991364 0.291364 0.000000
1.000000 0.290732 0.000000
1.000000 0.290090 0.000000
1.000000 0.289438 0.000000
0.000000 0.339326 0.000000
0.023924 0.338924 0.000000
0.058514 0.338514 0.000000
0.093097 0.338097 0.000000
0.127673 0.337673 0.000000
0.162241 0.337241 0.000000
0.196800 0.336800 0.000000
0.231352 0.336352 0.000000
0.265896 0.335896 0.000000
0.300431 0.335431 0.000000
0.334958 0.334958 0.000000
0.369477 0.334477 0.000000
0.403986 0.333986 0.000000
0.438487 0.333487 0.000000
0.472979 0.332979 0.000000
0.507461 0.332461 0.000000
0.541935 0.331935 0.000000
0.576398 0.331398 0.000000
0.610853 0.330853 0.000000
0.645298 0.330298 0.000000
0.679733 0.329733 0.000000
0.714158 0.329158 0.000000
0.748574 0.328574 0.000000
0.782979 0.327979 0.000000
0.817375 0.327375 0.000000
0.851760 0.326760 0.000000
0.886135 0.326135 0.000000
0.920500 0.325500 0.000000
0.954854 0.324854 0.000000
0.989198 0.324198 0.000000
1.000000 0.323531 0.000000
1.000000 0.322854 0.000000
1.000000 0.322166 0.000000
0.000000 0.372944 0.000000
0.022516 0.372516 0.000000
0.057081 0.372081 0.000000
0.091638 0.371638 0.000000
0.126187 0.371187 0.000000
0.160728 0.370728 0.000000
0.195260 0.370260 0.000000
0.229784 0.369784 0.000000
0.264299 0.369299 0.000000
0.298806 0.368806 0.000000
0.333303 0.368303 0.000000
0.367791 0.367791 0.000000
0.402271 0.367271 0.000000
0.436740 0.366740 0.000000
0.471201 0.366201 0.000000
0.505652 0.365652 0.000000
0.540093 0.365093 0.000000
0.574525 0.364525 0.000000
0.608947 0.363947 0.000000
0.643359 0.363359 0.000000
0.677760 0.362760 0.000000
0.712152 0.362152 0.000000
0.746534 0.361534 0.000000
0.780905 0.360905 0.000000
0.815266 0.360266 0.000000
0.849616 0.359616 0.000000
0.883956 0.358956 0.000000
0.918286 0.358286 0.000000
0.952605 0.357605 0.000000
0.986913 0.356913 0.000000
1.000000 0.356210 0.000000
1.000000 0.355497 0.000000
1.000000 0.354773 0.000000
0.000000 0.406475 0.000000
0.021021 0.406021 0.000000
0.055559 0.405559 0.000000
0.090088 0.405088 0.000000
0.124609 0.404609 0.000000
0.159120 0.404120 0.000000
0.193624 0.403624 0.000000
0.228118 0.403118 0.000000
0.262603 0.402603 0.000000
0.297079 0.402079 0.000000
0.331545 0.401545 0.000000
0.366002 0.401002 0.000000
0.400450 0.400450 0.000000
0.434888 0.399888 0.000000
0.469316 0.399316 0.000000
0.503734 0.398734 0.000000
0.538142 0.398142 0.000000
0.572540 0.397540 0.000000
0.606928 0.396928 0.000000
0.641306 0.396306 0.000000
0.675673 0.395673 0.000000
0.710030 0.395030 0.000000
0.744377 0.394377 0.000000
0.778713 0.393713 0.000000
0.813039 0.393039 0.000000
0.847354 0.392354 0.000000
0.881658 0.391658 0.000000
0.915952 0.390952 0.000000
0.950235 0.390235 0.000000
0.984507 0.389507 0.000000
1.000000 0.388768 0.000000
1.000000 0.388019 0.000000
1.000000 0.387259 0.000000
0.000000 0.439914 0.000000
0.019432 0.439432 0.000000
0.053941 0.438941 0.000000
0.088440 0.438440 0.000000
0.122931 0.437931 0.000000
0.157413 0.437413 0.000000
0.191886 0.436886 0.000000
0.226349 0.436349 0.000000
0.260802 0.435802 0.000000
0.295246 0.435246 0.000000
0.329680 0.434680 0.000000
0.364105 0.434105 0.000000
0.398519 0.433519 0.000000
0.432924 0.432924 0.000000
0.467318 0.432318 0.000000
0.501703 0.431703 0.000000
0.536077 0.431077 0.000000
0.570441 0.430441 0.000000
0.604794 0.429794 0.000000
0.639137 0.429137 0.000000
0.673469 0.428469 0.000000
0.707791 0.427791 0.000000
0.742102 0.427102 0.000000
0.776402 0.426402 0.000000
0.810692 0.425692 0.000000
0.844971 0.424971 0.000000
0.879239 0.424239 0.000000
0.913497 0.423497 0.000000
0.947743 0.422743 0.000000
0.981979 0.421979 0.000000
1.000000 0.421204 0.000000
1.000000 0.420418 0.000000
1.000000 0.419621 0.000000
0.000000 0.473256 0.000000
0.017744 0.472744 0.000000
0.052222 0.472222 0.000000
0.086691 0.471691 0.000000
0.121151 0.471151 0.000000
0.155601 0.470601 0.000000
0.190041 0.470041 0.000000
0.224472 0.469472 0.000000
0.258893 0.468893 0.000000
0.293304 0.468304 0.000000
0.327705 0.467705 0.000000
0.362095 0.467095 0.000000
0.396476 0.466476 0.000000
0.430846 0.465846 0.000000
0.465206 0.465206 0.000000
0.499556 0.464556 0.000000
0.533895 0.463895 0.000000
0.568223 0.463223 0.000000
0.602541 0.462541 0.000000
0.636849 0.461849 0.000000
0.671145 0.461145 0.000000
0.705431 0.460431 0.000000
0.739706 0.459706 0.000000
0.773970 0.458970 0.000000
0.808224 0.458224 0.000000
0.842466 0.457466 0.000000
0.876698 0.456698 0.000000
0.910919 0.455919 0.000000
0.945129 0.455129 0.000000
0.979328 0.454328 0.000000
1.000000 0.453516 0.000000
1.000000 0.452693 0.000000
1.000000 0.451860 0.000000
0.000000 0.506496 0.000000
0.015952 0.505952 0.000000
0.050398 0.505398 0.000000
0.084835 0.504835 0.000000
0.119262 0.504262 0.000000
0.153680 0.503680 0.000000
0.188087 0.503087 0.000000
0.222484 0.502484 0.000000
0.256871 0.501871 0.000000
0.291248 0.501248 0.000000
0.325615 0.500615 0.000000
0.359971 0.499971 0.000000
0.394316 0.499316 0.000000
0.428652 0.498652 0.000000
0.462976 0.497976 0.000000
0.497290 0.497290 0.000000
0.531594 0.496594 0.000000
0.565886 0.495886 0.000000
0.600168 0.495168 0.000000
0.634439 0.494439 0.000000
0.668700 0.493700 0.000000
0.702949 0.492949 0.000000
0.737188 0.492188 0.000000
0.771416 0.491416 0.000000
0.805633 0.490633 0.000000
0.839839 0.489839 0.000000
0.874034 0.489034 0.000000
0.908218 0.488218 0.000000
0.942391 0.487391 0.000000
0.976554 0.486554 0.000000
1.000000 0.485705 0.000000
1.000000 0.484846 0.000000
1.000000 0.483976 0.000000
0.000000 0.539628 0.000000
0.014051 0.539051 0.000000
0.048465 0.538465 0.000000
0.082869 0.537869 0.000000
0.117262 0.537262 0.000000
0.151645 0.536645 0.000000
0.186019 0.536019 0.000000
0.220381 0.535381 0.000000
0.254734 0.534734 0.000000
0.289076 0.534076 0.000000
0.323407 0.533407 0.000000
0.357728 0.532728 0.000000
0.392038 0.532038 0.000000
0.426337 0.531337 0.000000
0.460626 0.530626 0.000000
0.494904 0.529904 0.000000
0.529171 0.529171 0.000000
0.563428 0.528428 0.000000
0.597673 0.527673 0.000000
0.631908 0.526908 0.000000
0.666132 0.526132 0.000000
0.700345 0.525345 0.000000
0.734547 0.524547 0.000000
0.768738 0.523738 0.000000
0.802918 0.522918 0.000000
0.837088 0.522088 0.000000
0.871246 0.521246 0.000000
0.905394 0.520394 0.000000
0.939531 0.519531 0.000000
0.973657 0.518657 0.000000
1.000000 0.517772 0.000000
1.000000 0.516877 0.000000
1.000000 0.515970 0.000000
0.000000 0.572649 0.000000
0.012039 0.572039 0.000000
0.046418 0.571418 0.000000
0.080788 0.570788 0.000000
0.115147 0.570147 0.000000
0.149495 0.569495 0.000000
0.183833 0.568833 0.000000
0.218161 0.568161 0.000000
0.252478 0.567478 0.000000
0.286784 0.566784 0.000000
0.321080 0.566080 0.000000
0.355365 0.565365 0.000000
0.389639 0.564639 0.000000
0.423902 0.563902 0.000000
0.458154 0.563154 0.000000
0.492396 0.562396 0.000000
0.526627 0.561627 0.000000
0.560847 0.560847 0.000000
0.595055 0.560055 0.000000
0.629254 0.559254 0.000000
0.663441 0.558441 0.000000
0.697617 0.557617 0.000000
0.731782 0.556782 0.000000
0.765937 0.555937 0.000000
0.800081 0.555081 0.000000
0.834214 0.554214 0.000000
0.868336 0.553336 0.000000
0.902447 0.552447 0.000000
0.936548 0.551548 0.000000
0.970638 0.550638 0.000000
1.000000 0.549717 0.000000
1.000000 0.548786 0.000000
1.000000 0.547845 0.000000
0.000000 0.605556 0.000000
0.009911 0.604911 0.000000
0.044256 0.604256 0.000000
0.078590 0.603590 0.000000
0.112913 0.602913 0.000000
0.147227 0.602227 0.000000
0.181529 0.601529 0.000000
0.215821 0.600821 0.000000
0.250102 0.600102 0.000000
0.284372 0.599372 0.000000
0.318631 0.598631 0.000000
0.352880 0.597880 0.000000
0.387117 0.597117 0.000000
0.421344 0.596344 0.000000
0.455560 0.595560 0.000000
0.489765 0.594765 0.000000
0.523959 0.593959 0.000000
0.558142 0.593142 0.000000
0.592314 0.592314 0.000000
0.626476 0.591476 0.000000
0.660627 0.590627 0.000000
0.694766 0.589766 0.000000
0.728895 0.588895 0.000000
0.763014 0.588014 0.000000
0.797121 0.587121 0.000000
0.831218 0.586218 0.000000
0.865304 0.585304 0.000000
0.899380 0.584380 0.000000
0.933445 0.583445 0.000000
0.967499 0.582499 0.000000
1.000000 0.581543 0.000000
1.000000 0.580577 0.000000
1.000000 0.579601 0.000000
0.000000 0.638345 0.000000
0.007665 0.637665 0.000000
0.041974 0.636974 0.000000
0.076272 0.636272 0.000000
0.110560 0.635560 0.000000
0.144837 0.634837 0.000000
0.179103 0.634103 0.000000
0.213359 0.633359 0.000000
0.247603 0.632603 0.000000
0.281837 0.631837 0.000000
0.316060 0.631060 0.000000
0.350272 0.630272 0.000000
0.384473 0.629473 0.000000
0.418663 0.628663 0.000000
0.452842 0.627842 0.000000
0.487010 0.627010 0.000000
0.521168 0.626168 0.000000
0.555315 0.625315 0.000000
0.589450 0.624450 0.000000
0.623576 0.623576 0.000000
0.657690 0.622690 0.000000
0.691793 0.621793 0.000000
0.725886 0.620886 0.000000
0.759969 0.619969 0.000000
0.794040 0.619040 0.000000
0.828102 0.618102 0.000000
0.862153 0.617153 0.000000
0.896193 0.616193 0.000000
0.930223 0.615223 0.000000
0.964243 0.614243 0.000000
0.998253 0.613253 0.000000
1.000000 0.612252 0.000000
1.000000 0.611242 0.000000
0.000000 0.671014 0.000000
0.005298 0.670298 0.000000
0.039571 0.669571 0.000000
0.073833 0.668833 0.000000
0.108085 0.668085 0.000000
0.142325 0.667325 0.000000
0.176555 0.666555 0.000000
0.210774 0.665774 0.000000
0.244982 0.664982 0.000000
0.279179 0.664179 0.000000
0.313365 0.663365 0.000000
0.347541 0.662541 0.000000
0.381705 0.661705 0.000000
0.415859 0.660859 0.000000
0.450001 0.660001 0.000000
0.484133 0.659133 0.000000
0.518254 0.658254 0.000000
0.552365 0.657365 0.000000
0.586464 0.656464 0.000000
0.620554 0.655554 0.000000
0.654632 0.654632 0.000000
0.688700 0.653700 0.000000
0.722757 0.652757 0.000000
0.756804 0.651804 0.000000
0.790841 0.650841 0.000000
0.824867 0.649867 0.000000
0.858883 0.648883 0.000000
0.892890 0.647890 0.000000
0.926885 0.646885 0.000000
0.960871 0.645871 0.000000
0.994848 0.644848 0.000000
1.000000 0.643814 0.000000
1.000000 0.642771 0.000000
0.000000 0.703562 0.000000
0.002810 0.702810 0.000000
0.037046 0.702046 0.000000
0.071272 0.701272 0.000000
0.105487 0.700487 0.000000
0.139691 0.699691 0.000000
0.173884 0.698884 0.000000
0.208066 0.698066 0.000000
0.242238 0.697238 0.000000
0.276398 0.696398 0.000000
0.310548 0.695548 0.000000
0.344686 0.694686 0.000000
0.378814 0.693814 0.000000
0.412932 0.692932 0.000000
0.447038 0.692038 0.000000
0.481134 0.691134 0.000000
0.515219 0.690219 0.000000
0.549294 0.689294 0.000000
0.583358 0.688358 0.000000
0.617412 0.687412 0.000000
0.651455 0.686455 0.000000
0.685488 0.685488 0.000000
0.719510 0.684510 0.000000
0.753523 0.683523 0.000000
0.787525 0.682525 0.000000
0.821517 0.681517 0.000000
0.855500 0.680500 0.000000
0.889472 0.679472 0.000000
0.923435 0.678435 0.000000
0.957389 0.677389 0.000000
0.991332 0.676332 0.000000
1.000000 0.675267 0.000000
1.000000 0.674192 0.000000
0.000000 0.735988 0.000000
0.000198 0.735198 0.000000
0.034398 0.734398 0.000000
0.068588 0.733588 0.000000
0.102766 0.732766 0.000000
0.136933 0.731933 0.000000
0.171090 0.731090 0.000000
0.205235 0.730235 0.000000
0.239370 0.729370 0.000000
0.273494 0.728494 0.000000
0.307608 0.727608 0.000000
0.341710 0.726710 0.000000
0.375802 0.725802 0.000000
0.409884 0.724884 0.000000
0.443954 0.723954 0.000000
0.478015 0.723015 0.000000
0.512064 0.722064 0.000000
0.546104 0.721104 0.000000
0.580133 0.720133 0.000000
0.614152 0.719152 0.000000
0.648161 0.718161 0.000000
0.682159 0.717159 0.000000
0.716148 0.716148 0.000000
0.750127 0.715127 0.000000
0.784096 0.714096 0.000000
0.818055 0.713055 0.000000
0.852005 0.712005 0.000000
0.885945 0.710945 0.000000
0.919876 0.709876 0.000000
0.953798 0.708798 0.000000
0.987711 0.707711 0.000000
1.000000 0.706614 0.000000
1.000000 0.705509 0.000000
0.000000 0.768290 0.000000
0.000000 0.767464 0.000000
0.031627 0.766627 0.000000
0.065780 0.765780 0.000000
0.099922 0.764922 0.000000
0.134053 0.764053 0.000000
0.168173 0.763173 0.000000
0.202282 0.762282 0.000000
0.236381 0.761381 0.000000
0.270469 0.760469 0.000000
0.304547 0.759547 0.000000
0.338613 0.758613 0.000000
0.372670 0.757670 0.000000
0.406716 0.756716 0.000000
0.440752 0.755752 0.000000
0.474777 0.754777 0.000000
0.508792 0.753792 0.000000
0.542797 0.752797 0.000000
0.576792 0.751792 0.000000
0.610778 0.750778 0.000000
0.644753 0.749753 0.000000
0.678718 0.748718 0.000000
0.712674 0.747674 0.000000
0.746620 0.746620 0.000000
0.780557 0.745557 0.000000
0.814485 0.744485 0.000000
0.848403 0.743403 0.000000
0.882313 0.742313 0.000000
0.916213 0.741213 0.000000
0.950105 0.740105 0.000000
0.983987 0.738987 0.000000
1.000000 0.737862 0.000000
1.000000 0.736728 0.000000
0.000000 0.800469 0.000000
0.000000 0.799607 0.000000
0.028734 0.798734 0.000000
0.062850 0.797850 0.000000
0.096955 0.796955 0.000000
0.131050 0.796050 0.000000
0.165134 0.795134 0.000000
0.199208 0.794208 0.000000
0.233271 0.793271 0.000000
0.267324 0.792324 0.000000
0.301366 0.791366 0.000000
0.335398 0.790398 0.000000
0.369420 0.789420 0.000000
0.403431 0.788431 0.000000
0.437433 0.787433 0.000000
0.471424 0.786424 0.000000
0.505406 0.785406 0.000000
0.539377 0.784377 0.000000
0.573339 0.783339 0.000000
0.607292 0.782292 0.000000
0.641234 0.781234 0.000000
0.675168 0.780168 0.000000
0.709092 0.779092 0.000000
0.743007 0.778007 0.000000
0.776913 0.776913 0.000000
0.810810 0.775810 0.000000
0.844699 0.774699 0.000000
0.878579 0.773579 0.000000
0.912450 0.772450 0.000000
0.946313 0.771313 0.000000
0.980168 0.770168 0.000000
1.000000 0.769014 0.000000
1.000000 0.767853 0.000000
0.000000 0.832525 0.000000
0.000000 0.831627 0.000000
0.025718 0.830718 0.000000
0.059798 0.829798 0.000000
0.093868 0.828868 0.000000
0.127927 0.827927 0.000000
0.161976 0.826976 0.000000
0.196015 0.826015 0.000000
0.230043 0.825043 0.000000
0.264061 0.824061 0.000000
0.298069 0.823069 0.000000
0.332067 0.822067 0.000000
0.366054 0.821054 0.000000
0.400032 0.820032 0.000000
0.434000 0.819000 0.000000
0.467959 0.817959 0.000000
0.501908 0.816908 0.000000
0.535847 0.815847 0.000000
0.569777 0.814777 0.000000
0.603698 0.813698 0.000000
0.637610 0.812610 0.000000
0.671513 0.811513 0.000000
0.705407 0.810407 0.000000
0.739292 0.809292 0.000000
0.773169 0.808169 0.000000
0.807037 0.807037 0.000000
0.840897 0.805897 0.000000
0.874749 0.804749 0.000000
0.908592 0.803592 0.000000
0.942428 0.802428 0.000000
0.976257 0.801257 0.000000
1.000000 0.800078 0.000000
1.000000 0.798891 0.000000
0.000000 0.864461 0.000000
0.000000 0.863527 0.000000
0.022582 0.862582 0.000000
0.056628 0.861628 0.000000
0.090662 0.860662 0.000000
0.124687 0.859687 0.000000
0.158701 0.858701 0.000000
0.192705 0.857705 0.000000
0.226699 0.856699 0.000000
0.260683 0.855683 0.000000
0.294658 0.854658 0.000000
0.328622 0.853622 0.000000
0.362577 0.852577 0.000000
0.396523 0.851523 0.000000
0.430459 0.850459 0.000000
0.464386 0.849386 0.000000
0.498303 0.848303 0.000000
0.532212 0.847212 0.000000
0.566111 0.846111 0.000000
0.600002 0.845002 0.000000
0.633884 0.843884 0.000000
0.667758 0.842758 0.000000
0.701623 0.841623 0.000000
0.735480 0.840480 0.000000
0.769329 0.839329 0.000000
0.803170 0.838170 0.000000
0.837003 0.837003 0.000000
