luts/vibrant_pop.cube
TITLE "Vibrant Pop"
LUT_3D_SIZE 5
DOMAIN_MIN 0.0 0.0 0.0
DOMAIN_MAX 1.0 1.0 1.0
0.000000 0.000000 0.000000
0.277777 0.000000 0.000000
0.555438 0.000000 0.000000
0.832872 0.000000 0.000000
1.000000 0.000000 0.000000
0.000000 0.271860 0.000000
0.268813 0.268813 0.000000
0.545304 0.265304 0.000000
0.821251 0.261251 0.000000
1.000000 0.256591 0.000000
0.000000 0.539628 0.000000
0.254734 0.534734 0.000000
0.529171 0.529171 0.000000
0.802918 0.522918 0.000000
1.000000 0.515970 0.000000
0.000000 0.800469 0.000000
0.233271 0.793271 0.000000
0.505406 0.785406 0.000000
0.776913 0.776913 0.000000
1.000000 0.767853 0.000000
0.000000 1.000000 0.000000
0.204428 1.000000 0.000000
0.474716 1.000000 0.000000
0.744634 1.000000 0.000000
1.000000 1.000000 0.000000
0.000000 0.000000 0.279251
0.277002 0.000000 0.277002
0.554598 0.000000 0.274598
0.831929 0.000000 0.271929
1.000000 0.000000 0.268893
0.000000 0.270872 0.270872
0.267678 0.267678 0.267678
0.543992 0.263992 0.263992
0.819739 0.259739 0.259739
1.000000 0.254861 0.254861
0.000000 0.538038 0.258038
0.252921 0.532921 0.252921
0.527126 0.527126 0.247126
0.800636 0.520636 0.240636
1.000000 0.513455 0.233455
0.000000 0.798101 0.238101
0.230673 0.790673 0.230673
0.502589 0.782589 0.222589
0.773897 0.773897 0.213897
1.000000 0.764660 0.204660
0.000000 1.000000 0.210593
0.201177 1.000000 0.201177
0.471329 1.000000 0.191329
0.741145 1.000000 0.181145
1.000000 1.000000 0.170730
0.000000 0.000000 0.558497
0.276208 0.000000 0.556208
0.553727 0.000000 0.553727
0.830944 0.000000 0.550944
1.000000 0.000000 0.547761
0.000000 0.269837 0.549837
0.266485 0.266485 0.546485
0.542615 0.262615 0.542615
0.818155 0.258155 0.538155
1.000000 0.253054 0.533054
0.000000 0.536375 0.536375
0.251030 0.531030 0.531030
0.525000 0.525000 0.525000
0.798274 0.518274 0.518274
1.000000 0.510863 0.510863
0.000000 0.795654 0.515654
0.227999 0.787999 0.507999
0.499703 0.779703 0.499703
0.770817 0.770817 0.490817
1.000000 0.761413 0.481413
0.000000 1.000000 0.487449
0.197876 1.000000 0.477876
0.467903 1.000000 0.467903
0.737628 1.000000 0.457628
1.000000 1.000000 0.447161
0.000000 0.000000 0.837734
0.275393 0.000000 0.835393
0.552821 0.000000 0.832821
0.829913 0.000000 0.829913
1.000000 0.000000 0.826573
0.000000 0.268752 0.828752
0.265233 0.265233 0.825233
0.541169 0.261169 0.821169
0.816497 0.256497 0.816497
1.000000 0.251169 0.811169
0.000000 0.534635 0.814635
0.249060 0.529060 0.809060
0.522794 0.522794 0.802794
0.795833 0.515833 0.795833
1.000000 0.508194 0.788194
0.000000 0.793129 0.793129
0.225251 0.785251 0.785251
0.496748 0.776748 0.776748
0.767678 0.767678 0.767678
1.000000 0.758116 0.758116
0.000000 1.000000 0.764249
0.194529 1.000000 0.754529
0.464442 1.000000 0.744442
0.734090 1.000000 0.734090
1.000000 1.000000 0.723583
0.000000 0.000000 1.000000
0.274550 0.000000 1.000000
0.551876 0.000000 1.000000
0.828832 0.000000 1.000000
1.000000 0.000000 1.000000
0.000000 0.267613 1.000000
0.263917 0.263917 1.000000
0.539654 0.259654 1.000000
0.814763 0.254763 1.000000
1.000000 0.249205 1.000000
0.000000 0.532818 1.000000
0.247010 0.527010 1.000000
0.520507 0.520507 1.000000
0.793314 0.513314 1.000000
1.000000 0.505452 1.000000
0.000000 0.790527 1.000000
0.222431 0.782431 1.000000
0.493728 0.773728 1.000000
0.764481 0.764481 1.000000
1.000000 0.754772 1.000000
0.000000 1.000000 1.000000
0.191140 1.000000 1.000000
0.460950 1.000000 1.000000
0.730533 1.000000 1.000000
1.000000 1.000000 1.000000
