luts/warm_golden.cube
TITLE "Warm Golden"
LUT_3D_SIZE 9
DOMAIN_MIN 0.0 0.0 0.0
DOMAIN_MAX 1.0 1.0 1.0
0.020000 0.010000 0.000000
0.163750 0.010000 0.000000
0.307500 0.010000 0.000000
0.451250 0.010000 0.000000
0.595000 0.010000 0.000000
0.738750 0.010000 0.000000
0.882500 0.010000 0.000000
1.000000 0.010000 0.000000
1.000000 0.010000 0.000000
0.020000 0.141250 0.000000
0.163750 0.141250 0.000000
0.307500 0.141250 0.000000
0.451250 0.141250 0.000000
0.595000 0.141250 0.000000
0.738750 0.141250 0.000000
0.882500 0.141250 0.000000
1.000000 0.141250 0.000000
1.000000 0.141250 0.000000
0.020000 0.272500 0.000000
0.163750 0.272500 0.000000
0.307500 0.272500 0.000000
0.451250 0.272500 0.000000
0.595000 0.272500 0.000000
0.738750 0.272500 0.000000
0.882500 0.272500 0.000000
1.000000 0.272500 0.000000
1.000000 0.272500 0.000000
0.020000 0.403750 0.000000
0.163750 0.403750 0.000000
0.307500 0.403750 0.000000
0.451250 0.403750 0.000000
0.595000 0.403750 0.000000
0.738750 0.403750 0.000000
0.882500 0.403750 0.000000
1.000000 0.403750 0.000000
1.000000 0.403750 0.000000
0.020000 0.535000 0.000000
0.163750 0.535000 0.000000
0.307500 0.535000 0.000000
0.451250 0.535000 0.000000
0.595000 0.535000 0.000000
0.738750 0.535000 0.000000
0.882500 0.535000 0.000000
1.000000 0.535000 0.000000
1.000000 0.535000 0.000000
0.020000 0.666250 0.000000
0.163750 0.666250 0.000000
0.307500 0.666250 0.000000
0.451250 0.666250 0.000000
0.595000 0.666250 0.000000
0.738750 0.666250 0.000000
0.882500 0.666250 0.000000
1.000000 0.666250 0.000000
1.000000 0.666250 0.000000
0.020000 0.797500 0.000000
0.163750 0.797500 0.000000
0.307500 0.797500 0.000000
0.451250 0.797500 0.000000
0.595000 0.797500 0.000000
0.738750 0.797500 0.000000
0.882500 0.797500 0.000000
1.000000 0.797500 0.000000
1.000000 0.797500 0.000000
0.020000 0.928750 0.000000
0.163750 0.928750 0.000000
0.307500 0.928750 0.000000
0.451250 0.928750 0.000000
0.595000 0.928750 0.000000
0.738750 0.928750 0.000000
0.882500 0.928750 0.000000
1.000000 0.928750 0.000000
1.000000 0.928750 0.000000
0.020000 1.000000 0.000000
0.163750 1.000000 0.000000
0.307500 1.000000 0.000000
0.451250 1.000000 0.000000
0.595000 1.000000 0.000000
0.738750 1.000000 0.000000
0.882500 1.000000 0.000000
1.000000 1.000000 0.000000
1.000000 1.000000 0.000000
0.020000 0.010000 0.100000
0.163750 0.010000 0.100000
0.307500 0.010000 0.100000
0.451250 0.010000 0.100000
0.595000 0.010000 0.100000
0.738750 0.010000 0.100000
0.882500 0.010000 0.100000
1.000000 0.010000 0.100000
1.000000 0.010000 0.100000
0.020000 0.141250 0.100000
0.163750 0.141250 0.100000
0.307500 0.141250 0.100000
0.451250 0.141250 0.100000
0.595000 0.141250 0.100000
0.738750 0.141250 0.100000
0.882500 0.141250 0.100000
1.000000 0.141250 0.100000
1.000000 0.141250 0.100000
0.020000 0.272500 0.100000
0.163750 0.272500 0.100000
0.307500 0.272500 0.100000
0.451250 0.272500 0.100000
0.595000 0.272500 0.100000
0.738750 0.272500 0.100000
0.882500 0.272500 0.100000
1.000000 0.272500 0.100000
1.000000 0.272500 0.100000
0.020000 0.403750 0.100000
0.163750 0.403750 0.100000
0.307500 0.403750 0.100000
0.451250 0.403750 0.100000
0.595000 0.403750 0.100000
0.738750 0.403750 0.100000
0.882500 0.403750 0.100000
1.000000 0.403750 0.100000
1.000000 0.403750 0.100000
0.020000 0.535000 0.100000
0.163750 0.535000 0.100000
0.307500 0.535000 0.100000
0.451250 0.535000 0.100000
0.595000 0.535000 0.100000
0.738750 0.535000 0.100000
0.882500 0.535000 0.100000
1.000000 0.535000 0.100000
1.000000 0.535000 0.100000
0.020000 0.666250 0.100000
0.163750 0.666250 0.100000
0.307500 0.666250 0.100000
0.451250 0.666250 0.100000
0.595000 0.666250 0.100000
0.738750 0.666250 0.100000
0.882500 0.666250 0.100000
1.000000 0.666250 0.100000
1.000000 0.666250 0.100000
0.020000 0.797500 0.100000
0.163750 0.797500 0.100000
0.307500 0.797500 0.100000
0.451250 0.797500 0.100000
0.595000 0.797500 0.100000
0.738750 0.797500 0.100000
0.882500 0.797500 0.100000
1.000000 0.797500 0.100000
1.000000 0.797500 0.100000
0.020000 0.928750 0.100000
0.163750 0.928750 0.100000
0.307500 0.928750 0.100000
0.451250 0.928750 0.100000
0.595000 0.928750 0.100000
0.738750 0.928750 0.100000
0.882500 0.928750 0.100000
1.000000 0.928750 0.100000
1.000000 0.928750 0.100000
0.020000 1.000000 0.100000
0.163750 1.000000 0.100000
0.307500 1.000000 0.100000
0.451250 1.000000 0.100000
0.595000 1.000000 0.100000
0.738750 1.000000 0.100000
0.882500 1.000000 0.100000
1.000000 1.000000 0.100000
1.000000 1.000000 0.100000
0.020000 0.010000 0.200000
0.163750 0.010000 0.200000
0.307500 0.010000 0.200000
0.451250 0.010000 0.200000
0.595000 0.010000 0.200000
0.738750 0.010000 0.200000
0.882500 0.010000 0.200000
1.000000 0.010000 0.200000
1.000000 0.010000 0.200000
0.020000 0.141250 0.200000
0.163750 0.141250 0.200000
0.307500 0.141250 0.200000
0.451250 0.141250 0.200000
0.595000 0.141250 0.200000
0.738750 0.141250 0.200000
0.882500 0.141250 0.200000
1.000000 0.141250 0.200000
1.000000 0.141250 0.200000
0.020000 0.272500 0.200000
0.163750 0.272500 0.200000
0.307500 0.272500 0.200000
0.451250 0.272500 0.200000
0.595000 0.272500 0.200000
0.738750 0.272500 0.200000
0.882500 0.272500 0.200000
1.000000 0.272500 0.200000
1.000000 0.272500 0.200000
0.020000 0.403750 0.200000
0.163750 0.403750 0.200000
0.307500 0.403750 0.200000
0.451250 0.403750 0.200000
0.595000 0.403750 0.200000
0.738750 0.403750 0.200000
0.882500 0.403750 0.200000
1.000000 0.403750 0.200000
1.000000 0.403750 0.200000
0.020000 0.535000 0.200000
0.163750 0.535000 0.200000
0.307500 0.535000 0.200000
0.451250 0.535000 0.200000
0.595000 0.535000 0.200000
0.738750 0.535000 0.200000
0.882500 0.535000 0.200000
1.000000 0.535000 0.200000
1.000000 0.535000 0.200000
0.020000 0.666250 0.200000
0.163750 0.666250 0.200000
0.307500 0.666250 0.200000
0.451250 0.666250 0.200000
0.595000 0.666250 0.200000
0.738750 0.666250 0.200000
0.882500 0.666250 0.200000
1.000000 0.666250 0.200000
1.000000 0.666250 0.200000
0.020000 0.797500 0.200000
0.163750 0.797500 0.200000
0.307500 0.797500 0.200000
0.451250 0.797500 0.200000
0.595000 0.797500 0.200000
0.738750 0.797500 0.200000
0.882500 0.797500 0.200000
1.000000 0.797500 0.200000
1.000000 0.797500 0.200000
0.020000 0.928750 0.200000
0.163750 0.928750 0.200000
0.307500 0.928750 0.200000
0.451250 0.928750 0.200000
0.595000 0.928750 0.200000
0.738750 0.928750 0.200000
0.882500 0.928750 0.200000
1.000000 0.928750 0.200000
1.000000 0.928750 0.200000
0.020000 1.000000 0.200000
0.163750 1.000000 0.200000
0.307500 1.000000 0.200000
0.451250 1.000000 0.200000
0.595000 1.000000 0.200000
0.738750 1.000000 0.200000
0.882500 1.000000 0.200000
1.000000 1.000000 0.200000
1.000000 1.000000 0.200000
0.020000 0.010000 0.300000
0.163750 0.010000 0.300000
0.307500 0.010000 0.300000
0.451250 0.010000 0.300000
0.595000 0.010000 0.300000
0.738750 0.010000 0.300000
0.882500 0.010000 0.300000
1.000000 0.010000 0.300000
1.000000 0.010000 0.300000
0.020000 0.141250 0.300000
0.163750 0.141250 0.300000
0.307500 0.141250 0.300000
0.451250 0.141250 0.300000
0.595000 0.141250 0.300000
0.738750 0.141250 0.300000
0.882500 0.141250 0.300000
1.000000 0.141250 0.300000
1.000000 0.141250 0.300000
0.020000 0.272500 0.300000
0.163750 0.272500 0.300000
0.307500 0.272500 0.300000
0.451250 0.272500 0.300000
0.595000 0.272500 0.300000
0.738750 0.272500 0.300000
0.882500 0.272500 0.300000
1.000000 0.272500 0.300000
1.000000 0.272500 0.300000
0.020000 0.403750 0.300000
0.163750 0.403750 0.300000
0.307500 0.403750 0.300000
0.451250 0.403750 0.300000
0.595000 0.403750 0.300000
0.738750 0.403750 0.300000
0.882500 0.403750 0.300000
1.000000 0.403750 0.300000
1.000000 0.403750 0.300000
0.020000 0.535000 0.300000
0.163750 0.535000 0.300000
0.307500 0.535000 0.300000
0.451250 0.535000 0.300000
0.595000 0.535000 0.300000
0.738750 0.535000 0.300000
0.882500 0.535000 0.300000
1.000000 0.535000 0.300000
1.000000 0.535000 0.300000
0.020000 0.666250 0.300000
0.163750 0.666250 0.300000
0.307500 0.666250 0.300000
0.451250 0.666250 0.300000
0.595000 0.666250 0.300000
0.738750 0.666250 0.300000
0.882500 0.666250 0.300000
1.000000 0.666250 0.300000
1.000000 0.666250 0.300000
0.020000 0.797500 0.300000
0.163750 0.797500 0.300000
0.307500 0.797500 0.300000
0.451250 0.797500 0.300000
0.595000 0.797500 0.300000
0.738750 0.797500 0.300000
0.882500 0.797500 0.300000
1.000000 0.797500 0.300000
1.000000 0.797500 0.300000
0.020000 0.928750 0.300000
0.163750 0.928750 0.300000
0.307500 0.928750 0.300000
0.451250 0.928750 0.300000
0.595000 0.928750 0.300000
0.738750 0.928750 0.300000
0.882500 0.928750 0.300000
1.000000 0.928750 0.300000
1.000000 0.928750 0.300000
0.020000 1.000000 0.300000
0.163750 1.000000 0.300000
0.307500 1.000000 0.300000
0.451250 1.000000 0.300000
0.595000 1.000000 0.300000
0.738750 1.000000 0.300000
0.882500 1.000000 0.300000
1.000000 1.000000 0.300000
1.000000 1.000000 0.300000
0.020000 0.010000 0.400000
0.163750 0.010000 0.400000
0.307500 0.010000 0.400000
0.451250 0.010000 0.400000
0.595000 0.010000 0.400000
0.738750 0.010000 0.400000
0.882500 0.010000 0.400000
1.000000 0.010000 0.400000
1.000000 0.010000 0.400000
0.020000 0.141250 0.400000
0.163750 0.141250 0.400000
0.307500 0.141250 0.400000
0.451250 0.141250 0.400000
0.595000 0.141250 0.400000
0.738750 0.141250 0.400000
0.882500 0.141250 0.400000
1.000000 0.141250 0.400000
1.000000 0.141250 0.400000
0.020000 0.272500 0.400000
0.163750 0.272500 0.400000
0.307500 0.272500 0.400000
0.451250 0.272500 0.400000
0.595000 0.272500 0.400000
0.738750 0.272500 0.400000
0.882500 0.272500 0.400000
1.000000 0.272500 0.400000
1.000000 0.272500 0.400000
0.020000 0.403750 0.400000
0.163750 0.403750 0.400000
0.307500 0.403750 0.400000
0.451250 0.403750 0.400000
0.595000 0.403750 0.400000
0.738750 0.403750 0.400000
0.882500 0.403750 0.400000
1.000000 0.403750 0.400000
1.000000 0.403750 0.400000
0.020000 0.535000 0.400000
0.163750 0.535000 0.400000
0.307500 0.535000 0.400000
0.451250 0.535000 0.400000
0.595000 0.535000 0.400000
0.738750 0.535000 0.400000
0.882500 0.535000 0.400000
1.000000 0.535000 0.400000
1.000000 0.535000 0.400000
0.020000 0.666250 0.400000
0.163750 0.666250 0.400000
0.307500 0.666250 0.400000
0.451250 0.666250 0.400000
0.595000 0.666250 0.400000
0.738750 0.666250 0.400000
0.882500 0.666250 0.400000
1.000000 0.666250 0.400000
1.000000 0.666250 0.400000
0.020000 0.797500 0.400000
0.163750 0.797500 0.400000
0.307500 0.797500 0.400000
0.451250 0.797500 0.400000
0.595000 0.797500 0.400000
0.738750 0.797500 0.400000
0.882500 0.797500 0.400000
1.000000 0.797500 0.400000
1.000000 0.797500 0.400000
0.020000 0.928750 0.400000
0.163750 0.928750 0.400000
0.307500 0.928750 0.400000
0.451250 0.928750 0.400000
0.595000 0.928750 0.400000
0.738750 0.928750 0.400000
0.882500 0.928750 0.400000
1.000000 0.928750 0.400000
1.000000 0.928750 0.400000
0.020000 1.000000 0.400000
0.163750 1.000000 0.400000
0.307500 1.000000 0.400000
0.451250 1.000000 0.400000
0.595000 1.000000 0.400000
0.738750 1.000000 0.400000
0.882500 1.000000 0.400000
1.000000 1.000000 0.400000
1.000000 1.000000 0.400000
0.020000 0.010000 0.500000
0.163750 0.010000 0.500000
0.307500 0.010000 0.500000
0.451250 0.010000 0.500000
0.595000 0.010000 0.500000
0.738750 0.010000 0.500000
0.882500 0.010000 0.500000
1.000000 0.010000 0.500000
1.000000 0.010000 0.500000
0.020000 0.141250 0.500000
0.163750 0.141250 0.500000
0.307500 0.141250 0.500000
0.451250 0.141250 0.500000
0.595000 0.141250 0.500000
0.738750 0.141250 0.500000
0.882500 0.141250 0.500000
1.000000 0.141250 0.500000
1.000000 0.141250 0.500000
0.020000 0.272500 0.500000
0.163750 0.272500 0.500000
0.307500 0.272500 0.500000
0.451250 0.272500 0.500000
0.595000 0.272500 0.500000
0.738750 0.272500 0.500000
0.882500 0.272500 0.500000
1.000000 0.272500 0.500000
1.000000 0.272500 0.500000
0.020000 0.403750 0.500000
0.163750 0.403750 0.500000
0.307500 0.403750 0.500000
0.451250 0.403750 0.500000
0.595000 0.403750 0.500000
0.738750 0.403750 0.500000
0.882500 0.403750 0.500000
1.000000 0.403750 0.500000
1.000000 0.403750 0.500000
0.020000 0.535000 0.500000
0.163750 0.535000 0.500000
0.307500 0.535000 0.500000
0.451250 0.535000 0.500000
0.595000 0.535000 0.500000
0.738750 0.535000 0.500000
0.882500 0.535000 0.500000
1.000000 0.535000 0.500000
1.000000 0.535000 0.500000
0.020000 0.666250 0.500000
0.163750 0.666250 0.500000
0.307500 0.666250 0.500000
0.451250 0.666250 0.500000
0.595000 0.666250 0.500000
0.738750 0.666250 0.500000
0.882500 0.666250 0.500000
1.000000 0.666250 0.500000
1.000000 0.666250 0.500000
0.020000 0.797500 0.500000
0.163750 0.797500 0.500000
0.307500 0.797500 0.500000
0.451250 0.797500 0.500000
0.595000 0.797500 0.500000
0.738750 0.797500 0.500000
0.882500 0.797500 0.500000
1.000000 0.797500 0.500000
1.000000 0.797500 0.500000
0.020000 0.928750 0.500000
0.163750 0.928750 0.500000
0.307500 0.928750 0.500000
0.451250 0.928750 0.500000
0.595000 0.928750 0.500000
0.738750 0.928750 0.500000
0.882500 0.928750 0.500000
1.000000 0.928750 0.500000
1.000000 0.928750 0.500000
0.020000 1.000000 0.500000
0.163750 1.000000 0.500000
0.307500 1.000000 0.500000
0.451250 1.000000 0.500000
0.595000 1.000000 0.500000
0.738750 1.000000 0.500000
0.882500 1.000000 0.500000
1.000000 1.000000 0.500000
1.000000 1.000000 0.500000
0.020000 0.010000 0.600000
0.163750 0.010000 0.600000
0.307500 0.010000 0.600000
0.451250 0.010000 0.600000
0.595000 0.010000 0.600000
0.738750 0.010000 0.600000
0.882500 0.010000 0.600000
1.000000 0.010000 0.600000
1.000000 0.010000 0.600000
0.020000 0.141250 0.600000
0.163750 0.141250 0.600000
0.307500 0.141250 0.600000
0.451250 0.141250 0.600000
0.595000 0.141250 0.600000
0.738750 0.141250 0.600000
0.882500 0.141250 0.600000
1.000000 0.141250 0.600000
1.000000 0.141250 0.600000
0.020000 0.272500 0.600000
0.163750 0.272500 0.600000
0.307500 0.272500 0.600000
0.451250 0.272500 0.600000
0.595000 0.272500 0.600000
0.738750 0.272500 0.600000
0.882500 0.272500 0.600000
1.000000 0.272500 0.600000
1.000000 0.272500 0.600000
0.020000 0.403750 0.600000
0.163750 0.403750 0.600000
0.307500 0.403750 0.600000
0.451250 0.403750 0.600000
0.595000 0.403750 0.600000
0.738750 0.403750 0.600000
0.882500 0.403750 0.600000
1.000000 0.403750 0.600000
1.000000 0.403750 0.600000
0.020000 0.535000 0.600000
0.163750 0.535000 0.600000
0.307500 0.535000 0.600000
0.451250 0.535000 0.600000
0.595000 0.535000 0.600000
0.738750 0.535000 0.600000
0.882500 0.535000 0.600000
1.000000 0.535000 0.600000
1.000000 0.535000 0.600000
0.020000 0.666250 0.600000
0.163750 0.666250 0.600000
0.307500 0.666250 0.600000
0.451250 0.666250 0.600000
0.595000 0.666250 0.600000
0.738750 0.666250 0.600000
0.882500 0.666250 0.600000
1.000000 0.666250 0.600000
1.000000 0.666250 0.600000
0.020000 0.797500 0.600000
0.163750 0.797500 0.600000
0.307500 0.797500 0.600000
0.451250 0.797500 0.600000
0.595000 0.797500 0.600000
0.738750 0.797500 0.600000
0.882500 0.797500 0.600000
1.000000 0.797500 0.600000
1.000000 0.797500 0.600000
0.020000 0.928750 0.600000
0.163750 0.928750 0.600000
0.307500 0.928750 0.600000
0.451250 0.928750 0.600000
0.595000 0.928750 0.600000
0.738750 0.928750 0.600000
0.882500 0.928750 0.600000
1.000000 0.928750 0.600000
1.000000 0.928750 0.600000
0.020000 1.000000 0.600000
0.163750 1.000000 0.600000
0.307500 1.000000 0.600000
0.451250 1.000000 0.600000
0.595000 1.000000 0.600000
0.738750 1.000000 0.600000
0.882500 1.000000 0.600000
1.000000 1.000000 0.600000
1.000000 1.000000 0.600000
0.020000 0.010000 0.700000
0.163750 0.010000 0.700000
0.307500 0.010000 0.700000
0.451250 0.010000 0.700000
0.595000 0.010000 0.700000
0.738750 0.010000 0.700000
0.882500 0.010000 0.700000
1.000000 0.010000 0.700000
1.000000 0.010000 0.700000
0.020000 0.141250 0.700000
0.163750 0.141250 0.700000
0.307500 0.141250 0.700000
0.451250 0.141250 0.700000
0.595000 0.141250 0.700000
0.738750 0.141250 0.700000
0.882500 0.141250 0.700000
1.000000 0.141250 0.700000
1.000000 0.141250 0.700000
0.020000 0.272500 0.700000
0.163750 0.272500 0.700000
0.307500 0.272500 0.700000
0.451250 0.272500 0.700000
0.595000 0.272500 0.700000
0.738750 0.272500 0.700000
0.882500 0.272500 0.700000
1.000000 0.272500 0.700000
1.000000 0.272500 0.700000
0.020000 0.403750 0.700000
0.163750 0.403750 0.700000
0.307500 0.403750 0.700000
0.451250 0.403750 0.700000
0.595000 0.403750 0.700000
0.738750 0.403750 0.700000
0.882500 0.403750 0.700000
1.000000 0.403750 0.700000
1.000000 0.403750 0.700000
0.020000 0.535000 0.700000
0.163750 0.535000 0.700000
0.307500 0.535000 0.700000
0.451250 0.535000 0.700000
0.595000 0.535000 0.700000
0.738750 0.535000 0.700000
0.882500 0.535000 0.700000
1.000000 0.535000 0.700000
1.000000 0.535000 0.700000
0.020000 0.666250 0.700000
0.163750 0.666250 0.700000
0.307500 0.666250 0.700000
0.451250 0.666250 0.700000
0.595000 0.666250 0.700000
0.738750 0.666250 0.700000
0.882500 0.666250 0.700000
1.000000 0.666250 0.700000
1.000000 0.666250 0.700000
0.020000 0.797500 0.700000
0.163750 0.797500 0.700000
0.307500 0.797500 0.700000
0.451250 0.797500 0.700000
0.595000 0.797500 0.700000
0.738750 0.797500 0.700000
0.882500 0.797500 0.700000
1.000000 0.797500 0.700000
1.000000 0.797500 0.700000
0.020000 0.928750 0.700000
0.163750 0.928750 0.700000
0.307500 0.928750 0.700000
0.451250 0.928750 0.700000
0.595000 0.928750 0.700000
0.738750 0.928750 0.700000
0.882500 0.928750 0.700000
1.000000 0.928750 0.700000
1.000000 0.928750 0.700000
0.020000 1.000000 0.700000
0.163750 1.000000 0.700000
0.307500 1.000000 0.700000
0.451250 1.000000 0.700000
0.595000 1.000000 0.700000
0.738750 1.000000 0.700000
0.882500 1.000000 0.700000
1.000000 1.000000 0.700000
1.000000 1.000000 0.700000
0.020000 0.010000 0.800000
0.163750 0.010000 0.800000
0.307500 0.010000 0.800000
0.451250 0.010000 0.800000
0.595000 0.010000 0.800000
0.738750 0.010000 0.800000
0.882500 0.010000 0.800000
1.000000 0.010000 0.800000
1.000000 0.010000 0.800000
0.020000 0.141250 0.800000
0.163750 0.141250 0.800000
0.307500 0.141250 0.800000
0.451250 0.141250 0.800000
0.595000 0.141250 0.800000
0.738750 0.141250 0.800000
0.882500 0.141250 0.800000
1.000000 0.141250 0.800000
1.000000 0.141250 0.800000
0.020000 0.272500 0.800000
0.163750 0.272500 0.800000
0.307500 0.272500 0.800000
0.451250 0.272500 0.800000
0.595000 0.272500 0.800000
0.738750 0.272500 0.800000
0.882500 0.272500 0.800000
1.000000 0.272500 0.800000
1.000000 0.272500 0.800000
0.020000 0.403750 0.800000
0.163750 0.403750 0.800000
0.307500 0.403750 0.800000
0.451250 0.403750 0.800000
0.595000 0.403750 0.800000
0.738750 0.403750 0.800000
0.882500 0.403750 0.800000
1.000000 0.403750 0.800000
1.000000 0.403750 0.800000
0.020000 0.535000 0.800000
0.163750 0.535000 0.800000
0.307500 0.535000 0.800000
0.451250 0.535000 0.800000
0.595000 0.535000 0.800000
0.738750 0.535000 0.800000
0.882500 0.535000 0.800000
1.000000 0.535000 0.800000
1.000000 0.535000 0.800000
0.020000 0.666250 0.800000
0.163750 0.666250 0.800000
0.307500 0.666250 0.800000
0.451250 0.666250 0.800000
0.595000 0.666250 0.800000
0.738750 0.666250 0.800000
0.882500 0.666250 0.800000
1.000000 0.666250 0.800000
1.000000 0.666250 0.800000
0.020000 0.797500 0.800000
0.163750 0.797500 0.800000
0.307500 0.797500 0.800000
0.451250 0.797500 0.800000
0.595000 0.797500 0.800000
0.738750 0.797500 0.800000
0.882500 0.797500 0.800000
1.000000 0.797500 0.800000
1.000000 0.797500 0.800000
0.020000 0.928750 0.800000
0.163750 0.928750 0.800000
0.307500 0.928750 0.800000
0.451250 0.928750 0.800000
0.595000 0.928750 0.800000
0.738750 0.928750 0.800000
0.882500 0.928750 0.800000
1.000000 0.928750 0.800000
1.000000 0.928750 0.800000
0.020000 1.000000 0.800000
0.163750 1.000000 0.800000
0.307500 1.000000 0.800000
0.451250 1.000000 0.800000
0.595000 1.000000 0.800000
0.738750 1.000000 0.800000
0.882500 1.000000 0.800000
1.000000 1.000000 0.800000
1.000000 1.000000 0.800000
