luts/warm_golden.cube
TITLE "Warm Golden"
LUT_3D_SIZE 5
DOMAIN_MIN 0.0 0.0 0.0
DOMAIN_MAX 1.0 1.0 1.0
0.020000 0.010000 0.000000
0.307500 0.010000 0.000000
0.595000 0.010000 0.000000
0.882500 0.010000 0.000000
1.000000 0.010000 0.000000
0.020000 0.272500 0.000000
0.307500 0.272500 0.000000
0.595000 0.272500 0.000000
0.882500 0.272500 0.000000
1.000000 0.272500 0.000000
0.020000 0.535000 0.000000
0.307500 0.535000 0.000000
0.595000 0.535000 0.000000
0.882500 0.535000 0.000000
1.000000 0.535000 0.000000
0.020000 0.797500 0.000000
0.307500 0.797500 0.000000
0.595000 0.797500 0.000000
0.882500 0.797500 0.000000
1.000000 0.797500 0.000000
0.020000 1.000000 0.000000
0.307500 1.000000 0.000000
0.595000 1.000000 0.000000
0.882500 1.000000 0.000000
1.000000 1.000000 0.000000
0.020000 0.010000 0.200000
0.307500 0.010000 0.200000
0.595000 0.010000 0.200000
0.882500 0.010000 0.200000
1.000000 0.010000 0.200000
0.020000 0.272500 0.200000
0.307500 0.272500 0.200000
0.595000 0.272500 0.200000
0.882500 0.272500 0.200000
1.000000 0.272500 0.200000
0.020000 0.535000 0.200000
0.307500 0.535000 0.200000
0.595000 0.535000 0.200000
0.882500 0.535000 0.200000
1.000000 0.535000 0.200000
0.020000 0.797500 0.200000
0.307500 0.797500 0.200000
0.595000 0.797500 0.200000
0.882500 0.797500 0.200000
1.000000 0.797500 0.200000
0.020000 1.000000 0.200000
0.307500 1.000000 0.200000
0.595000 1.000000 0.200000
0.882500 1.000000 0.200000
1.000000 1.000000 0.200000
0.020000 0.010000 0.400000
0.307500 0.010000 0.400000
0.595000 0.010000 0.400000
0.882500 0.010000 0.400000
1.000000 0.010000 0.400000
0.020000 0.272500 0.400000
0.307500 0.272500 0.400000
0.595000 0.272500 0.400000
0.882500 0.272500 0.400000
1.000000 0.272500 0.400000
0.020000 0.535000 0.400000
0.307500 0.535000 0.400000
0.595000 0.535000 0.400000
0.882500 0.535000 0.400000
1.000000 0.535000 0.400000
0.020000 0.797500 0.400000
0.307500 0.797500 0.400000
0.595000 0.797500 0.400000
0.882500 0.797500 0.400000
1.000000 0.797500 0.400000
0.020000 1.000000 0.400000
0.307500 1.000000 0.400000
0.595000 1.000000 0.400000
0.882500 1.000000 0.400000
1.000000 1.000000 0.400000
0.020000 0.010000 0.600000
0.307500 0.010000 0.600000
0.595000 0.010000 0.600000
0.882500 0.010000 0.600000
1.000000 0.010000 0.600000
0.020000 0.272500 0.600000
0.307500 0.272500 0.600000
0.595000 0.272500 0.600000
0.882500 0.272500 0.600000
1.000000 0.272500 0.600000
0.020000 0.535000 0.600000
0.307500 0.535000 0.600000
0.595000 0.535000 0.600000
0.882500 0.535000 0.600000
1.000000 0.535000 0.600000
0.020000 0.797500 0.600000
0.307500 0.797500 0.600000
0.595000 0.797500 0.600000
0.882500 0.797500 0.600000
1.000000 0.797500 0.600000
0.020000 1.000000 0.600000
0.307500 1.000000 0.600000
0.595000 1.000000 0.600000
0.882500 1.000000 0.600000
1.000000 1.000000 0.600000
0.020000 0.010000 0.800000
0.307500 0.010000 0.800000
0.595000 0.010000 0.800000
0.882500 0.010000 0.800000
1.000000 0.010000 0.800000
0.020000 0.272500 0.800000
0.307500 0.272500 0.800000
0.595000 0.272500 0.800000
0.882500 0.272500 0.800000
1.000000 0.272500 0.800000
0.020000 0.535000 0.800000
0.307500 0.535000 0.800000
0.595000 0.535000 0.800000
0.882500 0.535000 0.800000
1.000000 0.535000 0.800000
0.020000 0.797500 0.800000
0.307500 0.797500 0.800000
0.595000 0.797500 0.800000
0.882500 0.797500 0.800000
1.000000 0.797500 0.800000
0.020000 1.000000 0.800000
0.307500 1.000000 0.800000
0.595000 1.000000 0.800000
0.882500 1.000000 0.800000
1.000000 1.000000 0.800000
