luts/warm_golden.cube
TITLE "Warm Golden"
LUT_3D_SIZE 17
DOMAIN_MIN 0.0 0.0 0.0
DOMAIN_MAX 1.0 1.0 1.0
0.020000 0.010000 0.000000
0.091875 0.010000 0.000000
0.163750 0.010000 0.000000
0.235625 0.010000 0.000000
0.307500 0.010000 0.000000
0.379375 0.010000 0.000000
0.451250 0.010000 0.000000
0.523125 0.010000 0.000000
0.595000 0.010000 0.000000
0.666875 0.010000 0.000000
0.738750 0.010000 0.000000
0.810625 0.010000 0.000000
0.882500 0.010000 0.000000
0.954375 0.010000 0.000000
1.000000 0.010000 0.000000
1.000000 0.010000 0.000000
1.000000 0.010000 0.000000
0.020000 0.075625 0.000000
0.091875 0.075625 0.000000
0.163750 0.075625 0.000000
0.235625 0.075625 0.000000
0.307500 0.075625 0.000000
0.379375 0.075625 0.000000
0.451250 0.075625 0.000000
0.523125 0.075625 0.000000
0.595000 0.075625 0.000000
0.666875 0.075625 0.000000
0.738750 0.075625 0.000000
0.810625 0.075625 0.000000
0.882500 0.075625 0.000000
0.954375 0.075625 0.000000
1.000000 0.075625 0.000000
1.000000 0.075625 0.000000
1.000000 0.075625 0.000000
0.020000 0.141250 0.000000
0.091875 0.141250 0.000000
0.163750 0.141250 0.000000
0.235625 0.141250 0.000000
0.307500 0.141250 0.000000
0.379375 0.141250 0.000000
0.451250 0.141250 0.000000
0.523125 0.141250 0.000000
0.595000 0.141250 0.000000
0.666875 0.141250 0.000000
0.738750 0.141250 0.000000
0.810625 0.141250 0.000000
0.882500 0.141250 0.000000
0.954375 0.141250 0.000000
1.000000 0.141250 0.000000
1.000000 0.141250 0.000000
1.000000 0.141250 0.000000
0.020000 0.206875 0.000000
0.091875 0.206875 0.000000
0.163750 0.206875 0.000000
0.235625 0.206875 0.000000
0.307500 0.206875 0.000000
0.379375 0.206875 0.000000
0.451250 0.206875 0.000000
0.523125 0.206875 0.000000
0.595000 0.206875 0.000000
0.666875 0.206875 0.000000
0.738750 0.206875 0.000000
0.810625 0.206875 0.000000
0.882500 0.206875 0.000000
0.954375 0.206875 0.000000
1.000000 0.206875 0.000000
1.000000 0.206875 0.000000
1.000000 0.206875 0.000000
0.020000 0.272500 0.000000
0.091875 0.272500 0.000000
0.163750 0.272500 0.000000
0.235625 0.272500 0.000000
0.307500 0.272500 0.000000
0.379375 0.272500 0.000000
0.451250 0.272500 0.000000
0.523125 0.272500 0.000000
0.595000 0.272500 0.000000
0.666875 0.272500 0.000000
0.738750 0.272500 0.000000
0.810625 0.272500 0.000000
0.882500 0.272500 0.000000
0.954375 0.272500 0.000000
1.000000 0.272500 0.000000
1.000000 0.272500 0.000000
1.000000 0.272500 0.000000
0.020000 0.338125 0.000000
0.091875 0.338125 0.000000
0.163750 0.338125 0.000000
0.235625 0.338125 0.000000
0.307500 0.338125 0.000000
0.379375 0.338125 0.000000
0.451250 0.338125 0.000000
0.523125 0.338125 0.000000
0.595000 0.338125 0.000000
0.666875 0.338125 0.000000
0.738750 0.338125 0.000000
0.810625 0.338125 0.000000
0.882500 0.338125 0.000000
0.954375 0.338125 0.000000
1.000000 0.338125 0.000000
1.000000 0.338125 0.000000
1.000000 0.338125 0.000000
0.020000 0.403750 0.000000
0.091875 0.403750 0.000000
0.163750 0.403750 0.000000
0.235625 0.403750 0.000000
0.307500 0.403750 0.000000
0.379375 0.403750 0.000000
0.451250 0.403750 0.000000
0.523125 0.403750 0.000000
0.595000 0.403750 0.000000
0.666875 0.403750 0.000000
0.738750 0.403750 0.000000
0.810625 0.403750 0.000000
0.882500 0.403750 0.000000
0.954375 0.403750 0.000000
1.000000 0.403750 0.000000
1.000000 0.403750 0.000000
1.000000 0.403750 0.000000
0.020000 0.469375 0.000000
0.091875 0.469375 0.000000
0.163750 0.469375 0.000000
0.235625 0.469375 0.000000
0.307500 0.469375 0.000000
0.379375 0.469375 0.000000
0.451250 0.469375 0.000000
0.523125 0.469375 0.000000
0.595000 0.469375 0.000000
0.666875 0.469375 0.000000
0.738750 0.469375 0.000000
0.810625 0.469375 0.000000
0.882500 0.469375 0.000000
0.954375 0.469375 0.000000
1.000000 0.469375 0.000000
1.000000 0.469375 0.000000
1.000000 0.469375 0.000000
0.020000 0.535000 0.000000
0.091875 0.535000 0.000000
0.163750 0.535000 0.000000
0.235625 0.535000 0.000000
0.307500 0.535000 0.000000
0.379375 0.535000 0.000000
0.451250 0.535000 0.000000
0.523125 0.535000 0.000000
0.595000 0.535000 0.000000
0.666875 0.535000 0.000000
0.738750 0.535000 0.000000
0.810625 0.535000 0.000000
0.882500 0.535000 0.000000
0.954375 0.535000 0.000000
1.000000 0.535000 0.000000
1.000000 0.535000 0.000000
1.000000 0.535000 0.000000
0.020000 0.600625 0.000000
0.091875 0.600625 0.000000
0.163750 0.600625 0.000000
0.235625 0.600625 0.000000
0.307500 0.600625 0.000000
0.379375 0.600625 0.000000
0.451250 0.600625 0.000000
0.523125 0.600625 0.000000
0.595000 0.600625 0.000000
0.666875 0.600625 0.000000
0.738750 0.600625 0.000000
0.810625 0.600625 0.000000
0.882500 0.600625 0.000000
0.954375 0.600625 0.000000
1.000000 0.600625 0.000000
1.000000 0.600625 0.000000
1.000000 0.600625 0.000000
0.020000 0.666250 0.000000
0.091875 0.666250 0.000000
0.163750 0.666250 0.000000
0.235625 0.666250 0.000000
0.307500 0.666250 0.000000
0.379375 0.666250 0.000000
0.451250 0.666250 0.000000
0.523125 0.666250 0.000000
0.595000 0.666250 0.000000
0.666875 0.666250 0.000000
0.738750 0.666250 0.000000
0.810625 0.666250 0.000000
0.882500 0.666250 0.000000
0.954375 0.666250 0.000000
1.000000 0.666250 0.000000
1.000000 0.666250 0.000000
1.000000 0.666250 0.000000
0.020000 0.731875 0.000000
0.091875 0.731875 0.000000
0.163750 0.731875 0.000000
0.235625 0.731875 0.000000
0.307500 0.731875 0.000000
0.379375 0.731875 0.000000
0.451250 0.731875 0.000000
0.523125 0.731875 0.000000
0.595000 0.731875 0.000000
0.666875 0.731875 0.000000
0.738750 0.731875 0.000000
0.810625 0.731875 0.000000
0.882500 0.731875 0.000000
0.954375 0.731875 0.000000
1.000000 0.731875 0.000000
1.000000 0.731875 0.000000
1.000000 0.731875 0.000000
0.020000 0.797500 0.000000
0.091875 0.797500 0.000000
0.163750 0.797500 0.000000
0.235625 0.797500 0.000000
0.307500 0.797500 0.000000
0.379375 0.797500 0.000000
0.451250 0.797500 0.000000
0.523125 0.797500 0.000000
0.595000 0.797500 0.000000
0.666875 0.797500 0.000000
0.738750 0.797500 0.000000
0.810625 0.797500 0.000000
0.882500 0.797500 0.000000
0.954375 0.797500 0.000000
1.000000 0.797500 0.000000
1.000000 0.797500 0.000000
1.000000 0.797500 0.000000
0.020000 0.863125 0.000000
0.091875 0.863125 0.000000
0.163750 0.863125 0.000000
0.235625 0.863125 0.000000
0.307500 0.863125 0.000000
0.379375 0.863125 0.000000
0.451250 0.863125 0.000000
0.523125 0.863125 0.000000
0.595000 0.863125 0.000000
0.666875 0.863125 0.000000
0.738750 0.863125 0.000000
0.810625 0.863125 0.000000
0.882500 0.863125 0.000000
0.954375 0.863125 0.000000
1.000000 0.863125 0.000000
1.000000 0.863125 0.000000
1.000000 0.863125 0.000000
0.020000 0.928750 0.000000
0.091875 0.928750 0.000000
0.163750 0.928750 0.000000
0.235625 0.928750 0.000000
0.307500 0.928750 0.000000
0.379375 0.928750 0.000000
0.451250 0.928750 0.000000
0.523125 0.928750 0.000000
0.595000 0.928750 0.000000
0.666875 0.928750 0.000000
0.738750 0.928750 0.000000
0.810625 0.928750 0.000000
0.882500 0.928750 0.000000
0.954375 0.928750 0.000000
1.000000 0.928750 0.000000
1.000000 0.928750 0.000000
1.000000 0.928750 0.000000
0.020000 0.994375 0.000000
0.091875 0.994375 0.000000
0.163750 0.994375 0.000000
0.235625 0.994375 0.000000
0.307500 0.994375 0.000000
0.379375 0.994375 0.000000
0.451250 0.994375 0.000000
0.523125 0.994375 0.000000
0.595000 0.994375 0.000000
0.666875 0.994375 0.000000
0.738750 0.994375 0.000000
0.810625 0.994375 0.000000
0.882500 0.994375 0.000000
0.954375 0.994375 0.000000
1.000000 0.994375 0.000000
1.000000 0.994375 0.000000
1.000000 0.994375 0.000000
0.020000 1.000000 0.000000
0.091875 1.000000 0.000000
0.163750 1.000000 0.000000
0.235625 1.000000 0.000000
0.307500 1.000000 0.000000
0.379375 1.000000 0.000000
0.451250 1.000000 0.000000
0.523125 1.000000 0.000000
0.595000 1.000000 0.000000
0.666875 1.000000 0.000000
0.738750 1.000000 0.000000
0.810625 1.000000 0.000000
0.882500 1.000000 0.000000
0.954375 1.000000 0.000000
1.000000 1.000000 0.000000
1.000000 1.000000 0.000000
1.000000 1.000000 0.000000
0.020000 0.010000 0.050000
0.091875 0.010000 0.050000
0.163750 0.010000 0.050000
0.235625 0.010000 0.050000
0.307500 0.010000 0.050000
0.379375 0.010000 0.050000
0.451250 0.010000 0.050000
0.523125 0.010000 0.050000
0.595000 0.010000 0.050000
0.666875 0.010000 0.050000
0.738750 0.010000 0.050000
0.810625 0.010000 0.050000
0.882500 0.010000 0.050000
0.954375 0.010000 0.050000
1.000000 0.010000 0.050000
1.000000 0.010000 0.050000
1.000000 0.010000 0.050000
0.020000 0.075625 0.050000
0.091875 0.075625 0.050000
0.163750 0.075625 0.050000
0.235625 0.075625 0.050000
0.307500 0.075625 0.050000
0.379375 0.075625 0.050000
0.451250 0.075625 0.050000
0.523125 0.075625 0.050000
0.595000 0.075625 0.050000
0.666875 0.075625 0.050000
0.738750 0.075625 0.050000
0.810625 0.075625 0.050000
0.882500 0.075625 0.050000
0.954375 0.075625 0.050000
1.000000 0.075625 0.050000
1.000000 0.075625 0.050000
1.000000 0.075625 0.050000
0.020000 0.141250 0.050000
0.091875 0.141250 0.050000
0.163750 0.141250 0.050000
0.235625 0.141250 0.050000
0.307500 0.141250 0.050000
0.379375 0.141250 0.050000
0.451250 0.141250 0.050000
0.523125 0.141250 0.050000
0.595000 0.141250 0.050000
0.666875 0.141250 0.050000
0.738750 0.141250 0.050000
0.810625 0.141250 0.050000
0.882500 0.141250 0.050000
0.954375 0.141250 0.050000
1.000000 0.141250 0.050000
1.000000 0.141250 0.050000
1.000000 0.141250 0.050000
0.020000 0.206875 0.050000
0.091875 0.206875 0.050000
0.163750 0.206875 0.050000
0.235625 0.206875 0.050000
0.307500 0.206875 0.050000
0.379375 0.206875 0.050000
0.451250 0.206875 0.050000
0.523125 0.206875 0.050000
0.595000 0.206875 0.050000
0.666875 0.206875 0.050000
0.738750 0.206875 0.050000
0.810625 0.206875 0.050000
0.882500 0.206875 0.050000
0.954375 0.206875 0.050000
1.000000 0.206875 0.050000
1.000000 0.206875 0.050000
1.000000 0.206875 0.050000
0.020000 0.272500 0.050000
0.091875 0.272500 0.050000
0.163750 0.272500 0.050000
0.235625 0.272500 0.050000
0.307500 0.272500 0.050000
0.379375 0.272500 0.050000
0.451250 0.272500 0.050000
0.523125 0.272500 0.050000
0.595000 0.272500 0.050000
0.666875 0.272500 0.050000
0.738750 0.272500 0.050000
0.810625 0.272500 0.050000
0.882500 0.272500 0.050000
0.954375 0.272500 0.050000
1.000000 0.272500 0.050000
1.000000 0.272500 0.050000
1.000000 0.272500 0.050000
0.020000 0.338125 0.050000
0.091875 0.338125 0.050000
0.163750 0.338125 0.050000
0.235625 0.338125 0.050000
0.307500 0.338125 0.050000
0.379375 0.338125 0.050000
0.451250 0.338125 0.050000
0.523125 0.338125 0.050000
0.595000 0.338125 0.050000
0.666875 0.338125 0.050000
0.738750 0.338125 0.050000
0.810625 0.338125 0.050000
0.882500 0.338125 0.050000
0.954375 0.338125 0.050000
1.000000 0.338125 0.050000
1.000000 0.338125 0.050000
1.000000 0.338125 0.050000
0.020000 0.403750 0.050000
0.091875 0.403750 0.050000
0.163750 0.403750 0.050000
0.235625 0.403750 0.050000
0.307500 0.403750 0.050000
0.379375 0.403750 0.050000
0.451250 0.403750 0.050000
0.523125 0.403750 0.050000
0.595000 0.403750 0.050000
0.666875 0.403750 0.050000
0.738750 0.403750 0.050000
0.810625 0.403750 0.050000
0.882500 0.403750 0.050000
0.954375 0.403750 0.050000
1.000000 0.403750 0.050000
1.000000 0.403750 0.050000
1.000000 0.403750 0.050000
0.020000 0.469375 0.050000
0.091875 0.469375 0.050000
0.163750 0.469375 0.050000
0.235625 0.469375 0.050000
0.307500 0.469375 0.050000
0.379375 0.469375 0.050000
0.451250 0.469375 0.050000
0.523125 0.469375 0.050000
0.595000 0.469375 0.050000
0.666875 0.469375 0.050000
0.738750 0.469375 0.050000
0.810625 0.469375 0.050000
0.882500 0.469375 0.050000
0.954375 0.469375 0.050000
1.000000 0.469375 0.050000
1.000000 0.469375 0.050000
1.000000 0.469375 0.050000
0.020000 0.535000 0.050000
0.091875 0.535000 0.050000
0.163750 0.535000 0.050000
0.235625 0.535000 0.050000
0.307500 0.535000 0.050000
0.379375 0.535000 0.050000
0.451250 0.535000 0.050000
0.523125 0.535000 0.050000
0.595000 0.535000 0.050000
0.666875 0.535000 0.050000
0.738750 0.535000 0.050000
0.810625 0.535000 0.050000
0.882500 0.535000 0.050000
0.954375 0.535000 0.050000
1.000000 0.535000 0.050000
1.000000 0.535000 0.050000
1.000000 0.535000 0.050000
0.020000 0.600625 0.050000
0.091875 0.600625 0.050000
0.163750 0.600625 0.050000
0.235625 0.600625 0.050000
0.307500 0.600625 0.050000
0.379375 0.600625 0.050000
0.451250 0.600625 0.050000
0.523125 0.600625 0.050000
0.595000 0.600625 0.050000
0.666875 0.600625 0.050000
0.738750 0.600625 0.050000
0.810625 0.600625 0.050000
0.882500 0.600625 0.050000
0.954375 0.600625 0.050000
1.000000 0.600625 0.050000
1.000000 0.600625 0.050000
1.000000 0.600625 0.050000
0.020000 0.666250 0.050000
0.091875 0.666250 0.050000
0.163750 0.666250 0.050000
0.235625 0.666250 0.050000
0.307500 0.666250 0.050000
0.379375 0.666250 0.050000
0.451250 0.666250 0.050000
0.523125 0.666250 0.050000
0.595000 0.666250 0.050000
0.666875 0.666250 0.050000
0.738750 0.666250 0.050000
0.810625 0.666250 0.050000
0.882500 0.666250 0.050000
0.954375 0.666250 0.050000
1.000000 0.666250 0.050000
1.000000 0.666250 0.050000
1.000000 0.666250 0.050000
0.020000 0.731875 0.050000
0.091875 0.731875 0.050000
0.163750 0.731875 0.050000
0.235625 0.731875 0.050000
0.307500 0.731875 0.050000
0.379375 0.731875 0.050000
0.451250 0.731875 0.050000
0.523125 0.731875 0.050000
0.595000 0.731875 0.050000
0.666875 0.731875 0.050000
0.738750 0.731875 0.050000
0.810625 0.731875 0.050000
0.882500 0.731875 0.050000
0.954375 0.731875 0.050000
1.000000 0.731875 0.050000
1.000000 0.731875 0.050000
1.000000 0.731875 0.050000
0.020000 0.797500 0.050000
0.091875 0.797500 0.050000
0.163750 0.797500 0.050000
0.235625 0.797500 0.050000
0.307500 0.797500 0.050000
0.379375 0.797500 0.050000
0.451250 0.797500 0.050000
0.523125 0.797500 0.050000
0.595000 0.797500 0.050000
0.666875 0.797500 0.050000
0.738750 0.797500 0.050000
0.810625 0.797500 0.050000
0.882500 0.797500 0.050000
0.954375 0.797500 0.050000
1.000000 0.797500 0.050000
1.000000 0.797500 0.050000
1.000000 0.797500 0.050000
0.020000 0.863125 0.050000
0.091875 0.863125 0.050000
0.163750 0.863125 0.050000
0.235625 0.863125 0.050000
0.307500 0.863125 0.050000
0.379375 0.863125 0.050000
0.451250 0.863125 0.050000
0.523125 0.863125 0.050000
0.595000 0.863125 0.050000
0.666875 0.863125 0.050000
0.738750 0.863125 0.050000
0.810625 0.863125 0.050000
0.882500 0.863125 0.050000
0.954375 0.863125 0.050000
1.000000 0.863125 0.050000
1.000000 0.863125 0.050000
1.000000 0.863125 0.050000
0.020000 0.928750 0.050000
0.091875 0.928750 0.050000
0.163750 0.928750 0.050000
0.235625 0.928750 0.050000
0.307500 0.928750 0.050000
0.379375 0.928750 0.050000
0.451250 0.928750 0.050000
0.523125 0.928750 0.050000
0.595000 0.928750 0.050000
0.666875 0.928750 0.050000
0.738750 0.928750 0.050000
0.810625 0.928750 0.050000
0.882500 0.928750 0.050000
0.954375 0.928750 0.050000
1.000000 0.928750 0.050000
1.000000 0.928750 0.050000
1.000000 0.928750 0.050000
0.020000 0.994375 0.050000
0.091875 0.994375 0.050000
0.163750 0.994375 0.050000
0.235625 0.994375 0.050000
0.307500 0.994375 0.050000
0.379375 0.994375 0.050000
0.451250 0.994375 0.050000
0.523125 0.994375 0.050000
0.595000 0.994375 0.050000
0.666875 0.994375 0.050000
0.738750 0.994375 0.050000
0.810625 0.994375 0.050000
0.882500 0.994375 0.050000
0.954375 0.994375 0.050000
1.000000 0.994375 0.050000
1.000000 0.994375 0.050000
1.000000 0.994375 0.050000
0.020000 1.000000 0.050000
0.091875 1.000000 0.050000
0.163750 1.000000 0.050000
0.235625 1.000000 0.050000
0.307500 1.000000 0.050000
0.379375 1.000000 0.050000
0.451250 1.000000 0.050000
0.523125 1.000000 0.050000
0.595000 1.000000 0.050000
0.666875 1.000000 0.050000
0.738750 1.000000 0.050000
0.810625 1.000000 0.050000
0.882500 1.000000 0.050000
0.954375 1.000000 0.050000
1.000000 1.000000 0.050000
1.000000 1.000000 0.050000
1.000000 1.000000 0.050000
0.020000 0.010000 0.100000
0.091875 0.010000 0.100000
0.163750 0.010000 0.100000
0.235625 0.010000 0.100000
0.307500 0.010000 0.100000
0.379375 0.010000 0.100000
0.451250 0.010000 0.100000
0.523125 0.010000 0.100000
0.595000 0.010000 0.100000
0.666875 0.010000 0.100000
0.738750 0.010000 0.100000
0.810625 0.010000 0.100000
0.882500 0.010000 0.100000
0.954375 0.010000 0.100000
1.000000 0.010000 0.100000
1.000000 0.010000 0.100000
1.000000 0.010000 0.100000
0.020000 0.075625 0.100000
0.091875 0.075625 0.100000
0.163750 0.075625 0.100000
0.235625 0.075625 0.100000
0.307500 0.075625 0.100000
0.379375 0.075625 0.100000
0.451250 0.075625 0.100000
0.523125 0.075625 0.100000
0.595000 0.075625 0.100000
0.666875 0.075625 0.100000
0.738750 0.075625 0.100000
0.810625 0.075625 0.100000
0.882500 0.075625 0.100000
0.954375 0.075625 0.100000
1.000000 0.075625 0.100000
1.000000 0.075625 0.100000
1.000000 0.075625 0.100000
0.020000 0.141250 0.100000
0.091875 0.141250 0.100000
0.163750 0.141250 0.100000
0.235625 0.141250 0.100000
0.307500 0.141250 0.100000
0.379375 0.141250 0.100000
0.451250 0.141250 0.100000
0.523125 0.141250 0.100000
0.595000 0.141250 0.100000
0.666875 0.141250 0.100000
0.738750 0.141250 0.100000
0.810625 0.141250 0.100000
0.882500 0.141250 0.100000
0.954375 0.141250 0.100000
1.000000 0.141250 0.100000
1.000000 0.141250 0.100000
1.000000 0.141250 0.100000
0.020000 0.206875 0.100000
0.091875 0.206875 0.100000
0.163750 0.206875 0.100000
0.235625 0.206875 0.100000
0.307500 0.206875 0.100000
0.379375 0.206875 0.100000
0.451250 0.206875 0.100000
0.523125 0.206875 0.100000
0.595000 0.206875 0.100000
0.666875 0.206875 0.100000
0.738750 0.206875 0.100000
0.810625 0.206875 0.100000
0.882500 0.206875 0.100000
0.954375 0.206875 0.100000
1.000000 0.206875 0.100000
1.000000 0.206875 0.100000
1.000000 0.206875 0.100000
0.020000 0.272500 0.100000
0.091875 0.272500 0.100000
0.163750 0.272500 0.100000
0.235625 0.272500 0.100000
0.307500 0.272500 0.100000
0.379375 0.272500 0.100000
0.451250 0.272500 0.100000
0.523125 0.272500 0.100000
0.595000 0.272500 0.100000
0.666875 0.272500 0.100000
0.738750 0.272500 0.100000
0.810625 0.272500 0.100000
0.882500 0.272500 0.100000
0.954375 0.272500 0.100000
1.000000 0.272500 0.100000
1.000000 0.272500 0.100000
1.000000 0.272500 0.100000
0.020000 0.338125 0.100000
0.091875 0.338125 0.100000
0.163750 0.338125 0.100000
0.235625 0.338125 0.100000
0.307500 0.338125 0.100000
0.379375 0.338125 0.100000
0.451250 0.338125 0.100000
0.523125 0.338125 0.100000
0.595000 0.338125 0.100000
0.666875 0.338125 0.100000
0.738750 0.338125 0.100000
0.810625 0.338125 0.100000
0.882500 0.338125 0.100000
0.954375 0.338125 0.100000
1.000000 0.338125 0.100000
1.000000 0.338125 0.100000
1.000000 0.338125 0.100000
0.020000 0.403750 0.100000
0.091875 0.403750 0.100000
0.163750 0.403750 0.100000
0.235625 0.403750 0.100000
0.307500 0.403750 0.100000
0.379375 0.403750 0.100000
0.451250 0.403750 0.100000
0.523125 0.403750 0.100000
0.595000 0.403750 0.100000
0.666875 0.403750 0.100000
0.738750 0.403750 0.100000
0.810625 0.403750 0.100000
0.882500 0.403750 0.100000
0.954375 0.403750 0.100000
1.000000 0.403750 0.100000
1.000000 0.403750 0.100000
1.000000 0.403750 0.100000
0.020000 0.469375 0.100000
0.091875 0.469375 0.100000
0.163750 0.469375 0.100000
0.235625 0.469375 0.100000
0.307500 0.469375 0.100000
0.379375 0.469375 0.100000
0.451250 0.469375 0.100000
0.523125 0.469375 0.100000
0.595000 0.469375 0.100000
0.666875 0.469375 0.100000
0.738750 0.469375 0.100000
0.810625 0.469375 0.100000
0.882500 0.469375 0.100000
0.954375 0.469375 0.100000
1.000000 0.469375 0.100000
1.000000 0.469375 0.100000
1.000000 0.469375 0.100000
0.020000 0.535000 0.100000
0.091875 0.535000 0.100000
0.163750 0.535000 0.100000
0.235625 0.535000 0.100000
0.307500 0.535000 0.100000
0.379375 0.535000 0.100000
0.451250 0.535000 0.100000
0.523125 0.535000 0.100000
0.595000 0.535000 0.100000
0.666875 0.535000 0.100000
0.738750 0.535000 0.100000
0.810625 0.535000 0.100000
0.882500 0.535000 0.100000
0.954375 0.535000 0.100000
1.000000 0.535000 0.100000
1.000000 0.535000 0.100000
1.000000 0.535000 0.100000
0.020000 0.600625 0.100000
0.091875 0.600625 0.100000
0.163750 0.600625 0.100000
0.235625 0.600625 0.100000
0.307500 0.600625 0.100000
0.379375 0.600625 0.100000
0.451250 0.600625 0.100000
0.523125 0.600625 0.100000
0.595000 0.600625 0.100000
0.666875 0.600625 0.100000
0.738750 0.600625 0.100000
0.810625 0.600625 0.100000
0.882500 0.600625 0.100000
0.954375 0.600625 0.100000
1.000000 0.600625 0.100000
1.000000 0.600625 0.100000
1.000000 0.600625 0.100000
0.020000 0.666250 0.100000
0.091875 0.666250 0.100000
0.163750 0.666250 0.100000
0.235625 0.666250 0.100000
0.307500 0.666250 0.100000
0.379375 0.666250 0.100000
0.451250 0.666250 0.100000
0.523125 0.666250 0.100000
0.595000 0.666250 0.100000
0.666875 0.666250 0.100000
0.738750 0.666250 0.100000
0.810625 0.666250 0.100000
0.882500 0.666250 0.100000
0.954375 0.666250 0.100000
1.000000 0.666250 0.100000
1.000000 0.666250 0.100000
1.000000 0.666250 0.100000
0.020000 0.731875 0.100000
0.091875 0.731875 0.100000
0.163750 0.731875 0.100000
0.235625 0.731875 0.100000
0.307500 0.731875 0.100000
0.379375 0.731875 0.100000
0.451250 0.731875 0.100000
0.523125 0.731875 0.100000
0.595000 0.731875 0.100000
0.666875 0.731875 0.100000
0.738750 0.731875 0.100000
0.810625 0.731875 0.100000
0.882500 0.731875 0.100000
0.954375 0.731875 0.100000
1.000000 0.731875 0.100000
1.000000 0.731875 0.100000
1.000000 0.731875 0.100000
0.020000 0.797500 0.100000
0.091875 0.797500 0.100000
0.163750 0.797500 0.100000
0.235625 0.797500 0.100000
0.307500 0.797500 0.100000
0.379375 0.797500 0.100000
0.451250 0.797500 0.100000
0.523125 0.797500 0.100000
0.595000 0.797500 0.100000
0.666875 0.797500 0.100000
0.738750 0.797500 0.100000
0.810625 0.797500 0.100000
0.882500 0.797500 0.100000
0.954375 0.797500 0.100000
1.000000 0.797500 0.100000
1.000000 0.797500 0.100000
1.000000 0.797500 0.100000
0.020000 0.863125 0.100000
0.091875 0.863125 0.100000
0.163750 0.863125 0.100000
0.235625 0.863125 0.100000
0.307500 0.863125 0.100000
0.379375 0.863125 0.100000
0.451250 0.863125 0.100000
0.523125 0.863125 0.100000
0.595000 0.863125 0.100000
0.666875 0.863125 0.100000
0.738750 0.863125 0.100000
0.810625 0.863125 0.100000
0.882500 0.863125 0.100000
0.954375 0.863125 0.100000
1.000000 0.863125 0.100000
1.000000 0.863125 0.100000
1.000000 0.863125 0.100000
0.020000 0.928750 0.100000
0.091875 0.928750 0.100000
0.163750 0.928750 0.100000
0.235625 0.928750 0.100000
0.307500 0.928750 0.100000
0.379375 0.928750 0.100000
0.451250 0.928750 0.100000
0.523125 0.928750 0.100000
0.595000 0.928750 0.100000
0.666875 0.928750 0.100000
0.738750 0.928750 0.100000
0.810625 0.928750 0.100000
0.882500 0.928750 0.100000
0.954375 0.928750 0.100000
1.000000 0.928750 0.100000
1.000000 0.928750 0.100000
1.000000 0.928750 0.100000
0.020000 0.994375 0.100000
0.091875 0.994375 0.100000
0.163750 0.994375 0.100000
0.235625 0.994375 0.100000
0.307500 0.994375 0.100000
0.379375 0.994375 0.100000
0.451250 0.994375 0.100000
0.523125 0.994375 0.100000
0.595000 0.994375 0.100000
0.666875 0.994375 0.100000
0.738750 0.994375 0.100000
0.810625 0.994375 0.100000
0.882500 0.994375 0.100000
0.954375 0.994375 0.100000
1.000000 0.994375 0.100000
1.000000 0.994375 0.100000
1.000000 0.994375 0.100000
0.020000 1.000000 0.100000
0.091875 1.000000 0.100000
0.163750 1.000000 0.100000
0.235625 1.000000 0.100000
0.307500 1.000000 0.100000
0.379375 1.000000 0.100000
0.451250 1.000000 0.100000
0.523125 1.000000 0.100000
0.595000 1.000000 0.100000
0.666875 1.000000 0.100000
0.738750 1.000000 0.100000
0.810625 1.000000 0.100000
0.882500 1.000000 0.100000
0.954375 1.000000 0.100000
1.000000 1.000000 0.100000
1.000000 1.000000 0.100000
1.000000 1.000000 0.100000
0.020000 0.010000 0.150000
0.091875 0.010000 0.150000
0.163750 0.010000 0.150000
0.235625 0.010000 0.150000
0.307500 0.010000 0.150000
0.379375 0.010000 0.150000
0.451250 0.010000 0.150000
0.523125 0.010000 0.150000
0.595000 0.010000 0.150000
0.666875 0.010000 0.150000
0.738750 0.010000 0.150000
0.810625 0.010000 0.150000
0.882500 0.010000 0.150000
0.954375 0.010000 0.150000
1.000000 0.010000 0.150000
1.000000 0.010000 0.150000
1.000000 0.010000 0.150000
0.020000 0.075625 0.150000
